apps/filmtone-desktop-macos/FilmtoneDesktop/Resources/CreativeLuts/filmtone-creative-pack-01-noir.cube
TITLE "Filmtone Noir"
# pack=creative-pack-01
# slug=filmtone-creative-pack-01-noir
# bakerVersion=1.4.0-stone-urban-distinct
# bakeMode=real
LUT_3D_SIZE 65
DOMAIN_MIN 0.0 0.0 0.0
DOMAIN_MAX 1.0 1.0 1.0
0.078958 0.088014 0.063941
0.078958 0.088014 0.063941
0.078958 0.088014 0.063941
0.078958 0.088014 0.063941
0.078958 0.088014 0.063941
0.078958 0.088014 0.063941
0.078958 0.088014 0.063941
0.078958 0.088014 0.063941
0.078958 0.088014 0.063941
0.078958 0.088014 0.063941
0.078958 0.088014 0.063941
0.078958 0.088014 0.063941
0.078958 0.088014 0.063941
0.078958 0.088014 0.063941
0.078958 0.088014 0.063941
0.078958 0.088014 0.063941
0.078958 0.088014 0.063941
0.078958 0.088014 0.063941
0.078958 0.088014 0.063941
0.078958 0.088014 0.063941
0.078958 0.088014 0.063941
0.078958 0.088014 0.063941
0.078958 0.088014 0.063941
0.078958 0.088014 0.063941
0.078958 0.088014 0.063941
0.078958 0.088014 0.063941
0.078958 0.088014 0.063941
0.078958 0.088014 0.063941
0.078958 0.088014 0.063941
0.078958 0.088014 0.063941
0.078958 0.088014 0.063941
0.078958 0.088014 0.063941
0.078958 0.088014 0.063941
0.078958 0.088014 0.063941
0.078958 0.088014 0.063941
0.078958 0.088014 0.063941
0.078958 0.088014 0.063941
0.078958 0.088014 0.063941
0.078958 0.088014 0.063941
0.078958 0.088014 0.063941
0.078958 0.088014 0.063941
0.078958 0.088014 0.063941
0.078958 0.088014 0.063941
0.078958 0.088014 0.063941
0.078958 0.088014 0.063941
0.078958 0.088014 0.063941
0.078958 0.088014 0.063941
0.078958 0.088014 0.063941
0.078958 0.088014 0.063941
0.078958 0.088014 0.063941
0.078958 0.088014 0.063941
0.078958 0.088014 0.063941
0.078958 0.088014 0.063941
0.078958 0.088014 0.063941
0.078958 0.088014 0.063941
0.078958 0.088014 0.063941
0.078958 0.088014 0.063941
0.078958 0.088014 0.063941
0.078958 0.088014 0.063941
0.078958 0.088014 0.063941
0.078958 0.088014 0.063941
0.078958 0.088014 0.063941
0.078958 0.088014 0.063941
0.078958 0.088014 0.063941
0.078958 0.088014 0.063941
0.078958 0.088014 0.063941
0.078958 0.088014 0.063941
0.078958 0.088014 0.063941
0.078958 0.088014 0.063941
0.078958 0.088014 0.063941
0.078958 0.088014 0.063941
0.078958 0.088014 0.063941
0.078958 0.088014 0.063941
0.078958 0.088014 0.063941
0.078958 0.088014 0.063941
0.078958 0.088014 0.063941
0.078958 0.088014 0.063941
0.078958 0.088014 0.063941
0.078958 0.088014 0.063941
0.078958 0.088014 0.063941
0.078958 0.088014 0.063941
0.078958 0.088014 0.063941
0.078958 0.088014 0.063941
0.078958 0.088014 0.063941
0.078958 0.088014 0.063941
0.078958 0.088014 0.063941
0.078958 0.088014 0.063941
0.078958 0.088014 0.063941
0.078958 0.088014 0.063941
0.078958 0.088014 0.063941
0.078958 0.088014 0.063941
0.078958 0.088014 0.063941
0.078958 0.088014 0.063941
0.078958 0.088014 0.063941
0.078958 0.088014 0.063941
0.078958 0.088014 0.063941
0.078958 0.088014 0.063941
0.078958 0.088014 0.063941
0.078958 0.088014 0.063941
0.078958 0.088014 0.063941
0.078958 0.088014 0.063941
0.078958 0.088014 0.063941
0.078958 0.088014 0.063941
0.078958 0.088014 0.063941
0.078958 0.088014 0.063941
0.078958 0.088014 0.063941
0.078958 0.088014 0.063941
0.078958 0.088014 0.063941
0.078958 0.088014 0.063941
0.078958 0.088014 0.063941
0.078958 0.088014 0.063941
0.078958 0.088014 0.063941
0.078958 0.088014 0.063941
0.078958 0.088014 0.063941
0.078958 0.088014 0.063941
0.078958 0.088014 0.063941
0.078958 0.088014 0.063941
0.078958 0.088014 0.063941
0.078958 0.088014 0.063941
0.078958 0.088014 0.063941
0.078958 0.088014 0.063941
0.078958 0.088014 0.063941
0.078958 0.088014 0.063941
0.078958 0.088014 0.063941
0.078958 0.088014 0.063941
0.078958 0.088014 0.063941
0.078958 0.088014 0.063941
0.078958 0.088014 0.063941
0.078958 0.088014 0.063941
0.078958 0.088014 0.063941
0.078958 0.088014 0.063941
0.078958 0.088014 0.063941
0.078958 0.088014 0.063941
0.078958 0.088014 0.063941
0.078958 0.088014 0.063941
0.078958 0.088014 0.063941
0.078958 0.088014 0.063941
0.078958 0.088014 0.063941
0.078958 0.088014 0.063941
0.078958 0.088014 0.063941
0.078958 0.088014 0.063941
0.078958 0.088014 0.063941
0.078958 0.088014 0.063941
0.078958 0.088014 0.063941
0.078958 0.088014 0.063941
0.078958 0.088014 0.063941
0.078958 0.088014 0.063941
0.078958 0.088014 0.063941
0.078958 0.088014 0.063941
0.078958 0.088014 0.063941
0.078958 0.088014 0.063941
0.078958 0.088014 0.063941
0.078958 0.088014 0.063941
0.078958 0.088014 0.063941
0.078958 0.088014 0.063941
0.078958 0.088014 0.063941
0.078958 0.088014 0.063941
0.078958 0.088014 0.063941
0.078958 0.088014 0.063941
0.078958 0.088014 0.063941
0.078958 0.088014 0.063941
0.078958 0.088014 0.063941
0.078958 0.088014 0.063941
0.078958 0.088014 0.063941
0.078958 0.088014 0.063941
0.078958 0.088014 0.063941
0.078958 0.088014 0.063941
0.078958 0.088014 0.063941
0.078958 0.088014 0.063941
0.078958 0.088014 0.063941
0.078958 0.088014 0.063941
0.078958 0.088014 0.063941
0.078958 0.088014 0.063941
0.078958 0.088014 0.063941
0.078958 0.088014 0.063941
0.078958 0.088014 0.063941
0.078958 0.088014 0.063941
0.078958 0.088014 0.063941
0.078958 0.088014 0.063941
0.078958 0.088014 0.063941
0.078958 0.088014 0.063941
0.078958 0.088014 0.063941
0.078958 0.088014 0.063941
0.078958 0.088014 0.063941
0.078958 0.088014 0.063941
0.078958 0.088014 0.063941
0.078958 0.088014 0.063941
0.078958 0.088014 0.063941
0.078958 0.088014 0.063941
0.078958 0.088014 0.063941
0.078958 0.088014 0.063941
0.078958 0.088014 0.063941
0.078958 0.088014 0.063941
0.078958 0.088014 0.063941
0.078958 0.088014 0.063941
0.078958 0.088014 0.063941
0.078958 0.088014 0.063941
0.078958 0.088014 0.063941
0.078958 0.088014 0.063941
0.078958 0.088014 0.063941
0.078958 0.088014 0.063941
0.078958 0.088014 0.063941
0.078958 0.088014 0.063941
0.078958 0.088014 0.063941
0.078958 0.088014 0.063941
0.078958 0.088014 0.063941
0.078958 0.088014 0.063941
0.078958 0.088014 0.063941
0.078958 0.088014 0.063941
0.078958 0.088014 0.063941
0.078958 0.088014 0.063941
0.078958 0.088014 0.063941
0.078958 0.088014 0.063941
0.078958 0.088014 0.063941
0.078958 0.088014 0.063941
0.078958 0.088014 0.063941
0.078958 0.088014 0.063941
0.078958 0.088014 0.063941
0.078958 0.088014 0.063941
0.078958 0.088014 0.063941
0.078958 0.088014 0.063941
0.078958 0.088014 0.063941
0.078958 0.088014 0.063941
0.078958 0.088014 0.063941
0.078958 0.088014 0.063941
0.078958 0.088014 0.063941
0.078958 0.088014 0.063941
0.078958 0.088014 0.063941
0.078958 0.088014 0.063941
0.078958 0.088014 0.063941
0.078958 0.088014 0.063941
0.078958 0.088014 0.063941
0.078958 0.088014 0.063941
0.078958 0.088014 0.063941
0.078958 0.088014 0.063941
0.078958 0.088014 0.063941
0.078958 0.088014 0.063941
0.078958 0.088014 0.063941
0.078958 0.088014 0.063941
0.078958 0.088014 0.063941
0.078958 0.088014 0.063941
0.078958 0.088014 0.063941
0.078958 0.088014 0.063941
0.078958 0.088014 0.063941
0.078958 0.088014 0.063941
0.078958 0.088014 0.063941
0.078958 0.088014 0.063941
0.078958 0.088014 0.063941
0.078958 0.088014 0.063941
0.078958 0.088014 0.063941
0.078958 0.088014 0.063941
0.078958 0.088014 0.063941
0.078958 0.088014 0.063941
0.078958 0.088014 0.063941
0.078958 0.088014 0.063941
0.078958 0.088014 0.063941
0.078958 0.088014 0.063941
0.078958 0.088014 0.063941
0.078958 0.088014 0.063941
0.078958 0.088014 0.063941
0.078958 0.088014 0.063941
0.078958 0.088014 0.063941
0.078958 0.088014 0.063941
0.078958 0.088014 0.063941
0.078958 0.088014 0.063941
0.078958 0.088014 0.063941
0.078958 0.088014 0.063941
0.078958 0.088014 0.063941
0.078958 0.088014 0.063941
0.078958 0.088014 0.063941
0.078958 0.088014 0.063941
0.078958 0.088014 0.063941
0.078958 0.088014 0.063941
0.078958 0.088014 0.063941
0.078958 0.088014 0.063941
0.078958 0.088014 0.063941
0.078958 0.088014 0.063941
0.078958 0.088014 0.063941
0.078958 0.088014 0.063941
0.078958 0.088014 0.063941
0.078958 0.088014 0.063941
0.078958 0.088014 0.063941
0.078958 0.088014 0.063941
0.078958 0.088014 0.063941
0.078958 0.088014 0.063941
0.078958 0.088014 0.063941
0.078958 0.088014 0.063941
0.078958 0.088014 0.063941
0.078958 0.088014 0.063941
0.078958 0.088014 0.063941
0.078958 0.088014 0.063941
0.078958 0.088014 0.063941
0.078958 0.088014 0.063941
0.078958 0.088014 0.063941
0.078958 0.088014 0.063941
0.078958 0.088014 0.063941
0.078958 0.088014 0.063941
0.078958 0.088014 0.063941
0.078958 0.088014 0.063941
0.078958 0.088014 0.063941
0.078958 0.088014 0.063941
0.078958 0.088014 0.063941
0.078958 0.088014 0.063941
0.078958 0.088014 0.063941
0.078958 0.088014 0.063941
0.078958 0.088014 0.063941
0.078958 0.088014 0.063941
0.078958 0.088014 0.063941
0.078958 0.088014 0.063941
0.078958 0.088014 0.063941
0.078958 0.088014 0.063941
0.078958 0.088014 0.063941
0.078958 0.088014 0.063941
0.078958 0.088014 0.063941
0.078958 0.088014 0.063941
0.078958 0.088014 0.063941
0.078958 0.088014 0.063941
0.078958 0.088014 0.063941
0.078958 0.088014 0.063941
0.078958 0.088014 0.063941
0.078958 0.088014 0.063941
0.078958 0.088014 0.063941
0.078958 0.088014 0.063941
0.078958 0.088014 0.063941
0.078958 0.088014 0.063941
0.078958 0.088014 0.063941
0.078958 0.088014 0.063941
0.078958 0.088014 0.063941
0.078958 0.088014 0.063941
0.078958 0.088014 0.063941
0.078958 0.088014 0.063941
0.078958 0.088014 0.063941
0.078958 0.088014 0.063941
0.078958 0.088014 0.063941
0.078958 0.088014 0.063941
0.078958 0.088014 0.063941
0.078958 0.088014 0.063941
0.078958 0.088014 0.063941
0.078958 0.088014 0.063941
0.078958 0.088014 0.063941
0.078958 0.088014 0.063941
0.078958 0.088014 0.063941
0.078958 0.088014 0.063941
0.078958 0.088014 0.063941
0.078958 0.088014 0.063941
0.078958 0.088014 0.063941
0.078958 0.088014 0.063941
0.078958 0.088014 0.063941
0.078958 0.088014 0.063941
0.078958 0.088014 0.063941
0.078958 0.088014 0.063941
0.078958 0.088014 0.063941
0.078958 0.088014 0.063941
0.078958 0.088014 0.063941
0.078958 0.088014 0.063941
0.078958 0.088014 0.063941
0.078958 0.088014 0.063941
0.078958 0.088014 0.063941
0.078958 0.088014 0.063941
0.078958 0.088014 0.063941
0.078958 0.088014 0.063941
0.078958 0.088014 0.063941
0.078958 0.088014 0.063941
0.078958 0.088014 0.063941
0.078958 0.088014 0.063941
0.078958 0.088014 0.063941
0.078958 0.088014 0.063941
0.078958 0.088014 0.063941
0.078958 0.088014 0.063941
0.078958 0.088014 0.063941
0.078958 0.088014 0.063941
0.078958 0.088014 0.063941
0.078958 0.088014 0.063941
0.078958 0.088014 0.063941
0.078958 0.088014 0.063941
0.078958 0.088014 0.063941
0.078958 0.088014 0.063941
0.078958 0.088014 0.063941
0.078958 0.088014 0.063941
0.078958 0.088014 0.063941
0.078958 0.088014 0.063941
0.078958 0.088014 0.063941
0.078958 0.088014 0.063941
0.078958 0.088014 0.063941
0.078958 0.088014 0.063941
0.078958 0.088014 0.063941
0.079207 0.088014 0.063941
0.081761 0.088014 0.063941
0.329950 0.088014 0.063941
0.151709 0.108157 0.063941
0.078958 0.088014 0.063941
0.078958 0.088014 0.063941
0.078958 0.088014 0.063941
0.078958 0.088014 0.063941
0.078958 0.088014 0.063941
0.078958 0.088014 0.063941
0.078958 0.088014 0.063941
0.078958 0.088014 0.063941
0.078958 0.088014 0.063941
0.078958 0.088014 0.063941
0.078958 0.088014 0.063941
0.078958 0.088014 0.063941
0.078958 0.088014 0.063941
0.078958 0.088014 0.063941
0.078958 0.088014 0.063941
0.078958 0.088014 0.063941
0.078958 0.088014 0.063941
0.078958 0.088014 0.063941
0.078958 0.088014 0.063941
0.078958 0.088014 0.063941
0.078958 0.088014 0.063941
0.078958 0.088014 0.063941
0.078958 0.088014 0.063941
0.078958 0.088014 0.063941
0.078958 0.088014 0.063941
0.078958 0.088014 0.063941
0.078958 0.088014 0.063941
0.078958 0.088014 0.063941
0.078958 0.088014 0.063941
0.078958 0.088014 0.063941
0.078958 0.088014 0.063941
0.078958 0.088014 0.063941
0.078958 0.088014 0.063941
0.078958 0.088014 0.063941
0.078958 0.088014 0.063941
0.078958 0.088014 0.063941
0.078958 0.088014 0.063941
0.078958 0.088014 0.063941
0.078958 0.088014 0.063941
0.078958 0.088014 0.063941
0.078958 0.088014 0.063941
0.078958 0.088014 0.063941
0.078958 0.088014 0.063941
0.078958 0.088014 0.063941
0.078958 0.088014 0.063941
0.078958 0.088014 0.063941
0.078958 0.088014 0.063941
0.078958 0.088014 0.063941
0.078958 0.088014 0.063941
0.078958 0.088014 0.063941
0.078958 0.088014 0.063941
0.078958 0.088014 0.063941
0.078958 0.088014 0.063941
0.078958 0.088014 0.063941
0.078958 0.088014 0.063941
0.078958 0.088014 0.063941
0.078958 0.088014 0.063941
0.078958 0.088014 0.063941
0.079670 0.088014 0.063941
0.082231 0.088014 0.063941
0.184326 0.102963 0.063941
0.139354 0.111393 0.063941
0.131038 0.115254 0.067850
0.128728 0.118286 0.074517
0.128511 0.121038 0.079259
0.078958 0.088014 0.063941
0.078958 0.088014 0.063941
0.078958 0.088014 0.063941
0.078958 0.088014 0.063941
0.078958 0.088014 0.063941
0.078958 0.088014 0.063941
0.078958 0.088014 0.063941
0.078958 0.088014 0.063941
0.078958 0.088014 0.063941
0.078958 0.088014 0.063941
0.078958 0.088014 0.063941
0.078958 0.088014 0.063941
0.078958 0.088014 0.063941
0.078958 0.088014 0.063941
0.078958 0.088014 0.063941
0.078958 0.088014 0.063941
0.078958 0.088014 0.063941
0.078958 0.088014 0.063941
0.078958 0.088014 0.063941
0.078958 0.088014 0.063941
0.078958 0.088014 0.063941
0.078958 0.088014 0.063941
0.078958 0.088014 0.063941
0.078958 0.088014 0.063941
0.078958 0.088014 0.063941
0.078958 0.088014 0.063941
0.078958 0.088014 0.063941
0.078958 0.088014 0.063941
0.078958 0.088014 0.063941
0.078958 0.088014 0.063941
0.078958 0.088014 0.063941
0.078958 0.088014 0.063941
0.078958 0.088014 0.063941
0.078958 0.088014 0.063941
0.078958 0.088014 0.063941
0.078958 0.088014 0.063941
0.078958 0.088014 0.063941
0.078958 0.088014 0.063941
0.078958 0.088014 0.063941
0.078958 0.088014 0.063941
0.078958 0.088014 0.063941
0.078958 0.088014 0.063941
0.078958 0.088014 0.063941
0.078958 0.088014 0.063941
0.078958 0.088014 0.063941
0.078958 0.088014 0.063941
0.078958 0.088014 0.063941
0.078958 0.088014 0.063941
0.078958 0.088014 0.063941
0.078958 0.088014 0.063941
0.078958 0.088014 0.063941
0.078958 0.088014 0.063941
0.078958 0.088014 0.063941
0.078958 0.088014 0.063941
0.078958 0.088014 0.063941
0.080134 0.088014 0.063941
0.082701 0.088014 0.063941
0.150208 0.108920 0.063941
0.131888 0.113836 0.063941
0.127591 0.117039 0.070617
0.126705 0.119820 0.076393
0.127183 0.122449 0.080728
0.128356 0.125017 0.084337
0.129939 0.127563 0.087534
0.131791 0.130109 0.090481
0.078958 0.088014 0.063941
0.078958 0.088014 0.063941
0.078958 0.088014 0.063941
0.078958 0.088014 0.063941
0.078958 0.088014 0.063941
0.078958 0.088014 0.063941
0.078958 0.088014 0.063941
0.078958 0.088014 0.063941
0.078958 0.088014 0.063941
0.078958 0.088014 0.063941
0.078958 0.088014 0.063941
0.078958 0.088014 0.063941
0.078958 0.088014 0.063941
0.078958 0.088014 0.063941
0.078958 0.088014 0.063941
0.078958 0.088014 0.063941
0.078958 0.088014 0.063941
0.078958 0.088014 0.063941
0.078958 0.088014 0.063941
0.078958 0.088014 0.063941
0.078958 0.088014 0.063941
0.078958 0.088014 0.063941
0.078958 0.088014 0.063941
0.078958 0.088014 0.063941
0.078958 0.088014 0.063941
0.078958 0.088014 0.063941
0.078958 0.088014 0.063941
0.078958 0.088014 0.063941
0.078958 0.088014 0.063941
0.078958 0.088014 0.063941
0.078958 0.088014 0.063941
0.078958 0.088014 0.063941
0.078958 0.088014 0.063941
0.078958 0.088014 0.063941
0.078958 0.088014 0.063941
0.078958 0.088014 0.063941
0.078958 0.088014 0.063941
0.078958 0.088014 0.063941
0.078958 0.088014 0.063941
0.078958 0.088014 0.063941
0.078958 0.088014 0.063941
0.078958 0.088014 0.063941
0.078958 0.088014 0.063941
0.078958 0.088014 0.063941
0.078958 0.088014 0.063941
0.078958 0.088014 0.063941
0.078958 0.088014 0.063941
0.078958 0.088014 0.063941
0.078958 0.088014 0.063941
0.078958 0.088014 0.063941
0.078958 0.088014 0.063941
0.078958 0.088014 0.063941
0.080599 0.088014 0.063941
0.209021 0.102772 0.063941
0.135450 0.112328 0.063941
0.126958 0.115844 0.065403
0.125016 0.118660 0.072965
0.125106 0.121272 0.078087
0.126104 0.123812 0.082105
0.127594 0.126328 0.085538
0.129391 0.128843 0.088630
0.131397 0.131370 0.091511
0.133557 0.133916 0.094257
0.135837 0.136485 0.096915
0.138216 0.139081 0.099517
0.078958 0.088014 0.063941
0.078958 0.088014 0.063941
0.078958 0.088014 0.063941
0.078958 0.088014 0.063941
0.078958 0.088014 0.063941
0.078958 0.088014 0.063941
0.078958 0.088014 0.063941
0.078958 0.088014 0.063941
0.078958 0.088014 0.063941
0.078958 0.088014 0.063941
0.078958 0.088014 0.063941
0.078958 0.088014 0.063941
0.078958 0.088014 0.063941
0.078958 0.088014 0.063941
0.078958 0.088014 0.063941
0.078958 0.088014 0.063941
0.078958 0.088014 0.063941
0.078958 0.088014 0.063941
0.078958 0.088014 0.063941
0.078958 0.088014 0.063941
0.078958 0.088014 0.063941
0.078958 0.088014 0.063941
0.078958 0.088014 0.063941
0.078958 0.088014 0.063941
0.078958 0.088014 0.063941
0.078958 0.088014 0.063941
0.078958 0.088014 0.063941
0.078958 0.088014 0.063941
0.078958 0.088014 0.063941
0.078958 0.088014 0.063941
0.078958 0.088014 0.063941
0.078958 0.088014 0.063941
0.078958 0.088014 0.063941
0.078958 0.088014 0.063941
0.078958 0.088014 0.063941
0.078958 0.088014 0.063941
0.078958 0.088014 0.063941
0.078958 0.088014 0.063941
0.078958 0.088014 0.063941
0.078958 0.088014 0.063941
0.078958 0.088014 0.063941
0.078958 0.088014 0.063941
0.078958 0.088014 0.063941
0.078958 0.088014 0.063941
0.078958 0.088014 0.063941
0.078958 0.088014 0.063941
0.078958 0.088014 0.063941
0.078958 0.088014 0.063941
0.078958 0.088014 0.063941
0.081066 0.088014 0.063941
0.148891 0.110477 0.063941
0.127359 0.114746 0.063941
0.123511 0.117589 0.068599
0.123048 0.120165 0.075012
0.123831 0.122662 0.079641
0.125224 0.125137 0.083406
0.126968 0.127615 0.086694
0.128941 0.130107 0.089698
0.131077 0.132620 0.092523
0.133337 0.135158 0.095233
0.135698 0.137724 0.097868
0.138142 0.140320 0.100454
0.140660 0.142948 0.103011
0.143245 0.145608 0.105551
0.145892 0.148303 0.108086
0.078958 0.088014 0.063941
0.078958 0.088014 0.063941
0.078958 0.088014 0.063941
0.078958 0.088014 0.063941
0.078958 0.088014 0.063941
0.078958 0.088014 0.063941
0.078958 0.088014 0.063941
0.078958 0.088014 0.063941
0.078958 0.088014 0.063941
0.078958 0.088014 0.063941
0.078958 0.088014 0.063941
0.078958 0.088014 0.063941
0.078958 0.088014 0.063941
0.078958 0.088014 0.063941
0.078958 0.088014 0.063941
0.078958 0.088014 0.063941
0.078958 0.088014 0.063941
0.078958 0.088014 0.063941
0.078958 0.088014 0.063941
0.078958 0.088014 0.063941
0.078958 0.088014 0.063941
0.078958 0.088014 0.063941
0.078958 0.088014 0.063941
0.078958 0.088014 0.063941
0.078958 0.088014 0.063941
0.078958 0.088014 0.063941
0.078958 0.088014 0.063941
0.078958 0.088014 0.063941
0.078958 0.088014 0.063941
0.078958 0.088014 0.063941
0.078958 0.088014 0.063941
0.078958 0.088014 0.063941
0.078958 0.088014 0.063941
0.078958 0.088014 0.063941
0.078958 0.088014 0.063941
0.078958 0.088014 0.063941
0.078958 0.088014 0.063941
0.078958 0.088014 0.063941
0.078958 0.088014 0.063941
0.078958 0.088014 0.063941
0.078958 0.088014 0.063941
0.078958 0.088014 0.063941
0.078958 0.088014 0.063941
0.078958 0.088014 0.063941
0.078958 0.088014 0.063941
0.078982 0.088014 0.063941
0.081533 0.088217 0.063941
0.130557 0.113889 0.063941
0.122335 0.116679 0.063941
0.121005 0.119164 0.071245
0.121520 0.121587 0.076837
0.122809 0.124003 0.081085
0.124507 0.126432 0.084646
0.126456 0.128882 0.087814
0.128576 0.131357 0.090744
0.130823 0.133860 0.093521
0.133170 0.136394 0.096199
0.135600 0.138959 0.098814
0.138104 0.141558 0.101387
0.140672 0.144190 0.103937
0.143300 0.146856 0.106474
0.145985 0.149558 0.109009
0.148723 0.152295 0.111547
0.151513 0.155069 0.114094
0.154354 0.157880 0.116655
0.078958 0.088014 0.063941
0.078958 0.088014 0.063941
0.078958 0.088014 0.063941
0.078958 0.088014 0.063941
0.078958 0.088014 0.063941
0.078958 0.088014 0.063941
0.078958 0.088014 0.063941
0.078958 0.088014 0.063941
0.078958 0.088014 0.063941
0.078958 0.088014 0.063941
0.078958 0.088014 0.063941
0.078958 0.088014 0.063941
0.078958 0.088014 0.063941
0.078958 0.088014 0.063941
0.078958 0.088014 0.063941
0.078958 0.088014 0.063941
0.078958 0.088014 0.063941
0.078958 0.088014 0.063941
0.078958 0.088014 0.063941
0.078958 0.088014 0.063941
0.078958 0.088014 0.063941
0.078958 0.088014 0.063941
0.078958 0.088014 0.063941
0.078958 0.088014 0.063941
0.078958 0.088014 0.063941
0.078958 0.088014 0.063941
0.078958 0.088014 0.063941
0.078958 0.088014 0.063941
0.078958 0.088014 0.063941
0.078958 0.088014 0.063941
0.078958 0.088014 0.063941
0.078958 0.088014 0.063941
0.078958 0.088014 0.063941
0.078958 0.088014 0.063941
0.078958 0.088014 0.063941
0.078958 0.088014 0.063941
0.078958 0.088014 0.063941
0.078958 0.088014 0.063941
0.078958 0.088014 0.063941
0.078958 0.088014 0.063941
0.078958 0.088014 0.063941
0.078958 0.088014 0.063941
0.079444 0.088014 0.063941
0.148047 0.114177 0.063941
0.121886 0.116123 0.063941
0.118973 0.118341 0.066277
0.119135 0.120622 0.073508
0.120321 0.122947 0.078492
0.121986 0.125307 0.082441
0.123925 0.127703 0.085834
0.126040 0.130132 0.088903
0.128283 0.132596 0.091769
0.130625 0.135093 0.094505
0.133048 0.137625 0.097157
0.135542 0.140192 0.099755
0.138098 0.142794 0.102318
0.140712 0.145432 0.104862
0.143380 0.148105 0.107397
0.146100 0.150815 0.109932
0.148870 0.153562 0.112473
0.151689 0.156346 0.115025
0.154556 0.159168 0.117592
0.157471 0.162028 0.120177
0.160433 0.164927 0.122783
0.163442 0.167865 0.125413
0.078958 0.088014 0.063941
0.078958 0.088014 0.063941
0.078958 0.088014 0.063941
0.078958 0.088014 0.063941
0.078958 0.088014 0.063941
0.078958 0.088014 0.063941
0.078958 0.088014 0.063941
0.078958 0.088014 0.063941
0.078958 0.088014 0.063941
0.078958 0.088014 0.063941
0.078958 0.088014 0.063941
0.078958 0.088014 0.063941
0.078958 0.088014 0.063941
0.078958 0.088014 0.063941
0.078958 0.088014 0.063941
0.078958 0.088014 0.063941
0.078958 0.088014 0.063941
0.078958 0.088014 0.063941
0.078958 0.088014 0.063941
0.078958 0.088014 0.063941
0.078958 0.088014 0.063941
0.078958 0.088014 0.063941
0.078958 0.088014 0.063941
0.078958 0.088014 0.063941
0.078958 0.088014 0.063941
0.078958 0.088014 0.063941
0.078958 0.088014 0.063941
0.078958 0.088014 0.063941
0.078958 0.088014 0.063941
0.078958 0.088014 0.063941
0.078958 0.088014 0.063941
0.078958 0.088014 0.063941
0.078958 0.088014 0.063941
0.078958 0.088014 0.063941
0.078958 0.088014 0.063941
0.078958 0.088014 0.063941
0.078958 0.088014 0.063941
0.078958 0.088014 0.063941
0.078958 0.088014 0.063941
0.079908 0.088014 0.063941
0.123764 0.116693 0.063941
0.116941 0.117869 0.063941
0.116613 0.119835 0.069313
0.117713 0.121999 0.075493
0.119374 0.124259 0.080016
0.121326 0.126582 0.083725
0.123455 0.128954 0.086981
0.125708 0.131370 0.089965
0.128055 0.133826 0.092777
0.130479 0.136321 0.095479
0.132969 0.138853 0.098108
0.135518 0.141423 0.100691
0.138121 0.144030 0.103245
0.140777 0.146674 0.105785
0.143481 0.149355 0.108319
0.146234 0.152074 0.110856
0.149034 0.154830 0.113400
0.151880 0.157625 0.115957
0.154773 0.160459 0.118531
0.157711 0.163331 0.121123
0.160696 0.166243 0.123738
0.163726 0.169194 0.126377
0.166802 0.172185 0.129042
0.169924 0.175218 0.131735
0.173093 0.178291 0.134458
0.078958 0.088014 0.063941
0.078958 0.088014 0.063941
0.078958 0.088014 0.063941
0.078958 0.088014 0.063941
0.078958 0.088014 0.063941
0.078958 0.088014 0.063941
0.078958 0.088014 0.063941
0.078958 0.088014 0.063941
0.078958 0.088014 0.063941
0.078958 0.088014 0.063941
0.078958 0.088014 0.063941
0.078958 0.088014 0.063941
0.078958 0.088014 0.063941
0.078958 0.088014 0.063941
0.078958 0.088014 0.063941
0.078958 0.088014 0.063941
0.078958 0.088014 0.063941
0.078958 0.088014 0.063941
0.078958 0.088014 0.063941
0.078958 0.088014 0.063941
0.078958 0.088014 0.063941
0.078958 0.088014 0.063941
0.078958 0.088014 0.063941
0.078958 0.088014 0.063941
0.078958 0.088014 0.063941
0.078958 0.088014 0.063941
0.078958 0.088014 0.063941
0.078958 0.088014 0.063941
0.078958 0.088014 0.063941
0.078958 0.088014 0.063941
0.078958 0.088014 0.063941
0.078958 0.088014 0.063941
0.078958 0.088014 0.063941
0.078958 0.088014 0.063941
0.078958 0.088014 0.063941
0.078958 0.088014 0.063941
