apps/filmtone-desktop-macos/FilmtoneDesktop/Resources/CreativeLuts/filmtone-creative-pack-01-urban-rec709-safe.cube
TITLE "Filmtone Urban Rec.709 Safe"
# pack=creative-pack-01
# slug=filmtone-creative-pack-01-urban
# variant=rec709-safe
# bakerVersion=1.5.0-stone-palermo-signature
# generator=filmtone-rec709-safe-color-v1
LUT_3D_SIZE 5
DOMAIN_MIN 0.0 0.0 0.0
DOMAIN_MAX 1.0 1.0 1.0
0.054155 0.067368 0.072306
0.121049 0.064418 0.062333
0.287291 0.042056 0.029156
0.478642 0.028021 0.030238
0.586147 0.035836 0.037450
0.022198 0.101117 0.061315
0.083847 0.097953 0.049304
0.317880 0.059969 0.012465
0.508974 0.031514 0.032019
0.612597 0.052906 0.053042
0.002654 0.186031 0.030706
0.000529 0.181057 0.026820
0.133272 0.172503 0.023804
0.632796 0.222243 0.045898
0.680308 0.116424 0.079765
0.009665 0.366352 0.030844
0.010722 0.360672 0.032528
0.011277 0.347585 0.034135
0.283575 0.370123 0.020857
0.792936 0.493370 0.150044
0.085027 0.551651 0.085055
0.097139 0.559618 0.097139
0.113479 0.576458 0.113479
0.050409 0.438030 0.067914
0.527617 0.633192 0.196127
0.046246 0.065995 0.135525
0.117191 0.065767 0.130174
0.300381 0.036063 0.056955
0.485453 0.028061 0.030116
0.589539 0.036473 0.037912
0.018349 0.104991 0.104638
0.124956 0.142895 0.136479
0.358419 0.081229 0.052408
0.529671 0.020828 0.021200
0.623198 0.055872 0.055940
0.001780 0.196668 0.033066
0.001425 0.238131 0.075787
0.218631 0.234134 0.012619
0.663174 0.259540 0.026573
0.738911 0.160808 0.082264
0.012022 0.382526 0.031683
0.007550 0.380687 0.033335
0.009086 0.378369 0.029059
0.308042 0.380091 0.015694
0.819425 0.545911 0.157288
0.097944 0.568127 0.097957
0.114561 0.582982 0.114588
0.116328 0.579566 0.116328
0.056127 0.452548 0.072387
0.549180 0.647512 0.206753
0.025243 0.037597 0.339829
0.070996 0.034764 0.344642
0.293605 0.024377 0.321118
0.494854 0.027282 0.213446
0.598032 0.037452 0.106455
0.013797 0.074474 0.313377
0.066302 0.104717 0.350054
0.353684 0.076619 0.322258
0.554787 0.022247 0.214388
0.635731 0.058429 0.134690
0.001060 0.225363 0.204283
0.014774 0.294062 0.284732
0.400761 0.468217 0.455295
0.709346 0.327565 0.289006
0.775331 0.128646 0.164272
0.016689 0.406902 0.081613
0.018909 0.447683 0.138587
0.057564 0.560702 0.347476
0.524071 0.529717 0.038682
0.881473 0.577439 0.094997
0.107709 0.579246 0.107763
0.137448 0.614936 0.151182
0.095392 0.634880 0.246431
0.090249 0.622059 0.156408
0.600196 0.648599 0.123743
0.023471 0.030999 0.523753
0.035598 0.033792 0.530950
0.206861 0.034146 0.536484
0.490535 0.029227 0.534477
0.610711 0.037560 0.436062
0.028375 0.032691 0.501985
0.040201 0.023149 0.526006
0.252023 0.020515 0.514835
0.559707 0.021544 0.510378
0.650677 0.059997 0.429956
0.032591 0.183478 0.498310
0.022796 0.217682 0.534580
0.337521 0.360223 0.640402
0.703182 0.331792 0.648844
0.785533 0.130203 0.546232
0.033995 0.456865 0.453480
0.035883 0.492174 0.508344
0.090238 0.636803 0.626079
0.691663 0.751936 0.726929
0.898238 0.628672 0.596002
0.145381 0.615689 0.326576
0.167635 0.651646 0.395567
0.127461 0.711237 0.491559
0.134432 0.815778 0.641306
0.754665 0.758114 0.274525
0.027982 0.035020 0.640173
0.030623 0.037074 0.638495
0.129244 0.038564 0.637978
0.403094 0.039659 0.634395
0.612896 0.038696 0.622075
0.034790 0.038291 0.599033
0.039550 0.041603 0.585777
0.190191 0.048225 0.586514
0.479563 0.052486 0.602606
0.656710 0.061185 0.599050
0.058291 0.071049 0.531934
0.065631 0.081566 0.548441
0.246479 0.193666 0.700253
0.606104 0.130846 0.736773
0.771220 0.087612 0.721878
0.063199 0.409141 0.690590
0.077493 0.446646 0.722435
0.084959 0.531854 0.776604
0.661219 0.650370 0.839963
0.888899 0.616831 0.841276
0.193250 0.643709 0.665258
0.215582 0.669735 0.699561
0.167698 0.715967 0.758617
0.310129 0.848851 0.836617
0.873584 0.881682 0.835495
