apps/filmtone-desktop-macos/FilmtoneDesktop/Resources/CreativeLuts/filmtone-creative-pack-01-stone.cube
TITLE "Filmtone Stone"
# pack=creative-pack-01
# slug=filmtone-creative-pack-01-stone
# bakerVersion=1.5.0-stone-palermo-signature
# generator=filmtone-stone-dlogm-palermo-display-v2
LUT_3D_SIZE 9
DOMAIN_MIN 0.0 0.0 0.0
DOMAIN_MAX 1.0 1.0 1.0
0.000000 0.000000 0.000000
0.124938 0.000023 0.000019
0.220371 0.008626 0.006405
0.261492 0.021576 0.011790
0.295182 0.025454 0.000599
0.394072 0.017507 0.000000
0.493725 0.003998 0.000000
0.582242 0.000160 0.000000
0.679283 0.001033 0.000044
0.029253 0.078076 0.030205
0.068778 0.066059 0.036779
0.118103 0.067983 0.034215
0.207610 0.065889 0.026069
0.309270 0.059824 0.007362
0.426976 0.051858 0.000062
0.532064 0.045305 0.000119
0.620880 0.036924 0.001269
0.706657 0.039101 0.007331
0.045057 0.096585 0.047457
0.062740 0.097945 0.045798
0.114613 0.107553 0.041263
0.227335 0.115458 0.033820
0.342195 0.116352 0.012513
0.472736 0.118032 0.006735
0.580456 0.121625 0.009748
0.666250 0.124716 0.016056
0.745903 0.128614 0.024630
0.026870 0.163181 0.055580
0.045182 0.154259 0.051391
0.080429 0.161722 0.046218
0.199802 0.188817 0.037616
0.365259 0.212319 0.014789
0.512290 0.225518 0.012482
0.619528 0.238171 0.017538
0.702858 0.246324 0.024965
0.780132 0.253071 0.033532
0.021873 0.260672 0.076440
0.027257 0.244209 0.067561
0.048490 0.226789 0.054749
0.124346 0.247660 0.045834
0.313926 0.299094 0.020784
0.518193 0.342634 0.017393
0.647479 0.369452 0.022586
0.733306 0.383712 0.030600
0.810714 0.392304 0.039272
0.033435 0.383325 0.113679
0.035713 0.361896 0.099372
0.038774 0.321266 0.074212
0.079955 0.314402 0.057936
0.214803 0.347819 0.031606
0.441048 0.427324 0.020512
0.648912 0.494452 0.027741
0.757475 0.531238 0.036950
0.833502 0.537423 0.044197
0.054516 0.508342 0.172420
0.058989 0.490449 0.154636
0.060530 0.445963 0.117997
0.070362 0.407326 0.081524
0.165450 0.412826 0.053608
0.325964 0.462022 0.026108
0.574460 0.556686 0.030801
0.749740 0.625279 0.042165
0.845061 0.647897 0.051457
0.106392 0.623053 0.264198
0.117008 0.609637 0.243194
0.122745 0.576693 0.197775
0.118061 0.528206 0.141015
0.170446 0.505540 0.098849
0.285442 0.521613 0.061295
0.451246 0.577234 0.035416
0.685530 0.662845 0.044267
0.830671 0.717974 0.062279
0.190531 0.723232 0.372740
0.209061 0.717931 0.356591
0.224925 0.702774 0.322256
0.228428 0.670808 0.261548
0.247320 0.634009 0.191287
0.307431 0.621575 0.137431
0.409178 0.638340 0.087588
0.571703 0.678177 0.051518
0.764342 0.746735 0.070539
0.000000 0.000000 0.125000
0.122689 0.001239 0.122300
0.203590 0.014986 0.100307
0.243675 0.029316 0.061204
0.296787 0.031504 0.021554
0.407676 0.015991 0.000493
0.507665 0.001286 0.000017
0.602922 0.000056 0.000339
0.694636 0.004523 0.006731
0.037633 0.075509 0.069668
0.074449 0.074538 0.064052
0.124610 0.077066 0.059844
0.216857 0.075261 0.049845
0.319709 0.068552 0.032876
0.436817 0.055793 0.009512
0.541973 0.046811 0.006494
0.630526 0.034304 0.007717
0.714772 0.036550 0.016216
0.050035 0.105522 0.066198
0.078337 0.112971 0.074855
0.127352 0.121007 0.066440
0.236876 0.127674 0.058928
0.352253 0.127759 0.044665
0.480870 0.123632 0.026389
0.589916 0.122160 0.022207
0.674742 0.117763 0.022660
0.748565 0.119298 0.033383
0.034457 0.177186 0.077743
0.064253 0.187629 0.089026
0.104415 0.187892 0.080141
0.224560 0.210490 0.067246
0.381704 0.228580 0.047196
0.522893 0.232962 0.030794
0.632304 0.239508 0.026694
0.713243 0.243734 0.032154
0.782211 0.249013 0.040004
0.029136 0.283895 0.108911
0.051211 0.291854 0.116061
0.083055 0.268867 0.097120
0.166396 0.278511 0.079518
0.342275 0.321914 0.054567
0.536491 0.355379 0.036251
0.662752 0.370489 0.028182
0.743940 0.383037 0.034857
0.813121 0.392512 0.047190
0.047374 0.416136 0.160209
0.067191 0.416158 0.159890
0.082251 0.381084 0.129481
0.133621 0.351818 0.096977
0.255459 0.377746 0.066392
0.466234 0.446833 0.040987
0.668462 0.503210 0.035674
0.769225 0.532045 0.041519
0.835193 0.539404 0.051832
0.080176 0.541036 0.228423
0.102861 0.536766 0.221458
0.119703 0.506214 0.186301
0.138625 0.453060 0.132605
0.220994 0.444661 0.096942
0.357074 0.484892 0.055283
0.593833 0.571253 0.042317
0.760756 0.627703 0.051204
0.846773 0.650352 0.062934
0.144514 0.648099 0.318509
0.168375 0.642048 0.307030
0.190686 0.620640 0.272703
0.194383 0.573601 0.204799
0.226752 0.538043 0.144423
0.321373 0.546871 0.100781
0.475218 0.593247 0.055798
0.694017 0.670193 0.057911
0.833673 0.721541 0.087393
0.221728 0.741497 0.413514
0.247522 0.740370 0.403349
0.277160 0.731260 0.378625
0.287158 0.703420 0.323367
0.294976 0.663150 0.245904
0.341351 0.643287 0.184242
0.433698 0.653965 0.131418
0.584814 0.686627 0.077697
0.768368 0.751087 0.099851
0.000000 0.000000 0.250000
0.118106 0.004809 0.232186
0.184278 0.022683 0.172982
0.226569 0.037442 0.101583
0.303676 0.038652 0.063375
0.415675 0.011356 0.040656
0.519477 0.000042 0.030320
0.617314 0.000276 0.039652
0.706079 0.009309 0.058771
0.032693 0.074263 0.102589
0.073927 0.082491 0.099996
0.124890 0.085615 0.102196
0.222354 0.084408 0.095270
0.329451 0.078105 0.082809
0.447838 0.062801 0.065906
0.550072 0.041847 0.053376
0.639772 0.025585 0.048733
0.723915 0.029854 0.065266
0.045658 0.114135 0.103277
0.088963 0.128599 0.118229
0.141396 0.145616 0.123540
0.250262 0.152842 0.118613
0.367023 0.153559 0.110589
0.492987 0.147860 0.098885
0.596445 0.137331 0.085880
0.680555 0.122536 0.075045
0.756759 0.119749 0.080508
0.029050 0.193449 0.115079
0.077583 0.211858 0.133243
0.161435 0.227585 0.151292
0.258089 0.243507 0.131573
0.401183 0.256595 0.110828
0.538155 0.259027 0.093446
0.647213 0.256858 0.081551
0.729804 0.251867 0.074494
0.795821 0.253289 0.089645
0.035363 0.299755 0.147616
0.078970 0.317811 0.168595
0.181290 0.333785 0.190734
0.236768 0.325999 0.160086
0.381071 0.358514 0.135351
0.559787 0.383248 0.109973
0.679161 0.386961 0.084803
0.762318 0.390833 0.079068
0.826074 0.397445 0.090201
0.058880 0.434416 0.208381
0.106018 0.450408 0.228279
0.197596 0.459277 0.239664
0.235417 0.418634 0.191705
0.315828 0.427189 0.151595
0.504987 0.481825 0.129509
0.688764 0.523313 0.099791
0.784744 0.534679 0.090352
0.845226 0.539848 0.099271
0.106043 0.562969 0.287949
0.159712 0.573713 0.301033
0.228740 0.573574 0.298926
0.257057 0.532487 0.244132
0.292970 0.496764 0.181821
0.407038 0.525541 0.139535
0.621805 0.595524 0.113774
0.775679 0.632487 0.109910
0.856321 0.648832 0.127709
0.186173 0.668716 0.375828
0.229996 0.671217 0.377919
0.281705 0.666940 0.368537
0.305182 0.639711 0.321656
0.309932 0.592028 0.238456
0.375811 0.586785 0.186841
0.513296 0.620665 0.133546
0.706545 0.682886 0.128875
0.840610 0.727032 0.182661
0.264910 0.759615 0.461534
0.296551 0.763428 0.459062
0.337398 0.763504 0.448698
0.364960 0.747833 0.412742
0.367731 0.707648 0.338029
0.392767 0.676156 0.263545
0.471697 0.678266 0.213713
0.605727 0.701988 0.155180
0.775373 0.759738 0.183838
0.000016 0.000042 0.374643
0.110273 0.009844 0.330057
0.160833 0.030437 0.246677
0.211552 0.046141 0.169857
0.307138 0.041882 0.142993
0.423729 0.016066 0.125942
0.530609 0.000183 0.122424
0.627734 0.003151 0.134816
0.714931 0.014468 0.158624
0.015445 0.071820 0.173444
0.061280 0.084545 0.181757
0.118177 0.090375 0.183426
0.220278 0.091595 0.180391
0.333521 0.085737 0.168833
0.454705 0.071161 0.154140
0.561443 0.054381 0.149263
0.650976 0.037605 0.149730
0.734880 0.045521 0.171423
0.024412 0.121242 0.178432
0.066493 0.142113 0.190815
0.149050 0.167941 0.198809
0.252743 0.175222 0.209911
0.376708 0.175521 0.213561
0.506881 0.170433 0.207094
0.611374 0.156919 0.196566
0.694911 0.142402 0.189634
0.769529 0.141475 0.197883
0.023446 0.208933 0.193202
0.059655 0.229637 0.209228
0.203474 0.258193 0.234707
0.284546 0.293676 0.252063
0.414399 0.308239 0.255216
0.547684 0.308136 0.249352
0.652260 0.300017 0.234389
0.733202 0.290591 0.224652
0.803693 0.284484 0.225771
0.033088 0.320439 0.224384
0.074044 0.341498 0.243158
0.227227 0.368818 0.275789
0.326518 0.387649 0.303001
0.421694 0.407513 0.274788
0.581290 0.423631 0.234742
0.693108 0.423650 0.207283
0.776701 0.421695 0.200780
0.844372 0.418379 0.209067
0.056187 0.447220 0.270836
0.112726 0.466042 0.289547
0.251542 0.490237 0.320439
0.348298 0.506645 0.347545
0.395817 0.492917 0.305498
0.552703 0.531668 0.279015
0.707848 0.556152 0.238000
0.796723 0.553043 0.208386
0.862352 0.550040 0.214824
0.112606 0.574458 0.340908
0.183227 0.587788 0.357268
0.293341 0.604427 0.381908
0.376489 0.611989 0.395001
0.391218 0.569989 0.333183
0.476764 0.580639 0.286180
0.654896 0.631773 0.277515
0.789885 0.650838 0.249281
0.871017 0.652565 0.239388
0.206402 0.678606 0.422618
0.266183 0.685216 0.432685
0.340011 0.694191 0.445690
0.403675 0.696070 0.444391
0.421910 0.665176 0.388414
0.452492 0.638772 0.318794
0.563905 0.659866 0.274988
0.724678 0.705733 0.280885
0.850721 0.739861 0.305652
0.299511 0.772015 0.506897
0.337817 0.780424 0.512432
0.390919 0.788756 0.516841
0.439227 0.789133 0.507637
0.463166 0.765930 0.460696
0.465970 0.721905 0.377332
0.523796 0.711509 0.323032
0.635153 0.727216 0.278503
0.787105 0.776001 0.304199
0.000214 0.001179 0.490731
0.097321 0.015095 0.422256
0.134739 0.035590 0.332562
0.197500 0.044793 0.274337
0.307816 0.038287 0.264513
0.427898 0.009075 0.250937
0.539123 0.000551 0.251349
0.636766 0.006861 0.264677
0.722899 0.019416 0.285731
0.010005 0.064367 0.279378
0.044966 0.082182 0.291439
0.111102 0.090457 0.297121
0.220351 0.093989 0.297364
0.336778 0.092116 0.292875
0.462445 0.078277 0.284499
0.571436 0.061830 0.282919
0.660618 0.047186 0.284506
0.743663 0.055887 0.302062
0.012278 0.121801 0.292026
0.029314 0.145053 0.306207
0.124119 0.176070 0.323869
0.250948 0.186969 0.329904
0.376085 0.193007 0.334514
0.512407 0.187694 0.335004
0.618947 0.173446 0.330615
0.702456 0.159216 0.326039
0.776340 0.158071 0.330522
0.016726 0.223333 0.313376
0.027514 0.248239 0.329046
0.129175 0.286903 0.346383
0.305494 0.326107 0.347691
0.413859 0.336981 0.364005
0.554291 0.333835 0.380434
0.660584 0.324600 0.376056
0.741816 0.314400 0.370498
0.811631 0.306349 0.368861
0.028608 0.344185 0.341363
0.052004 0.365090 0.353512
0.191084 0.392611 0.368560
0.373107 0.425594 0.385352
0.459323 0.471038 0.405430
0.591345 0.483214 0.415738
0.690727 0.479178 0.414821
0.769717 0.471311 0.405355
0.836089 0.457462 0.395462
0.052305 0.471941 0.374376
0.088235 0.490170 0.385033
0.232288 0.515753 0.402236
0.391327 0.543725 0.432469
0.505355 0.563142 0.458260
0.597303 0.582718 0.431484
0.717256 0.589474 0.376171
0.799471 0.581427 0.337786
0.868494 0.572195 0.328823
0.097154 0.584421 0.415872
0.163811 0.597409 0.425500
0.292008 0.614613 0.442959
0.416597 0.632014 0.470890
0.511681 0.642644 0.496397
0.560145 0.637303 0.454212
0.683770 0.667899 0.432399
0.799401 0.672755 0.367166
0.878506 0.664914 0.330960
0.197233 0.685393 0.474657
0.268039 0.692171 0.483051
0.357827 0.703185 0.497956
0.450104 0.717540 0.519707
0.528619 0.726664 0.531116
0.550417 0.697556 0.474107
0.620399 0.703167 0.428368
0.745829 0.734351 0.422058
0.858825 0.757089 0.421798
0.315814 0.779064 0.547312
0.360304 0.788394 0.554780
0.419147 0.799623 0.565508
0.484189 0.811235 0.577464
0.545624 0.814332 0.575907
0.567063 0.783543 0.521163
0.590646 0.752875 0.451482
0.670169 0.759975 0.410231
0.802747 0.796917 0.419744
0.000160 0.001063 0.595930
0.081998 0.013203 0.507914
0.110003 0.028700 0.420452
0.186553 0.029329 0.387262
0.302326 0.019445 0.383407
0.436352 0.007521 0.382309
0.550937 0.007145 0.385510
0.646300 0.008822 0.396054
0.731080 0.022959 0.415421
0.006107 0.048274 0.387853
0.032026 0.075237 0.403585
0.103458 0.088211 0.414376
0.217499 0.092830 0.419113
0.339877 0.093911 0.419978
0.472286 0.086645 0.418833
0.581997 0.072649 0.418223
0.670641 0.056218 0.420075
0.751667 0.062493 0.435117
0.010198 0.113814 0.408940
0.024855 0.141536 0.424549
0.109548 0.179086 0.444820
0.257648 0.192241 0.453265
0.385374 0.202297 0.458991
0.518019 0.207056 0.462636
0.626368 0.192362 0.464934
0.709597 0.176822 0.462859
0.783072 0.176380 0.466995
0.012585 0.227015 0.438497
0.020917 0.255311 0.456787
0.066097 0.296969 0.476336
0.261926 0.332943 0.489047
0.421625 0.345319 0.493245
0.551632 0.352794 0.500609
0.663070 0.343670 0.505670
0.745393 0.333655 0.505485
0.815015 0.324189 0.503546
0.015921 0.361077 0.472756
0.023947 0.385836 0.485911
0.072581 0.419690 0.500376
0.234701 0.459222 0.515089
0.473897 0.496703 0.509344
0.590170 0.506141 0.520290
0.691497 0.500950 0.541904
0.771319 0.490783 0.539232
0.837673 0.474254 0.530401
0.037907 0.500562 0.500267
0.054697 0.518968 0.508799
0.148506 0.544621 0.520447
0.320052 0.571493 0.534295
0.533800 0.596866 0.535784
0.630806 0.629867 0.542384
0.713019 0.631046 0.558025
0.784516 0.622363 0.559327
0.851986 0.609533 0.546095
0.079581 0.609471 0.527437
0.122236 0.622139 0.533049
0.253371 0.638762 0.541764
0.405987 0.655595 0.553078
0.543389 0.671073 0.569344
0.640569 0.684015 0.583666
0.710039 0.699717 0.564335
0.802288 0.693938 0.492959
0.877060 0.684594 0.456290
0.164190 0.691774 0.551573
0.235109 0.698901 0.555192
0.336719 0.710386 0.562524
0.448459 0.725210 0.574725
0.558218 0.742224 0.595148
0.639506 0.756192 0.616809
0.676725 0.745754 0.579986
0.767435 0.762827 0.560032
0.864200 0.774175 0.542400
0.296939 0.785835 0.596005
0.351216 0.795251 0.601196
0.420680 0.806239 0.609050
0.498615 0.818085 0.620319
0.577955 0.829849 0.635700
0.640851 0.834776 0.643365
0.662309 0.803287 0.593927
0.708799 0.795945 0.548801
0.821177 0.820146 0.540339
0.000092 0.000451 0.687192
0.066688 0.008892 0.581690
0.091565 0.019082 0.502531
0.183294 0.015953 0.491900
0.302802 0.012076 0.493459
0.439400 0.008849 0.497866
0.562297 0.011404 0.508488
0.658959 0.018291 0.520520
0.740466 0.026730 0.535840
0.004363 0.028974 0.484178
0.024389 0.064513 0.501618
0.100891 0.087361 0.519079
0.220521 0.092585 0.527278
0.344980 0.093338 0.532487
0.480401 0.088331 0.536614
0.593266 0.080879 0.540936
0.683332 0.070341 0.546849
0.762789 0.082565 0.558976
0.008541 0.100821 0.509848
0.022897 0.136430 0.528207
0.093777 0.176088 0.551061
0.252406 0.193488 0.564144
0.387600 0.202883 0.572462
0.526618 0.207156 0.577690
0.633996 0.211752 0.582248
0.717819 0.199690 0.584652
0.790573 0.198122 0.588896
0.010344 0.225086 0.549182
0.018104 0.253579 0.568893
0.045467 0.293922 0.589950
0.222608 0.330260 0.603325
0.419964 0.342607 0.604671
0.562467 0.352715 0.609956
0.666696 0.361213 0.615325
0.749307 0.354197 0.620265
0.818035 0.342845 0.619451
0.012875 0.363297 0.587516
0.019814 0.388006 0.601454
0.038726 0.423221 0.616291
0.148749 0.464095 0.633150
0.358698 0.497455 0.640101
0.590480 0.506479 0.636844
0.690101 0.515656 0.642119
0.769736 0.505267 0.644639
0.837286 0.488554 0.640611
0.022959 0.511264 0.618994
0.030502 0.531743 0.628445
0.058056 0.559666 0.638222
0.167144 0.591567 0.651306
0.347036 0.618128 0.658649
0.614268 0.637527 0.640892
0.709138 0.641088 0.642261
0.780953 0.632437 0.659557
0.850590 0.619313 0.653966
0.048904 0.639222 0.646841
0.065406 0.652211 0.650952
0.138694 0.668853 0.656057
0.252441 0.685664 0.662693
0.413180 0.698329 0.664160
0.641912 0.709293 0.648304
0.732717 0.728065 0.636215
0.795169 0.725488 0.658569
0.860278 0.715411 0.663485
0.125376 0.716963 0.650826
0.177389 0.724395 0.652467
0.277352 0.734671 0.655561
0.395412 0.746982 0.659980
0.522219 0.760296 0.664801
0.651156 0.773103 0.673338
0.734389 0.785262 0.679469
0.791125 0.788828 0.660614
0.866555 0.789072 0.651346
0.236109 0.793265 0.663052
0.306256 0.802415 0.665619
0.392440 0.812704 0.668979
0.482732 0.823869 0.673795
0.575112 0.834877 0.681661
0.657207 0.844184 0.696162
0.718222 0.848981 0.710744
0.751140 0.830816 0.672878
0.839875 0.842528 0.651416
0.000538 0.000684 0.761841
0.049566 0.006769 0.640661
0.091652 0.014289 0.579037
0.187285 0.013248 0.584270
0.306538 0.011437 0.589565
0.446801 0.010479 0.596796
0.570428 0.011896 0.608001
0.671109 0.023665 0.624619
0.757070 0.051779 0.644724
0.002566 0.017277 0.567877
0.022241 0.051054 0.584890
0.098494 0.082458 0.608152
0.225938 0.087545 0.618651
0.347204 0.090448 0.627336
0.485670 0.083075 0.633095
0.601885 0.081975 0.641502
0.696417 0.091228 0.652471
0.775739 0.112947 0.665275
0.008527 0.089521 0.595673
0.021595 0.126398 0.614844
0.079823 0.170737 0.637284
0.257788 0.192251 0.653391
0.389760 0.202716 0.663741
0.529278 0.206516 0.670280
0.638963 0.211876 0.676695
0.726944 0.223791 0.684764
0.798744 0.224848 0.690021
0.009563 0.219031 0.640415
0.016359 0.247079 0.659341
0.036673 0.287473 0.679359
0.210280 0.324108 0.690232
0.413559 0.339908 0.693679
0.561650 0.350369 0.700382
0.669323 0.359434 0.706962
0.753768 0.370036 0.713103
0.821797 0.364230 0.714664
0.010616 0.357899 0.679627
0.017044 0.381782 0.692424
0.030577 0.418150 0.708256
0.119628 0.458494 0.722436
0.288360 0.491986 0.733843
0.539656 0.502272 0.728685
0.692180 0.509614 0.729204
0.769296 0.513713 0.730675
0.837669 0.503760 0.731624
0.018647 0.506261 0.709340
0.025604 0.528033 0.720262
0.038667 0.557953 0.731855
0.120023 0.590890 0.742186
0.243377 0.619600 0.754345
0.423265 0.637721 0.755272
0.686644 0.636365 0.743680
0.778499 0.637429 0.742793
0.848791 0.628437 0.743370
0.034216 0.639283 0.740054
0.041321 0.653293 0.745274
0.064346 0.671947 0.750042
0.157505 0.690926 0.754702
0.257963 0.707956 0.760668
0.431664 0.720468 0.759967
0.698533 0.727995 0.736778
0.790946 0.729903 0.736703
0.857126 0.721523 0.753144
0.061290 0.745403 0.758071
0.076482 0.753503 0.759828
0.128811 0.763388 0.761699
0.224891 0.773020 0.763531
0.302927 0.784347 0.767116
0.459802 0.791801 0.764943
0.709375 0.796235 0.741931
0.811330 0.809240 0.721138
0.868794 0.804502 0.747153
0.159141 0.816759 0.759073
0.205969 0.822984 0.760133
0.284147 0.829581 0.760749
0.368418 0.837156 0.762051
0.450303 0.845512 0.763942
0.577340 0.851224 0.763101
0.717416 0.855887 0.765060
0.794824 0.861719 0.776656
0.856016 0.861629 0.758550
0.000177 0.001424 0.817345
0.027119 0.006727 0.686767
0.083548 0.023340 0.658920
0.207165 0.020757 0.666705
0.326729 0.017572 0.674673
0.456593 0.011375 0.683288
0.579863 0.018612 0.695689
0.679467 0.028864 0.712029
0.770053 0.075491 0.737867
0.000849 0.014795 0.642251
0.014454 0.039844 0.657439
0.081019 0.087934 0.684794
0.234046 0.097287 0.700281
0.367407 0.095117 0.709003
0.495797 0.091891 0.718057
0.610871 0.089892 0.726776
0.704776 0.101570 0.739427
0.786082 0.140631 0.755462
0.008062 0.081282 0.670266
0.020983 0.123315 0.689204
0.058274 0.171383 0.710647
0.253200 0.200400 0.731226
0.406650 0.205496 0.741136
0.535694 0.212378 0.750580
0.645419 0.217003 0.758736
0.732689 0.228695 0.767972
0.805595 0.248715 0.776724
0.009497 0.215485 0.716550
0.016287 0.245548 0.735825
0.033495 0.284882 0.754645
0.195496 0.321081 0.763942
0.423643 0.337175 0.769566
0.568633 0.347249 0.777543
0.673549 0.356693 0.785606
0.754861 0.363698 0.791705
0.824706 0.373598 0.797748
0.010174 0.353106 0.755763
0.016856 0.377353 0.768458
0.028815 0.413002 0.784399
0.106645 0.451880 0.797859
0.284267 0.481316 0.808985
0.516608 0.491952 0.806565
0.690691 0.496478 0.804653
0.768792 0.500518 0.808401
0.838610 0.506144 0.813206
0.015499 0.497605 0.785349
0.022319 0.519478 0.796293
0.034578 0.550491 0.809730
0.089379 0.583769 0.819375
0.226198 0.609205 0.829732
0.327236 0.626573 0.838024
0.565169 0.627153 0.828218
0.773035 0.625345 0.820866
0.848057 0.627384 0.824167
0.027213 0.625086 0.814741
0.033596 0.640150 0.821723
0.045355 0.661147 0.829280
0.095002 0.684034 0.834582
0.225559 0.701806 0.840065
0.319122 0.716936 0.846591
0.492022 0.723858 0.844573
0.761104 0.719629 0.831981
0.854719 0.719555 0.832465
0.045044 0.735259 0.839677
0.051076 0.745029 0.842751
0.065282 0.758777 0.846229
0.134686 0.772232 0.848268
0.242766 0.783296 0.850054
0.320684 0.795260 0.854088
0.485808 0.801563 0.850422
0.762716 0.803514 0.822404
0.862372 0.803603 0.824207
0.070630 0.836152 0.859269
0.089759 0.840508 0.859438
0.134335 0.845477 0.858486
0.202176 0.850345 0.857065
0.278902 0.856017 0.855926
0.401940 0.860667 0.851605
0.610367 0.861638 0.842240
0.781086 0.864927 0.835510
0.862618 0.870214 0.837820
