apps/filmtone-desktop-macos/FilmtoneDesktop/Resources/CreativeLuts/filmtone-creative-pack-01-noir.cube
TITLE "Filmtone Noir"
# pack=creative-pack-01
# slug=filmtone-creative-pack-01-noir
# bakerVersion=1.4.0-stone-urban-distinct
# bakeMode=real
LUT_3D_SIZE 5
DOMAIN_MIN 0.0 0.0 0.0
DOMAIN_MAX 1.0 1.0 1.0
0.078958 0.088014 0.063941
0.078958 0.088014 0.063941
0.078958 0.088014 0.063941
0.078958 0.088014 0.063941
0.078958 0.088014 0.063941
0.078958 0.088014 0.063941
0.078958 0.088014 0.063941
0.117222 0.129219 0.085253
0.161856 0.171550 0.127590
0.217031 0.224839 0.174489
0.167875 0.193641 0.143614
0.226486 0.251344 0.194067
0.297539 0.321059 0.255770
0.380782 0.401597 0.329268
0.472610 0.489151 0.412563
0.396652 0.438047 0.358655
0.489572 0.526777 0.444458
0.582874 0.613792 0.533070
0.669490 0.693211 0.618112
0.744693 0.761546 0.694559
0.683340 0.723700 0.647127
0.755875 0.787094 0.719692
0.815591 0.838883 0.780919
0.863671 0.880601 0.831305
0.902174 0.914219 0.872381
0.078958 0.088014 0.063941
0.078958 0.088014 0.063941
0.078958 0.088014 0.063941
0.078958 0.088014 0.063941
0.078958 0.088014 0.063941
0.078958 0.088014 0.063941
0.078958 0.088014 0.063941
0.129963 0.142296 0.104312
0.177957 0.188394 0.145906
0.237200 0.245565 0.196392
0.185217 0.211898 0.163073
0.247754 0.273684 0.217536
0.322971 0.347329 0.283795
0.409576 0.430814 0.361457
0.502884 0.519444 0.447409
0.425978 0.467956 0.392042
0.519844 0.556850 0.479713
0.611673 0.641850 0.567717
0.694947 0.717751 0.649940
0.765983 0.782028 0.722262
0.707944 0.746580 0.677548
0.776304 0.805924 0.745769
0.832072 0.854084 0.802618
0.876833 0.892828 0.849117
0.910299 0.919434 0.886983
0.078958 0.088014 0.063941
0.078958 0.088014 0.063941
0.078958 0.088014 0.063941
0.078958 0.088014 0.063941
0.078958 0.088014 0.063941
0.078958 0.088014 0.063941
0.087480 0.122604 0.078738
0.143862 0.156767 0.121333
0.195368 0.206511 0.165383
0.258787 0.267673 0.219941
0.203774 0.231526 0.183926
0.270406 0.297411 0.242733
0.349644 0.374759 0.313533
0.439103 0.460640 0.394917
0.533117 0.549585 0.482692
0.455872 0.498179 0.426433
0.549892 0.586461 0.515046
0.639543 0.668833 0.601508
0.719092 0.740928 0.680271
0.785911 0.801153 0.748223
0.731213 0.768067 0.706340
0.795405 0.823457 0.770099
0.847407 0.868197 0.822707
0.889082 0.904199 0.865568
0.910299 0.919434 0.892995
0.078958 0.088014 0.063941
0.078958 0.088014 0.063941
0.078958 0.088014 0.063941
0.078958 0.088014 0.063941
0.182192 0.093401 0.102685
0.078958 0.088014 0.063941
0.112176 0.129893 0.101727
0.158882 0.172451 0.138760
0.214119 0.225952 0.186281
0.281788 0.291160 0.245226
0.223626 0.252545 0.206353
0.294430 0.322482 0.269702
0.377432 0.403196 0.344869
0.469129 0.490829 0.429364
0.563042 0.579315 0.518031
0.486088 0.528451 0.461495
0.579462 0.615372 0.550078
0.666322 0.694606 0.634145
0.741878 0.762717 0.708959
0.804516 0.818972 0.772432
0.753121 0.788172 0.733410
0.813226 0.839755 0.792710
0.861671 0.881302 0.841274
0.900492 0.914786 0.880760
0.910299 0.919434 0.892995
0.078958 0.088014 0.063941
0.078958 0.088014 0.063941
0.078958 0.088014 0.063941
0.078958 0.088014 0.063941
0.129341 0.122785 0.106643
0.078958 0.088014 0.063941
0.126367 0.143065 0.117099
0.175077 0.189364 0.157245
0.234247 0.246754 0.208770
0.306172 0.315994 0.272285
0.244826 0.274963 0.230472
0.319781 0.348819 0.298425
0.406169 0.432452 0.377619
0.499398 0.521120 0.464463
0.592412 0.608391 0.553046
0.516363 0.558505 0.496862
0.608322 0.643374 0.584444
0.691883 0.719071 0.665385
0.763291 0.783122 0.735917
0.821851 0.835544 0.794921
0.773674 0.806929 0.758721
0.829827 0.854893 0.813658
0.874940 0.893480 0.858416
0.910299 0.919434 0.892995
0.910299 0.919434 0.892995
