apps/filmtone-desktop-macos/FilmtoneDesktop/Resources/CreativeLuts/filmtone-creative-pack-01-stone.cube
TITLE "Filmtone Stone"
# pack=creative-pack-01
# slug=filmtone-creative-pack-01-stone
# bakerVersion=1.5.0-stone-palermo-signature
# generator=filmtone-stone-dlogm-palermo-display-v2
LUT_3D_SIZE 65
DOMAIN_MIN 0.0 0.0 0.0
DOMAIN_MAX 1.0 1.0 1.0
0.000000 0.000000 0.000000
0.015625 0.000000 0.000000
0.031250 0.000000 0.000000
0.046875 0.000000 0.000000
0.062500 0.000000 0.000000
0.078125 0.000000 0.000000
0.093750 0.000000 0.000000
0.109375 0.000000 0.000000
0.124938 0.000023 0.000019
0.139969 0.000235 0.000195
0.154270 0.000698 0.000572
0.167745 0.001442 0.001165
0.180339 0.002480 0.001976
0.192017 0.003825 0.003001
0.202708 0.005373 0.004143
0.212076 0.006940 0.005254
0.220371 0.008626 0.006405
0.227652 0.010391 0.007549
0.234165 0.012171 0.008624
0.240033 0.013932 0.009600
0.245331 0.015637 0.010452
0.250053 0.017275 0.011151
0.254261 0.018830 0.011650
0.258050 0.020267 0.011860
0.261492 0.021576 0.011790
0.264567 0.022752 0.011479
0.267448 0.023756 0.010879
0.270754 0.024529 0.009784
0.274229 0.025152 0.008221
0.278119 0.025568 0.006141
0.282781 0.025710 0.003611
0.288488 0.025644 0.001641
0.295182 0.025454 0.000599
0.303307 0.025049 0.000211
0.313385 0.024601 0.000070
0.324949 0.024094 0.000023
0.338051 0.023392 0.000006
0.351981 0.022044 0.000000
0.365649 0.020091 0.000000
0.379709 0.018516 0.000000
0.394072 0.017507 0.000000
0.408328 0.016682 0.000000
0.422049 0.015406 0.000000
0.435123 0.013478 0.000000
0.447564 0.010878 0.000000
0.459520 0.008164 0.000000
0.470644 0.005256 0.000000
0.481402 0.003728 0.000000
0.493725 0.003998 0.000000
0.505728 0.003018 0.000000
0.516757 0.001969 0.000000
0.526700 0.001402 0.000000
0.535964 0.000615 0.000000
0.546459 0.000538 0.000000
0.558434 0.000160 0.000000
0.570295 0.000063 0.000000
0.582242 0.000160 0.000000
0.593905 0.000043 0.000000
0.605753 0.000111 0.000000
0.617238 0.000052 0.000000
0.629124 0.000133 0.000000
0.641372 0.000086 0.000000
0.653949 0.000360 0.000000
0.666754 0.000417 0.000000
0.679283 0.001033 0.000044
0.000000 0.015625 0.000000
0.015625 0.015625 0.000000
0.031250 0.015625 0.000000
0.046875 0.015625 0.000000
0.062500 0.015625 0.000000
0.078036 0.015664 0.000065
0.093230 0.015839 0.000325
0.107934 0.016193 0.000804
0.122004 0.016767 0.001523
0.135349 0.017587 0.002486
0.147843 0.018632 0.003657
0.158961 0.019654 0.004829
0.168894 0.020788 0.006099
0.177601 0.022017 0.007436
0.185404 0.023293 0.008780
0.192281 0.024600 0.010112
0.198278 0.025916 0.011394
0.203531 0.027215 0.012583
0.208296 0.028479 0.013654
0.212923 0.029592 0.014527
0.217312 0.030592 0.015233
0.221442 0.031470 0.015724
0.225397 0.032212 0.015936
0.229287 0.032845 0.015837
0.233204 0.033346 0.015451
0.237181 0.033693 0.014799
0.241330 0.033886 0.013793
0.246408 0.033892 0.012323
0.252199 0.033775 0.010388
0.258839 0.033456 0.007821
0.266706 0.032905 0.005029
0.276174 0.032307 0.002624
0.287170 0.031642 0.001009
0.299970 0.030904 0.000358
0.313874 0.029754 0.000168
0.327859 0.028427 0.000056
0.341830 0.027029 0.000014
0.355669 0.025251 0.000003
0.369799 0.023626 0.000000
0.384254 0.022370 0.000000
0.398617 0.021411 0.000000
0.412709 0.020403 0.000000
0.426004 0.018868 0.000000
0.438688 0.016740 0.000000
0.450957 0.014211 0.000000
0.462807 0.011449 0.000000
0.474835 0.009866 0.000000
0.486700 0.009125 0.000000
0.498608 0.007369 0.000000
0.509652 0.006002 0.000000
0.519803 0.004470 0.000000
0.529122 0.002507 0.000000
0.540130 0.002563 0.000000
0.551326 0.001500 0.000000
0.562765 0.000754 0.000000
0.574445 0.000752 0.000000
0.585691 0.000296 0.000000
0.597625 0.000559 0.000000
0.609091 0.000260 0.000000
0.620839 0.000474 0.000000
0.632886 0.000345 0.000000
0.644950 0.000563 0.000002
0.657459 0.000951 0.000000
0.669962 0.001357 0.000020
0.682135 0.002254 0.000084
0.000000 0.031250 0.000000
0.015627 0.031250 0.000004
0.031272 0.031268 0.000144
0.046797 0.031355 0.000502
0.062030 0.031560 0.001097
0.076838 0.031923 0.001938
0.091129 0.032469 0.003024
0.104416 0.033035 0.004214
0.116542 0.033619 0.005493
0.127524 0.034276 0.006879
0.137330 0.034985 0.008338
0.145925 0.035749 0.009849
0.153306 0.036556 0.011387
0.159499 0.037384 0.012926
0.165161 0.038166 0.014372
0.170125 0.038909 0.015723
0.174512 0.039620 0.016948
0.178546 0.040261 0.018017
0.182520 0.040795 0.018931
0.186733 0.041170 0.019598
0.191247 0.041379 0.020024
0.195858 0.041467 0.020188
0.200683 0.041544 0.020049
0.205846 0.041490 0.019600
0.211423 0.041311 0.018839
0.217484 0.041062 0.017793
0.224167 0.040739 0.016413
0.232385 0.040314 0.014580
0.241780 0.039793 0.012293
0.252523 0.039177 0.009496
0.264740 0.038259 0.006488
0.277363 0.036932 0.003652
0.290208 0.035624 0.001569
0.303338 0.034291 0.000648
0.317244 0.032927 0.000278
0.331434 0.031760 0.000094
0.345674 0.030441 0.000036
0.359949 0.028961 0.000005
0.374389 0.027532 0.000000
0.388662 0.026223 0.000000
0.402803 0.025069 0.000000
0.416632 0.023862 0.000000
0.429688 0.022207 0.000000
0.442345 0.020129 0.000000
0.455096 0.018310 0.000000
0.467674 0.016792 0.000000
0.479844 0.015776 0.000000
0.491402 0.013903 0.000000
0.502564 0.011951 0.000000
0.513154 0.009824 0.000000
0.523652 0.007892 0.000000
0.534539 0.006911 0.000000
0.545364 0.005165 0.000000
0.556372 0.003928 0.000000
0.567513 0.002810 0.000000
0.578352 0.001297 0.000000
0.590139 0.002029 0.000000
0.601500 0.001179 0.000000
0.612991 0.001353 0.000000
0.624917 0.001253 0.000000
0.636626 0.001048 0.000003
0.648711 0.001806 0.000010
0.660832 0.001851 0.000010
0.673197 0.003525 0.000078
0.684917 0.003838 0.000177
0.000765 0.046753 0.000741
0.016607 0.046782 0.001487
0.032148 0.046932 0.002476
0.047226 0.047050 0.003574
0.061589 0.047139 0.004804
0.075065 0.047263 0.006158
0.087566 0.047404 0.007613
0.098630 0.047571 0.009179
0.108491 0.047766 0.010806
0.117126 0.047992 0.012472
0.124547 0.048251 0.014144
0.130815 0.048524 0.015798
0.135985 0.048810 0.017418
0.140285 0.049090 0.018961
0.144251 0.049325 0.020343
0.148045 0.049502 0.021524
0.151694 0.049613 0.022571
0.155468 0.049633 0.023406
0.159666 0.049536 0.023980
0.164577 0.049312 0.024268
0.170318 0.048946 0.024281
0.176530 0.048586 0.024046
0.183359 0.048171 0.023508
0.190959 0.047698 0.022624
0.199435 0.047177 0.021440
0.208879 0.046721 0.020043
0.219419 0.045813 0.018262
0.231281 0.044820 0.016069
0.243200 0.043788 0.013563
0.255233 0.042661 0.010719
0.267616 0.041420 0.007623
0.280375 0.040148 0.004611
0.293361 0.038923 0.002435
0.306695 0.037667 0.001068
0.320801 0.036436 0.000413
0.335189 0.035265 0.000201
0.349595 0.033985 0.000066
0.364022 0.032662 0.000010
0.378353 0.031244 0.000002
0.392528 0.029871 0.000000
0.406618 0.028530 0.000000
0.420446 0.027390 0.000000
0.433677 0.025928 0.000000
0.446647 0.024236 0.000000
0.459593 0.022849 0.000000
0.472125 0.021611 0.000000
0.483962 0.019957 0.000000
0.495337 0.018149 0.000000
0.506495 0.016538 0.000000
0.517830 0.014931 0.000000
0.529003 0.013311 0.000000
0.539871 0.011276 0.000000
0.550617 0.010010 0.000000
0.561425 0.007842 0.000000
0.572171 0.005395 0.000000
0.583495 0.005484 0.000000
0.594628 0.003852 0.000000
0.605914 0.003576 0.000002
0.617458 0.003318 0.000001
0.628932 0.002560 0.000008
0.640664 0.003271 0.000018
0.652265 0.002993 0.000020
0.664512 0.005264 0.000106
0.676269 0.005621 0.000153
0.688056 0.007794 0.000579
0.004268 0.061221 0.004227
0.019430 0.060874 0.005622
0.033783 0.060512 0.007065
0.047430 0.060121 0.008523
0.060355 0.059709 0.010057
0.072307 0.059306 0.011694
0.082743 0.058909 0.013414
0.091575 0.058530 0.015188
0.099176 0.058178 0.016958
0.105609 0.057863 0.018701
0.110937 0.057588 0.020396
0.115309 0.057346 0.022008
0.118834 0.057143 0.023511
0.121952 0.056954 0.024867
0.125087 0.056751 0.026027
0.128523 0.056517 0.026949
0.132439 0.056228 0.027628
0.136988 0.055891 0.028027
0.142505 0.055521 0.028124
0.149229 0.055066 0.027923
0.157311 0.054290 0.027437
0.166380 0.053481 0.026700
0.176419 0.052637 0.025600
0.187623 0.051816 0.024164
0.199080 0.050986 0.022608
0.210430 0.050109 0.021007
0.221765 0.049138 0.019233
0.233743 0.048125 0.017058
0.245777 0.047144 0.014678
0.257961 0.046069 0.011920
0.270495 0.044874 0.008789
0.283360 0.043622 0.005819
0.296496 0.042345 0.003353
0.310029 0.041122 0.001566
0.324244 0.039973 0.000685
0.338726 0.038858 0.000326
0.353215 0.037660 0.000111
0.367712 0.036296 0.000034
0.382000 0.034889 0.000004
0.396234 0.033626 0.000000
0.410412 0.032466 0.000000
0.424377 0.031344 0.000000
0.437690 0.029778 0.000000
0.450728 0.028332 0.000000
0.463618 0.026986 0.000000
0.475987 0.025530 0.000000
0.487869 0.023933 0.000000
0.499758 0.022843 0.000000
0.511466 0.021759 0.000000
0.523010 0.020443 0.000000
0.534160 0.018818 0.000000
0.544998 0.017156 0.000000
0.555704 0.015208 0.000000
0.566514 0.012647 0.000001
0.577567 0.011326 0.000000
0.588548 0.009340 0.000000
0.599541 0.008147 0.000007
0.610658 0.007182 0.000005
0.621833 0.005860 0.000021
0.633342 0.006257 0.000050
0.644479 0.005363 0.000037
0.656298 0.007575 0.000207
0.668009 0.008539 0.000213
0.679736 0.010321 0.000642
0.691047 0.011609 0.001006
0.009412 0.072264 0.009546
0.023160 0.071307 0.011405
0.035762 0.070337 0.013190
0.047356 0.069373 0.014860
0.058337 0.068372 0.016410
0.068704 0.067356 0.018000
0.076788 0.066373 0.019783
0.083613 0.065450 0.021543
0.089366 0.064602 0.023263
0.094051 0.063845 0.024882
0.097878 0.063165 0.026403
0.101057 0.062481 0.027814
0.103808 0.061853 0.029043
0.106709 0.061234 0.030037
0.110096 0.060620 0.030765
0.114284 0.060009 0.031215
0.119552 0.059385 0.031340
0.126046 0.058762 0.031123
0.134085 0.058171 0.030588
0.143874 0.057617 0.029786
0.155127 0.057081 0.028736
0.166600 0.056500 0.027598
0.178064 0.055835 0.026312
0.189652 0.055126 0.024882
0.201171 0.054376 0.023413
0.212611 0.053590 0.021857
0.224059 0.052761 0.020107
0.236173 0.051803 0.018074
0.248336 0.050772 0.015840
0.260655 0.049616 0.013125
0.273312 0.048497 0.010004
0.286294 0.047307 0.006986
0.299538 0.046058 0.004261
0.313233 0.044819 0.002261
0.327546 0.043597 0.001080
0.342115 0.042476 0.000456
0.356674 0.041345 0.000199
0.371042 0.040051 0.000059
0.385427 0.038759 0.000010
0.399803 0.037545 0.000000
0.414090 0.036419 0.000000
0.428114 0.035337 0.000000
0.441537 0.033991 0.000000
0.454621 0.032491 0.000000
0.467472 0.030997 0.000000
0.480296 0.030004 0.000000
0.492648 0.028960 0.000000
0.504554 0.027843 0.000000
0.516323 0.026950 0.000000
0.527858 0.025860 0.000000
0.539064 0.024480 0.000000
0.549969 0.022884 0.000000
0.560862 0.020977 0.000003
0.571851 0.018994 0.000004
0.582815 0.017017 0.000001
0.593806 0.015542 0.000019
0.604529 0.013440 0.000020
0.615316 0.011393 0.000052
0.626582 0.011142 0.000120
0.637512 0.009708 0.000099
0.648760 0.010884 0.000337
0.660184 0.012185 0.000429
0.671719 0.013668 0.000707
0.683176 0.015439 0.001249
0.694282 0.016618 0.001837
0.015599 0.078773 0.016096
0.027515 0.077120 0.018205
0.038114 0.075456 0.020105
0.047659 0.073847 0.021779
0.056581 0.072267 0.023207
0.064681 0.070681 0.024585
0.070643 0.069142 0.026148
0.075861 0.067729 0.027683
0.080408 0.066455 0.029140
0.084179 0.065341 0.030477
0.087441 0.064382 0.031637
0.090383 0.063590 0.032597
0.093291 0.062949 0.033320
0.096981 0.062384 0.033724
0.101751 0.061932 0.033825
0.107908 0.061598 0.033594
0.115614 0.061404 0.033000
0.124604 0.061219 0.032211
0.134512 0.060940 0.031345
0.145308 0.060557 0.030374
0.156707 0.060097 0.029315
0.168293 0.059602 0.028204
0.179913 0.059052 0.026973
0.191590 0.058443 0.025607
0.203197 0.057799 0.024214
0.214759 0.057132 0.022688
0.226320 0.056413 0.020997
0.238558 0.055573 0.019101
0.250846 0.054699 0.016978
0.263312 0.053682 0.014265
0.276151 0.052522 0.011229
0.289233 0.051215 0.008135
0.302563 0.049954 0.005241
0.316380 0.048785 0.003050
0.330758 0.047627 0.001500
0.345427 0.046460 0.000655
0.359836 0.045162 0.000284
0.374303 0.043856 0.000091
0.388839 0.042788 0.000020
0.403313 0.041690 0.000003
0.417685 0.040599 0.000002
0.431791 0.039515 0.000000
0.445428 0.038312 0.000001
0.458841 0.037128 0.000001
0.472111 0.036081 0.000000
0.485055 0.035031 0.000000
0.497405 0.033973 0.000001
0.509218 0.032982 0.000000
0.520993 0.032122 0.000002
0.532631 0.031234 0.000001
0.543985 0.030260 0.000007
0.555061 0.029098 0.000006
0.566111 0.027218 0.000013
0.577131 0.025553 0.000034
0.588108 0.024310 0.000038
0.599020 0.022115 0.000049
0.609498 0.019497 0.000156
0.620325 0.018085 0.000236
0.631178 0.016248 0.000239
0.642076 0.016252 0.000561
0.653050 0.016967 0.000730
0.664213 0.018059 0.000988
0.675630 0.020188 0.001550
0.686622 0.020788 0.002020
0.697954 0.023189 0.003245
0.022512 0.080333 0.023266
0.032334 0.078109 0.025366
0.040828 0.075930 0.027134
0.048351 0.073944 0.028585
0.055352 0.072078 0.029638
0.060932 0.070260 0.030781
0.065108 0.068602 0.031900
0.069310 0.067177 0.032985
0.073183 0.066009 0.033913
0.076933 0.065128 0.034706
0.080551 0.064530 0.035257
0.084409 0.064222 0.035551
0.088793 0.064206 0.035560
0.094400 0.064387 0.035235
0.101062 0.064512 0.034779
0.108570 0.064554 0.034237
0.116890 0.064512 0.033584
0.125883 0.064403 0.032838
0.135941 0.064174 0.031972
0.146942 0.063854 0.030997
0.158448 0.063492 0.029962
0.170145 0.063103 0.028885
0.181858 0.062678 0.027762
0.193609 0.062177 0.026455
0.205316 0.061660 0.025104
0.217035 0.061099 0.023615
0.228727 0.060486 0.022003
0.241105 0.059776 0.020162
0.253514 0.059068 0.018142
0.266133 0.058141 0.015583
0.279124 0.057036 0.012603
0.292315 0.055849 0.009289
0.305810 0.054654 0.006282
0.319761 0.053429 0.003841
0.334274 0.052253 0.002092
0.348874 0.051120 0.000970
0.363431 0.049993 0.000421
0.378052 0.048809 0.000156
0.392643 0.047549 0.000041
0.407233 0.046388 0.000015
0.421920 0.045663 0.000016
0.436323 0.044877 0.000012
0.450234 0.043738 0.000008
0.463831 0.042580 0.000002
0.477252 0.041692 0.000009
0.490133 0.040790 0.000012
0.502409 0.039700 0.000008
0.514267 0.038634 0.000000
0.526221 0.038078 0.000024
0.538056 0.037702 0.000037
0.549460 0.036845 0.000032
0.560667 0.035664 0.000038
0.571749 0.034500 0.000137
0.582815 0.033429 0.000154
0.593893 0.032167 0.000119
0.604565 0.030055 0.000430
0.615072 0.027792 0.000535
0.625731 0.025401 0.000508
0.636479 0.024769 0.001025
0.647112 0.024224 0.001227
0.657847 0.024718 0.001559
0.668954 0.026604 0.002151
0.679829 0.027215 0.002553
0.690982 0.028891 0.003782
0.701925 0.030253 0.004867
0.029253 0.078076 0.030205
0.037070 0.075682 0.032104
0.043637 0.073424 0.033496
0.049404 0.071503 0.034483
0.054469 0.069873 0.035116
0.057715 0.068405 0.035786
0.060938 0.067242 0.036299
0.064590 0.066441 0.036584
0.068778 0.066059 0.036779
0.073458 0.066112 0.036750
0.078538 0.066504 0.036559
0.083677 0.066905 0.036356
0.089097 0.067287 0.036120
0.094942 0.067623 0.035826
0.101840 0.067827 0.035389
0.109600 0.067946 0.034851
0.118103 0.067983 0.034215
0.127310 0.067932 0.033482
0.137442 0.067778 0.032640
0.148698 0.067531 0.031706
0.160305 0.067270 0.030751
0.172080 0.066977 0.029731
0.183913 0.066645 0.028614
0.195771 0.066279 0.027367
0.207610 0.065889 0.026069
0.219424 0.065439 0.024652
0.231177 0.064922 0.023098
0.243651 0.064319 0.021283
0.256254 0.063680 0.019351
0.269054 0.062944 0.017077
0.282228 0.061986 0.013896
0.295599 0.060923 0.010495
0.309270 0.059824 0.007362
0.323454 0.058766 0.004861
0.337922 0.057662 0.002801
0.352662 0.056588 0.001413
0.367417 0.055536 0.000622
0.382248 0.054472 0.000272
0.397143 0.053518 0.000124
0.412131 0.052700 0.000092
0.426976 0.051858 0.000062
0.441434 0.050915 0.000051
0.455419 0.049927 0.000041
0.469171 0.049098 0.000056
0.482661 0.048215 0.000059
0.495550 0.047057 0.000042
0.507913 0.046276 0.000077
0.520039 0.045772 0.000108
0.532064 0.045305 0.000119
0.543942 0.044737 0.000100
0.555250 0.044199 0.000226
0.566506 0.043400 0.000356
0.577698 0.042611 0.000395
0.588752 0.041993 0.000561
0.599694 0.041005 0.000959
0.610428 0.039194 0.001141
0.620880 0.036924 0.001269
0.631501 0.035595 0.001774
0.642136 0.034428 0.002060
0.652562 0.033928 0.002506
0.663248 0.034941 0.003108
0.673925 0.035651 0.003532
0.684748 0.036581 0.004709
0.695557 0.037368 0.005726
0.706657 0.039101 0.007331
0.035210 0.074052 0.036213
0.041215 0.072058 0.037603
0.046189 0.070329 0.038360
0.050575 0.069156 0.038671
0.053650 0.068400 0.038804
0.055921 0.068075 0.038781
0.058949 0.068203 0.038426
0.062554 0.068549 0.037975
0.067300 0.068900 0.037627
0.072439 0.069319 0.037356
0.077911 0.069786 0.037143
0.083407 0.070260 0.036951
0.089206 0.070711 0.036709
0.095462 0.071119 0.036403
0.102429 0.071443 0.036000
0.110536 0.071645 0.035462
0.119309 0.071764 0.034841
0.128764 0.071800 0.034182
0.138979 0.071752 0.033435
0.150411 0.071615 0.032555
0.162193 0.071425 0.031630
0.174108 0.071210 0.030629
0.186087 0.070998 0.029527
0.198059 0.070803 0.028374
0.209986 0.070584 0.027200
0.221910 0.070262 0.025816
0.233798 0.069889 0.024272
0.246435 0.069453 0.022525
0.259244 0.068959 0.020682
0.272186 0.068335 0.018372
0.285537 0.067486 0.015260
0.299113 0.066484 0.011793
0.312974 0.065540 0.008614
0.327170 0.064532 0.005743
0.341843 0.063563 0.003596
0.356790 0.062641 0.002063
0.371840 0.061757 0.001005
0.386970 0.060906 0.000505
0.402150 0.060112 0.000397
0.417274 0.059320 0.000338
0.432220 0.058544 0.000286
0.446832 0.057756 0.000202
0.461018 0.056946 0.000162
0.474925 0.056234 0.000269
0.488481 0.055519 0.000327
0.501467 0.054764 0.000336
0.513987 0.054130 0.000308
0.526178 0.053593 0.000410
0.538064 0.053133 0.000570
0.549849 0.052745 0.000668
0.561320 0.052239 0.000755
0.572577 0.051785 0.001003
0.583675 0.051514 0.001368
0.594765 0.051274 0.001706
0.605747 0.050518 0.002078
0.616332 0.048981 0.002522
0.626853 0.047525 0.002862
0.637534 0.046378 0.003246
0.647965 0.045368 0.003873
0.658410 0.045310 0.004437
0.668801 0.045583 0.005007
0.679240 0.046024 0.005978
0.689882 0.046317 0.007035
0.700676 0.047174 0.008282
0.711729 0.048655 0.010092
0.039544 0.071211 0.040400
0.044154 0.070417 0.041019
0.048033 0.070063 0.040919
0.051365 0.070368 0.040430
0.053483 0.070747 0.040124
0.055852 0.071122 0.039759
0.058339 0.071506 0.039360
0.061818 0.071918 0.038914
0.065769 0.072363 0.038428
0.071089 0.072823 0.038078
0.076741 0.073331 0.037765
0.082728 0.073896 0.037515
0.088880 0.074437 0.037266
0.095577 0.074925 0.036971
0.102931 0.075356 0.036623
0.111229 0.075703 0.036179
0.120314 0.075937 0.035622
0.130007 0.076107 0.034988
0.140530 0.076201 0.034256
0.152067 0.076195 0.033400
0.163983 0.076133 0.032521
0.176014 0.076079 0.031642
0.188150 0.076023 0.030643
0.200313 0.075957 0.029550
0.212445 0.075861 0.028409
0.224567 0.075679 0.027054
0.236638 0.075433 0.025561
0.249449 0.075137 0.023941
0.262453 0.074779 0.022060
0.275664 0.074295 0.019696
0.289233 0.073620 0.016752
0.302873 0.072666 0.013110
0.316780 0.071680 0.009583
0.331237 0.070762 0.006709
0.346147 0.069923 0.004530
0.361303 0.069131 0.002911
0.376565 0.068384 0.001798
0.391925 0.067671 0.001224
0.407310 0.066945 0.000975
0.422666 0.066299 0.000855
0.437807 0.065727 0.000795
0.452553 0.065149 0.000767
0.466884 0.064566 0.000842
0.480951 0.063996 0.000865
0.494617 0.063468 0.000882
0.507542 0.062852 0.000936
0.520029 0.062343 0.001143
0.532175 0.061880 0.001308
0.544160 0.061483 0.001410
0.555904 0.061228 0.001629
0.567383 0.061072 0.002011
0.578623 0.060956 0.002388
0.589801 0.061021 0.002732
0.600786 0.060862 0.003348
0.611632 0.060315 0.003943
0.622381 0.059484 0.004364
0.632862 0.058460 0.004843
0.643435 0.057589 0.005506
0.654037 0.057200 0.006110
0.664209 0.056690 0.006729
0.674403 0.056678 0.007602
0.684771 0.056738 0.008606
0.695391 0.056987 0.009707
0.706154 0.057702 0.011162
0.716926 0.059114 0.012815
0.041503 0.073066 0.042091
0.045536 0.073367 0.042093
0.049199 0.073509 0.041599
0.051502 0.073847 0.041261
0.053554 0.074186 0.040969
0.055764 0.074598 0.040636
0.058129 0.075020 0.040286
0.061139 0.075496 0.039834
0.064930 0.075999 0.039378
0.069487 0.076525 0.038893
0.075199 0.077121 0.038521
0.081368 0.077759 0.038184
0.087958 0.078443 0.037922
0.095081 0.079050 0.037674
0.102992 0.079596 0.037347
0.111691 0.080077 0.036928
0.121089 0.080485 0.036393
0.131063 0.080814 0.035783
0.142000 0.081033 0.035136
0.153729 0.081168 0.034410
0.165827 0.081264 0.033643
0.178045 0.081333 0.032791
0.190324 0.081412 0.031799
0.202616 0.081477 0.030732
0.214952 0.081513 0.029659
0.227387 0.081493 0.028465
0.239696 0.081372 0.027003
0.252708 0.081265 0.025364
0.265972 0.081082 0.023416
0.279370 0.080691 0.021002
0.292934 0.080011 0.017744
0.306769 0.079200 0.014004
0.320945 0.078353 0.010508
0.335710 0.077550 0.007719
0.350842 0.076796 0.005581
0.366164 0.076165 0.004036
0.381640 0.075595 0.002942
0.397256 0.075046 0.002254
0.412871 0.074481 0.001999
0.428418 0.073953 0.001867
0.443705 0.073462 0.001783
0.458513 0.073026 0.001806
0.472881 0.072562 0.001860
0.486975 0.072105 0.001904
0.500634 0.071711 0.001955
0.513661 0.071300 0.002110
0.526106 0.070955 0.002329
0.538248 0.070662 0.002567
0.550211 0.070439 0.002816
0.562026 0.070411 0.003205
0.573513 0.070427 0.003596
0.584676 0.070510 0.004061
0.595768 0.070668 0.004641
0.606792 0.070772 0.005362
0.617559 0.070517 0.005943
0.628144 0.069908 0.006493
0.638773 0.069480 0.007203
0.649400 0.069007 0.007857
0.659777 0.068378 0.008494
0.670006 0.068154 0.009353
0.680131 0.067982 0.010214
0.690499 0.067875 0.011232
0.701143 0.068182 0.012558
0.711629 0.069109 0.013866
0.722270 0.070489 0.015541
0.042593 0.076995 0.042874
0.046686 0.077196 0.042786
0.049604 0.077334 0.042455
0.051574 0.077524 0.042197
0.053663 0.077887 0.041918
0.055708 0.078264 0.041642
0.058053 0.078725 0.041300
0.060631 0.079244 0.040929
0.064200 0.079806 0.040450
0.068357 0.080412 0.039955
0.073548 0.081058 0.039444
0.079668 0.081783 0.039037
0.086419 0.082554 0.038676
0.093897 0.083335 0.038386
0.102485 0.084047 0.038091
0.111737 0.084701 0.037737
0.121593 0.085301 0.037318
0.131865 0.085829 0.036836
0.143354 0.086215 0.036193
0.155386 0.086531 0.035477
0.167717 0.086802 0.034711
0.180198 0.087064 0.033954
0.192688 0.087317 0.033058
0.205178 0.087548 0.032073
0.217737 0.087742 0.030981
0.230376 0.087887 0.029757
0.242977 0.087944 0.028302
0.256210 0.087909 0.026680
0.269512 0.087680 0.024508
0.283010 0.087312 0.021787
0.296814 0.086784 0.018451
0.310885 0.086155 0.014723
0.325285 0.085497 0.011215
0.340331 0.084875 0.008541
0.355730 0.084314 0.006668
0.371329 0.083798 0.005236
0.387016 0.083318 0.004113
0.402816 0.082873 0.003382
0.418604 0.082410 0.003073
0.434291 0.082022 0.002997
0.449670 0.081668 0.003008
0.464575 0.081285 0.003046
0.478979 0.080945 0.003077
0.493032 0.080691 0.003101
0.506775 0.080558 0.003264
0.519790 0.080332 0.003511
0.532284 0.080083 0.003783
0.544433 0.079909 0.004050
0.556378 0.079910 0.004405
0.568145 0.080062 0.004868
0.579622 0.080191 0.005369
0.590806 0.080405 0.005918
0.601741 0.080664 0.006570
0.612616 0.080853 0.007275
0.623375 0.080837 0.007984
0.633962 0.080580 0.008669
0.644527 0.080246 0.009337
0.655153 0.080000 0.010093
0.665594 0.079768 0.010943
0.675686 0.079446 0.011706
0.685908 0.079332 0.012695
0.696280 0.079456 0.013846
0.706621 0.080181 0.014971
0.717180 0.081224 0.016536
0.727408 0.082179 0.017933
0.043893 0.081169 0.043832
0.047709 0.081342 0.043745
0.049742 0.081398 0.043526
0.051764 0.081568 0.043256
0.053749 0.081811 0.042942
0.055819 0.082186 0.042640
0.057947 0.082649 0.042347
0.060572 0.083202 0.041972
0.063514 0.083827 0.041558
0.067539 0.084510 0.041067
0.072131 0.085241 0.040544
0.077898 0.086037 0.040049
0.084615 0.086912 0.039646
0.092172 0.087847 0.039293
0.100889 0.088811 0.039005
0.110921 0.089678 0.038661
0.121543 0.090493 0.038269
0.132552 0.091222 0.037802
0.144461 0.091813 0.037235
0.156919 0.092320 0.036621
0.169614 0.092784 0.035982
0.182433 0.093215 0.035264
0.195260 0.093624 0.034343
0.208005 0.093972 0.033297
0.220831 0.094281 0.032262
0.233515 0.094416 0.030877
0.246116 0.094476 0.029281
0.259420 0.094501 0.027446
0.272992 0.094454 0.025244
0.286781 0.094237 0.022400
0.300798 0.093852 0.018940
0.315106 0.093362 0.015169
0.329698 0.092856 0.011839
0.344936 0.092390 0.009344
