apps/filmtone-desktop-macos/FilmtoneDesktop/Resources/CreativeLuts/filmtone-creative-pack-01-urban.cube
TITLE "Filmtone Urban"
# pack=creative-pack-01
# slug=filmtone-creative-pack-01-urban
# bakerVersion=1.4.0-stone-urban-distinct
# generator=filmtone-urban-palermo-green-density-v1
LUT_3D_SIZE 5
DOMAIN_MIN 0.0 0.0 0.0
DOMAIN_MAX 1.0 1.0 1.0
0.054155 0.067368 0.072306
0.121049 0.064418 0.062333
0.287276 0.042041 0.029141
0.487562 0.022858 0.025144
0.627251 0.017881 0.019669
0.022198 0.101117 0.061315
0.083847 0.097953 0.049304
0.316802 0.058891 0.011388
0.509967 0.005335 0.005869
0.667575 0.001627 0.001789
0.002654 0.186031 0.030706
0.000529 0.181057 0.026820
0.133272 0.172503 0.023804
0.617166 0.190051 0.006592
0.725795 0.048188 0.004135
0.000000 0.356695 0.021179
0.000000 0.349950 0.021805
0.000000 0.336309 0.022858
0.267933 0.355108 0.003311
0.809247 0.441337 0.019684
0.001068 0.520882 0.001099
0.000626 0.513329 0.000626
0.000671 0.514290 0.000671
0.000000 0.389258 0.017578
0.436408 0.572045 0.010529
0.046246 0.065995 0.135525
0.117191 0.065767 0.130174
0.300334 0.036017 0.056908
0.494896 0.021279 0.023407
0.631734 0.016025 0.017628
0.018349 0.104991 0.104638
0.124956 0.142895 0.136479
0.358419 0.081229 0.052408
0.535401 0.003890 0.004278
0.682238 0.000805 0.000885
0.001780 0.196668 0.033066
0.001425 0.238131 0.075787
0.218631 0.234134 0.012619
0.652323 0.246296 0.011948
0.764767 0.102586 0.012619
0.000000 0.370932 0.019684
0.000000 0.373617 0.025818
0.000000 0.369574 0.019989
0.298146 0.370703 0.003738
0.834653 0.498833 0.021683
0.001999 0.534829 0.002014
0.001892 0.533669 0.001923
0.000595 0.512795 0.000595
0.000000 0.399176 0.016373
0.458198 0.586542 0.011261
0.025361 0.037720 0.340072
0.070857 0.034614 0.344582
0.293436 0.024208 0.320949
0.503561 0.019576 0.212275
0.641968 0.014136 0.091418
0.013154 0.073831 0.312734
0.066302 0.104717 0.350054
0.353684 0.076619 0.322258
0.562480 0.002626 0.204622
0.695783 0.000256 0.092134
0.001056 0.225358 0.204278
0.014774 0.294062 0.284732
0.400761 0.468217 0.455295
0.709346 0.327565 0.289006
0.804211 0.093477 0.132631
0.000000 0.393164 0.065415
0.000031 0.439078 0.122576
0.043442 0.565240 0.344106
0.524071 0.529717 0.038682
0.879332 0.557977 0.048051
0.002472 0.542123 0.002533
0.004990 0.567834 0.021179
0.010483 0.610666 0.178515
0.011078 0.589166 0.082994
0.564034 0.620005 0.013092
0.019594 0.027991 0.577694
0.028457 0.026441 0.581270
0.211852 0.022774 0.572702
0.504273 0.017780 0.550614
0.651537 0.012245 0.456734
0.011050 0.015786 0.530802
0.028630 0.010586 0.542694
0.246908 0.005251 0.521243
0.564125 0.001575 0.512560
0.703477 0.000010 0.440611
0.000503 0.159489 0.491220
0.000198 0.203372 0.533745
0.337514 0.360220 0.640452
0.703182 0.331792 0.648844
0.810162 0.093263 0.548379
0.001007 0.443259 0.439719
0.002884 0.483818 0.500862
0.081544 0.639170 0.628229
0.691663 0.751936 0.726929
0.898238 0.628672 0.596002
0.008316 0.585733 0.230777
0.011200 0.618387 0.297139
0.025879 0.699367 0.445930
0.134432 0.815778 0.641306
0.754665 0.758114 0.274525
0.019426 0.027751 0.743501
0.017776 0.025394 0.735603
0.127170 0.021188 0.721754
0.430891 0.015921 0.694990
0.653317 0.010383 0.663595
0.009727 0.013895 0.681643
0.005961 0.008453 0.669064
0.175526 0.003814 0.654893
0.498621 0.000767 0.642055
0.702739 0.000000 0.634699
0.000145 0.017221 0.634070
0.000000 0.021607 0.654658
0.229068 0.168841 0.746548
0.612924 0.099779 0.754009
0.796521 0.043915 0.742199
0.002106 0.379919 0.687297
0.003418 0.411399 0.716197
0.026856 0.518227 0.787335
0.661219 0.650370 0.839963
0.888899 0.616831 0.841276
0.013168 0.625299 0.654582
0.015580 0.648722 0.690303
0.025925 0.713252 0.766720
0.305791 0.850034 0.837674
0.873584 0.881682 0.835495
