apps/filmtone-desktop-macos/FilmtoneDesktop/Resources/CreativeLuts/filmtone-creative-pack-01-noir.cube
TITLE "Filmtone Noir"
# pack=creative-pack-01
# slug=filmtone-creative-pack-01-noir
# bakerVersion=1.4.0-stone-urban-distinct
# bakeMode=real
LUT_3D_SIZE 9
DOMAIN_MIN 0.0 0.0 0.0
DOMAIN_MAX 1.0 1.0 1.0
0.078958 0.088014 0.063941
0.078958 0.088014 0.063941
0.078958 0.088014 0.063941
0.078958 0.088014 0.063941
0.078958 0.088014 0.063941
0.078958 0.088014 0.063941
0.078958 0.088014 0.063941
0.078958 0.088014 0.063941
0.078958 0.088014 0.063941
0.078958 0.088014 0.063941
0.078958 0.088014 0.063941
0.078958 0.088014 0.063941
0.078958 0.088014 0.063941
0.078958 0.088014 0.063941
0.078958 0.088014 0.063941
0.078958 0.088014 0.063941
0.125016 0.118660 0.072965
0.138216 0.139081 0.099517
0.078958 0.088014 0.063941
0.078958 0.088014 0.063941
0.078958 0.088014 0.063941
0.078958 0.088014 0.063941
0.117222 0.129219 0.085253
0.138468 0.148977 0.106942
0.161856 0.171550 0.127590
0.187945 0.196789 0.149885
0.217031 0.224839 0.174489
0.078958 0.133956 0.063941
0.116690 0.138600 0.093784
0.140055 0.158976 0.114342
0.164628 0.182411 0.135470
0.191660 0.208675 0.158553
0.221612 0.237856 0.184095
0.254730 0.270036 0.212398
0.291103 0.305209 0.243646
0.330640 0.343231 0.277899
0.167875 0.193641 0.143614
0.195728 0.220996 0.167548
0.226486 0.251344 0.194067
0.260399 0.284719 0.223427
0.297539 0.321059 0.255770
0.337780 0.360148 0.291102
0.380782 0.401597 0.329268
0.425980 0.444839 0.369930
0.472610 0.489151 0.412563
0.266306 0.299881 0.234853
0.304185 0.337356 0.268291
0.345098 0.377451 0.304683
0.388656 0.419698 0.343807
0.434251 0.463463 0.385256
0.481082 0.507974 0.428443
0.528223 0.552391 0.472638
0.574717 0.595880 0.517025
0.619672 0.637696 0.560781
0.396652 0.438047 0.358655
0.442594 0.482207 0.400814
0.489572 0.526777 0.444458
0.536648 0.570908 0.488819
0.582874 0.613792 0.533070
0.627388 0.654737 0.576404
0.669490 0.693211 0.618112
0.708686 0.728870 0.657628
0.744693 0.761546 0.694559
0.545025 0.589212 0.504986
0.590938 0.631374 0.548992
0.634978 0.671357 0.591810
0.676490 0.708704 0.632776
0.715029 0.743143 0.671387
0.750360 0.774575 0.707315
0.782430 0.803040 0.740398
0.811329 0.828679 0.770615
0.837248 0.851699 0.798054
0.683340 0.723700 0.647127
0.721217 0.756901 0.684790
0.755875 0.787094 0.719692
0.787295 0.814363 0.751728
0.815591 0.838883 0.780919
0.840965 0.860880 0.807384
0.863671 0.880601 0.831305
0.883983 0.898300 0.852894
0.902174 0.914219 0.872381
0.078958 0.088014 0.063941
0.078958 0.088014 0.063941
0.078958 0.088014 0.063941
0.078958 0.088014 0.063941
0.078958 0.088014 0.063941
0.078958 0.088014 0.063941
0.078958 0.088014 0.063941
0.078958 0.088014 0.063941
0.078958 0.088014 0.063941
0.078958 0.088014 0.063941
0.078958 0.088014 0.063941
0.078958 0.088014 0.063941
0.078958 0.088014 0.063941
0.078958 0.088014 0.063941
0.078958 0.088014 0.063941
0.078958 0.088014 0.063941
0.126062 0.125616 0.087216
0.144346 0.146284 0.108282
0.078958 0.088014 0.063941
0.078958 0.088014 0.063941
0.078958 0.088014 0.063941
0.096301 0.123247 0.063941
0.123435 0.135548 0.095404
0.145452 0.156350 0.115601
0.169744 0.179816 0.136624
0.196812 0.205992 0.159685
0.226939 0.235030 0.185242
0.096613 0.128607 0.079322
0.123948 0.145113 0.102842
0.147523 0.166618 0.123062
0.172864 0.191010 0.144754
0.200829 0.218253 0.168683
0.231804 0.248446 0.195226
0.265987 0.281649 0.224628
0.303414 0.317814 0.257022
0.343931 0.356742 0.292410
0.176400 0.202600 0.153183
0.205173 0.230963 0.178029
0.236948 0.262339 0.205590
0.271917 0.296735 0.236072
0.310093 0.334041 0.269563
0.351283 0.373984 0.306011
0.395074 0.416115 0.345188
0.440831 0.459807 0.386685
0.487735 0.504300 0.429908
0.278075 0.312292 0.247916
0.316971 0.350698 0.282498
0.358800 0.391585 0.319975
0.403099 0.434427 0.360055
0.449191 0.478537 0.402257
0.496227 0.523111 0.445933
0.543262 0.567304 0.490311
0.589348 0.610302 0.534561
0.633634 0.651405 0.577879
0.411229 0.452946 0.375204
0.457606 0.497340 0.418026
0.504720 0.541855 0.462052
0.551620 0.585649 0.506479
0.597377 0.627945 0.550480
0.641175 0.668101 0.593274
0.682378 0.705649 0.634202
0.720561 0.740305 0.672761
0.755509 0.771959 0.708626
0.559915 0.603739 0.522591
0.605302 0.645224 0.566237
0.648583 0.684354 0.608421
0.689168 0.720734 0.648535
0.726684 0.754156 0.686141
0.760958 0.784569 0.720979
0.791988 0.812054 0.752943
0.819901 0.836779 0.782059
0.844911 0.858964 0.808450
0.695806 0.735313 0.662534
0.732653 0.767490 0.699154
0.766258 0.796675 0.732949
0.796651 0.822988 0.763868
0.823979 0.846624 0.791974
0.848465 0.867820 0.817415
0.870371 0.886827 0.840387
0.889973 0.903895 0.861115
0.907541 0.919260 0.879825
0.078958 0.088014 0.063941
0.078958 0.088014 0.063941
0.078958 0.088014 0.063941
0.078958 0.088014 0.063941
0.078958 0.088014 0.063941
0.078958 0.088014 0.063941
0.078958 0.088014 0.063941
0.078958 0.088014 0.063941
0.078958 0.088014 0.063941
0.078958 0.088014 0.063941
0.078958 0.088014 0.063941
0.078958 0.088014 0.063941
0.078958 0.088014 0.063941
0.078958 0.088014 0.063941
0.078958 0.088014 0.063941
0.140895 0.109039 0.063941
0.130565 0.132471 0.097084
0.151018 0.153731 0.116882
0.078958 0.088014 0.063941
0.078958 0.088014 0.063941
0.078958 0.088014 0.063941
0.107638 0.123954 0.082003
0.129963 0.142296 0.104312
0.152752 0.164024 0.124286
0.177957 0.188394 0.145906
0.206019 0.215525 0.169826
0.237200 0.245565 0.196392
0.106749 0.133050 0.091380
0.131181 0.152068 0.111471
0.155232 0.174587 0.131920
0.181400 0.199938 0.154327
0.210330 0.228171 0.179177
0.242345 0.259384 0.206769
0.277595 0.293606 0.237295
0.316058 0.330739 0.270840
0.357515 0.370529 0.307342
0.185217 0.211898 0.163073
0.214946 0.241279 0.188893
0.247754 0.273684 0.217536
0.283780 0.309088 0.249158
0.322971 0.347329 0.283795
0.365065 0.388075 0.321326
0.409576 0.430814 0.361457
0.455804 0.474869 0.403702
0.502884 0.519444 0.447409
0.290183 0.325032 0.261422
0.330071 0.364328 0.297135
0.372766 0.405947 0.335657
0.417732 0.449303 0.376623
0.464231 0.493665 0.419484
0.511373 0.538204 0.463535
0.558200 0.582078 0.507973
0.603788 0.624504 0.551966
0.647333 0.664831 0.594737
0.425978 0.467956 0.392042
0.472695 0.512487 0.435424
0.519844 0.556850 0.479713
0.566470 0.600216 0.524083
0.611673 0.641850 0.567717
0.654688 0.681163 0.609870
0.694947 0.717751 0.649940
0.732096 0.751392 0.687490
0.765983 0.782028 0.722262
0.574663 0.618059 0.540096
0.619442 0.658800 0.583270
0.661902 0.697031 0.624726
0.701523 0.732422 0.663920
0.737998 0.764820 0.700479
0.771216 0.794225 0.734207
0.801220 0.820750 0.765053
0.828171 0.844585 0.793084
0.852300 0.865964 0.818450
0.707944 0.746580 0.677548
0.743747 0.777733 0.713092
0.776304 0.805924 0.745769
0.805687 0.831304 0.775577
0.832072 0.854084 0.802618
0.855698 0.874507 0.827061
0.876833 0.892828 0.849117
0.895754 0.909292 0.869015
0.910299 0.919434 0.886983
0.078958 0.088014 0.063941
0.078958 0.088014 0.063941
0.078958 0.088014 0.063941
0.078958 0.088014 0.063941
0.078958 0.088014 0.063941
0.078958 0.088014 0.063941
0.078958 0.088014 0.063941
0.078958 0.088014 0.063941
0.078958 0.088014 0.063941
0.078958 0.088014 0.063941
0.078958 0.088014 0.063941
0.078958 0.088014 0.063941
0.078958 0.088014 0.063941
0.078958 0.088014 0.063941
0.078958 0.088014 0.063941
0.120281 0.119061 0.084969
0.136243 0.139474 0.105822
0.158125 0.161440 0.125528
0.078958 0.088014 0.063941
0.078958 0.088014 0.063941
0.078958 0.088014 0.063941
0.114642 0.129555 0.093438
0.136774 0.149378 0.112843
0.160361 0.172000 0.133122
0.186497 0.197290 0.155481
0.215571 0.225395 0.180334
0.247816 0.256446 0.207954
0.114762 0.138947 0.100611
0.138526 0.159391 0.120024
0.163203 0.182879 0.140994
0.190246 0.209197 0.164224
0.220168 0.238434 0.190057
0.253235 0.270671 0.218735
0.289548 0.305899 0.250405
0.329023 0.343972 0.285095
0.371373 0.384574 0.322681
0.194338 0.221539 0.173313
0.225052 0.251944 0.200159
0.258907 0.285376 0.229914
0.295982 0.321770 0.262688
0.336159 0.360907 0.298455
0.379106 0.402396 0.337031
0.424262 0.445665 0.378044
0.470869 0.489990 0.420943
0.518022 0.534550 0.465019
0.302624 0.338088 0.275369
0.343471 0.378227 0.312189
0.386975 0.420510 0.351705
0.432530 0.464296 0.393478
0.479340 0.508813 0.436894
0.526484 0.553220 0.481202
0.573006 0.596684 0.525576
0.618010 0.638463 0.569195
0.660749 0.677957 0.611318
0.440869 0.483045 0.409131
0.487830 0.527614 0.452965
0.534912 0.571728 0.497393
0.581169 0.614583 0.541585
0.625735 0.655485 0.584739
0.667908 0.693909 0.626159
0.707187 0.729512 0.665303
0.743287 0.762132 0.701802
0.776115 0.791757 0.735461
0.589240 0.632148 0.557455
0.633335 0.672086 0.600052
0.674920 0.709379 0.640697
0.713545 0.743763 0.678911
0.748969 0.775138 0.714390
0.781137 0.803548 0.746997
0.810134 0.829135 0.776732
0.836147 0.852109 0.803697
0.859423 0.872710 0.828066
0.719748 0.757497 0.692155
0.754500 0.787633 0.726597
0.786018 0.814849 0.758152
0.814410 0.839320 0.786861
0.839878 0.861271 0.812859
0.862673 0.880952 0.836333
0.883067 0.898616 0.857507
0.901335 0.914503 0.876609
0.910299 0.919434 0.892995
0.078958 0.088014 0.063941
0.078958 0.088014 0.063941
0.078958 0.088014 0.063941
0.078958 0.088014 0.063941
0.078958 0.088014 0.063941
0.078958 0.088014 0.063941
0.078958 0.088014 0.063941
0.078958 0.088014 0.063941
0.078958 0.088014 0.063941
0.078958 0.088014 0.063941
0.078958 0.088014 0.063941
0.078958 0.088014 0.063941
0.078958 0.088014 0.063941
0.078958 0.088014 0.063941
0.078958 0.088014 0.063941
0.123174 0.125995 0.095613
0.142569 0.146690 0.114246
0.165618 0.169426 0.134339
0.078958 0.088014 0.063941
0.078958 0.088014 0.063941
0.087480 0.122604 0.078738
0.121356 0.135912 0.102347
0.143862 0.156767 0.121333
0.168280 0.180283 0.142183
0.195368 0.206511 0.165383
0.225470 0.235605 0.191229
0.258787 0.267673 0.219941
0.122230 0.145487 0.109099
0.146051 0.167051 0.128674
0.171453 0.191496 0.150340
0.199412 0.218793 0.174473
0.230348 0.249043 0.201341
0.264475 0.282303 0.231136
0.301840 0.318522 0.263958
0.342297 0.357499 0.299779
0.385483 0.398855 0.338407
0.203774 0.231526 0.183926
0.235498 0.262959 0.211842
0.270406 0.297411 0.242733
0.308516 0.334769 0.276659
0.349644 0.374759 0.313533
0.393382 0.416925 0.353100
0.439103 0.460640 0.394917
0.485992 0.505139 0.438366
0.533117 0.549585 0.482692
0.315389 0.351446 0.289751
0.357155 0.392375 0.327645
0.401402 0.435248 0.368092
0.447461 0.479374 0.410583
0.494484 0.523949 0.454444
0.541530 0.568126 0.498886
0.587650 0.611095 0.543073
0.631992 0.652156 0.586207
0.673867 0.690771 0.627590
0.455872 0.498179 0.426433
0.502977 0.542688 0.470600
0.549892 0.586461 0.515046
0.595687 0.628722 0.558938
0.639543 0.668833 0.601508
0.680821 0.706328 0.642111
0.719092 0.740928 0.680271
0.754135 0.772525 0.715686
0.785911 0.801153 0.748223
0.603620 0.645983 0.574626
0.646962 0.685064 0.616546
0.687625 0.721391 0.656306
0.725230 0.754755 0.693492
0.759598 0.785113 0.727867
0.790726 0.812544 0.759350
0.818736 0.837219 0.787985
0.843839 0.859359 0.813907
0.866292 0.879212 0.837309
0.731213 0.768067 0.706340
0.764914 0.797196 0.739664
0.795405 0.823457 0.770099
0.822829 0.847045 0.797727
0.847407 0.868197 0.822707
0.869400 0.887165 0.845245
0.889082 0.904199 0.865568
0.906724 0.919434 0.883908
0.910299 0.919434 0.892995
0.078958 0.088014 0.063941
0.078958 0.088014 0.063941
0.078958 0.088014 0.063941
0.078958 0.088014 0.063941
0.078958 0.088014 0.063941
0.078958 0.088014 0.063941
0.078958 0.088014 0.063941
0.078958 0.088014 0.063941
0.079052 0.088014 0.063941
0.078958 0.088014 0.063941
0.078958 0.088014 0.063941
0.078958 0.088014 0.063941
0.078958 0.088014 0.063941
0.078958 0.088014 0.063941
0.121603 0.110136 0.088085
0.128321 0.132855 0.104148
0.149363 0.154151 0.122665
0.173471 0.177700 0.143385
0.078958 0.088014 0.063941
0.078958 0.088014 0.063941
0.104095 0.124226 0.093460
0.128145 0.142680 0.110648
0.151229 0.164458 0.129941
0.176511 0.188878 0.151523
0.204574 0.216063 0.175643
0.235720 0.246159 0.202530
0.270112 0.279245 0.232363
0.129591 0.152465 0.117422
0.153796 0.175038 0.137520
0.179995 0.200442 0.159998
0.208905 0.228731 0.185100
0.240873 0.260001 0.213043
0.276064 0.294278 0.243977
0.314465 0.331464 0.277953
0.355863 0.371301 0.314880
0.399824 0.413347 0.354497
0.213534 0.241860 0.194934
0.246287 0.274323 0.223953
0.282248 0.309782 0.255996
0.321373 0.348074 0.291065
0.363408 0.388862 0.329011
0.407871 0.431633 0.369506
0.454070 0.475705 0.412037
0.501141 0.520282 0.455925
0.548134 0.564517 0.500378
0.328469 0.365091 0.304560
0.371103 0.406749 0.343482
0.416023 0.450131 0.384787
0.462495 0.494504 0.427898
0.509631 0.539039 0.472087
0.556476 0.582892 0.516539
0.602105 0.625284 0.560420
0.645711 0.665566 0.602962
0.686674 0.703260 0.643523
0.470956 0.513325 0.443902
0.518104 0.557677 0.488284
0.564752 0.601018 0.532623
0.609999 0.642612 0.576100
0.653078 0.681878 0.617987
0.693417 0.718412 0.657699
0.730656 0.751996 0.694827
0.764639 0.782575 0.729135
0.795376 0.810222 0.760545
0.617777 0.659544 0.591568
0.660304 0.697724 0.632722
0.700007 0.733059 0.671531
0.736574 0.765401 0.707651
0.769887 0.794750 0.740906
0.799990 0.821223 0.771267
0.827036 0.845010 0.798820
0.851256 0.866345 0.823726
0.872916 0.885479 0.846191
0.742338 0.778290 0.720094
0.774991 0.806427 0.752292
0.804472 0.831756 0.781617
0.830952 0.854489 0.808184
0.854668 0.874871 0.832175
0.875889 0.893154 0.853809
0.894888 0.909586 0.873315
0.910299 0.919434 0.890925
0.910299 0.919434 0.892995
0.078958 0.088014 0.063941
0.078958 0.088014 0.063941
0.078958 0.088014 0.063941
0.078958 0.088014 0.063941
0.078958 0.088014 0.063941
0.078958 0.088014 0.063941
0.078958 0.088014 0.063941
0.078958 0.088014 0.063941
0.182192 0.093401 0.102685
0.078958 0.088014 0.063941
0.078958 0.088014 0.063941
0.078958 0.088014 0.063941
0.078958 0.088014 0.063941
0.078958 0.088014 0.063941
0.115959 0.119459 0.096967
0.134316 0.139868 0.112242
0.156549 0.161875 0.131227
0.181675 0.186275 0.152718
0.078958 0.088014 0.063941
0.078958 0.088014 0.063941
0.112176 0.129893 0.101727
0.135109 0.149779 0.118856
0.158882 0.172451 0.138760
0.185060 0.197793 0.161180
0.214119 0.225952 0.186281
0.246322 0.257059 0.214250
0.281788 0.291160 0.245226
0.137018 0.159807 0.125815
0.161791 0.183348 0.146624
0.188842 0.209720 0.169998
0.218732 0.239013 0.196123
0.251747 0.271306 0.225174
0.287998 0.306590 0.257262
0.327411 0.344714 0.292382
0.369704 0.385360 0.330380
0.414370 0.428024 0.370923
0.223626 0.252545 0.206353
0.257421 0.286034 0.236502
0.294430 0.322482 0.269702
0.334542 0.361668 0.305896
0.377432 0.403196 0.344869
0.422546 0.446492 0.386219
0.469129 0.490829 0.429364
0.516281 0.535385 0.473574
0.563042 0.579315 0.518031
0.341849 0.379005 0.319781
0.385295 0.421322 0.359675
0.430809 0.465130 0.401754
0.477599 0.509652 0.445378
0.524746 0.554049 0.489775
0.571292 0.597488 0.534113
0.616345 0.639228 0.577572
0.659151 0.678675 0.619426
0.699158 0.715416 0.659090
0.486088 0.528451 0.461495
0.533176 0.572549 0.505968
0.579462 0.615372 0.550078
0.624080 0.656232 0.593030
0.666322 0.694606 0.634145
0.705685 0.730154 0.672902
0.741878 0.762717 0.708959
0.774802 0.792287 0.742144
0.804516 0.818972 0.772432
0.631690 0.672813 0.608242
0.673347 0.710054 0.648550
0.712057 0.744381 0.686354
0.747575 0.775700 0.721377
0.779840 0.804055 0.753504
0.808934 0.829591 0.782754
0.835042 0.852517 0.809246
0.858408 0.873077 0.833164
0.879304 0.891521 0.854726
0.753121 0.788172 0.733410
0.784736 0.815334 0.764481
0.813226 0.839755 0.792710
0.838787 0.861662 0.818241
0.861671 0.881302 0.841274
0.882148 0.898930 0.862036
0.900492 0.914786 0.880760
0.910299 0.919434 0.892995
0.910299 0.919434 0.892995
0.078958 0.088014 0.063941
0.078958 0.088014 0.063941
0.078958 0.088014 0.063941
0.078958 0.088014 0.063941
0.078958 0.088014 0.063941
0.078958 0.088014 0.063941
0.078958 0.088014 0.063941
0.078958 0.088014 0.063941
0.129611 0.114439 0.100877
0.078958 0.088014 0.063941
0.078958 0.088014 0.063941
0.078958 0.088014 0.063941
0.078958 0.088014 0.063941
0.078958 0.088014 0.063941
0.120420 0.126373 0.104112
0.140825 0.147097 0.120322
0.164093 0.169876 0.140015
0.190224 0.195158 0.162374
0.078958 0.088014 0.063941
0.080787 0.122188 0.107190
0.119339 0.136277 0.109405
0.142294 0.157186 0.127174
0.166829 0.180751 0.147847
0.193934 0.207032 0.171186
0.224010 0.236181 0.197318
0.257278 0.268305 0.226402
0.293810 0.303412 0.258534
0.144596 0.167485 0.134394
0.170053 0.191983 0.156031
0.198003 0.219335 0.180367
0.228898 0.249641 0.207558
0.262969 0.282957 0.237745
0.300271 0.319231 0.270991
0.340666 0.358256 0.307237
0.383799 0.399653 0.346259
0.429094 0.442858 0.387652
0.234055 0.263579 0.218195
0.268900 0.298088 0.249494
0.306943 0.335498 0.283847
0.348008 0.375534 0.321139
0.391694 0.417735 0.361082
0.437378 0.461472 0.403202
0.484250 0.505978 0.446854
0.531380 0.550415 0.491267
0.577811 0.593949 0.535603
0.355513 0.393166 0.335395
0.399708 0.436069 0.376194
0.445732 0.480211 0.418955
0.492741 0.524787 0.462979
0.539796 0.568948 0.507461
0.585950 0.611887 0.551562
0.630346 0.652907 0.594490
0.672294 0.691471 0.635565
0.711310 0.727231 0.674270
0.501235 0.543521 0.479164
0.548163 0.587272 0.523604
0.593994 0.629499 0.567365
0.637908 0.669564 0.609690
0.679261 0.707006 0.649952
0.717618 0.741550 0.687700
0.752756 0.773091 0.722657
0.784630 0.801664 0.754713
0.813338 0.827409 0.783889
0.645338 0.685774 0.624614
0.686078 0.722046 0.664004
0.723771 0.755354 0.700759
0.758235 0.785656 0.734665
0.789460 0.813033 0.765663
0.817567 0.837658 0.793817
0.842763 0.859752 0.819273
0.865304 0.879565 0.842234
0.885466 0.897348 0.862926
0.763566 0.797716 0.746286
0.794154 0.823925 0.776236
0.821675 0.847465 0.803387
0.846345 0.868573 0.827910
0.868425 0.887502 0.850017
0.888188 0.904502 0.869942
0.905904 0.919434 0.887916
0.910299 0.919434 0.892995
0.910299 0.919434 0.892995
0.078958 0.088014 0.063941
0.078958 0.088014 0.063941
0.078958 0.088014 0.063941
0.078958 0.088014 0.063941
0.078958 0.088014 0.063941
0.078958 0.088014 0.063941
0.078958 0.088014 0.063941
0.078958 0.088014 0.063941
0.129341 0.122785 0.106643
0.078958 0.088014 0.063941
0.078958 0.088014 0.063941
0.078958 0.088014 0.063941
0.078958 0.088014 0.063941
0.108203 0.111034 0.121553
0.126146 0.133238 0.111327
0.147733 0.154572 0.128558
0.171981 0.178167 0.149084
0.199118 0.204359 0.172383
0.078958 0.088014 0.063941
0.100820 0.124505 0.104934
0.126367 0.143065 0.117099
0.149725 0.164893 0.135704
0.175077 0.189364 0.157245
0.203137 0.216602 0.181563
0.234247 0.246754 0.208770
0.268586 0.279896 0.238992
0.306172 0.315994 0.272285
0.152376 0.175490 0.143227
0.178601 0.200947 0.165773
0.207488 0.229291 0.191126
0.239409 0.260618 0.219419
0.274539 0.294951 0.250758
0.312876 0.332191 0.285159
0.354215 0.372073 0.322501
0.398126 0.414156 0.362491
0.443966 0.457818 0.404651
0.244826 0.274963 0.230472
0.280722 0.310477 0.262931
0.319781 0.348819 0.298425
0.361754 0.389651 0.336775
0.406169 0.432452 0.377619
0.452336 0.476542 0.420416
0.499398 0.521120 0.464463
0.546404 0.565341 0.508953
0.592412 0.608391 0.553046
0.369443 0.407551 0.351381
0.414316 0.450959 0.393008
0.460759 0.495343 0.436348
0.507888 0.539872 0.480654
0.554751 0.583705 0.525095
0.600420 0.626063 0.568842
0.644087 0.666300 0.611135
0.685127 0.703942 0.651353
0.723125 0.738702 0.689043
0.516363 0.558505 0.496862
0.563032 0.601819 0.541145
0.608322 0.643374 0.584444
0.651465 0.682591 0.626045
0.691883 0.719071 0.665385
0.729212 0.752599 0.702079
0.763291 0.783122 0.735917
0.794126 0.810715 0.766842
0.821851 0.835544 0.794921
0.658703 0.698416 0.640653
0.698487 0.733695 0.679065
0.735145 0.765980 0.714735
0.768555 0.795274 0.747511
0.798755 0.821694 0.777388
0.825897 0.845433 0.804463
0.850209 0.866724 0.828912
0.871955 0.885820 0.850947
0.891411 0.902969 0.870803
0.773674 0.806929 0.758721
0.803252 0.832207 0.787561
0.829827 0.854893 0.813658
0.853635 0.875233 0.837201
0.874940 0.893480 0.858416
0.894018 0.909879 0.877537
0.910299 0.919434 0.892995
0.910299 0.919434 0.892995
0.910299 0.919434 0.892995
