apps/filmtone-desktop-macos/FilmtoneDesktop/Resources/CreativeLuts/filmtone-creative-pack-01-urban-rec709-safe.cube
TITLE "Filmtone Urban Rec.709 Safe"
# pack=creative-pack-01
# slug=filmtone-creative-pack-01-urban
# variant=rec709-safe
# bakerVersion=1.5.0-stone-palermo-signature
# generator=filmtone-rec709-safe-color-v1
LUT_3D_SIZE 65
DOMAIN_MIN 0.0 0.0 0.0
DOMAIN_MAX 1.0 1.0 1.0
0.054155 0.067368 0.072306
0.056982 0.067429 0.072059
0.059809 0.067460 0.071829
0.063010 0.067475 0.071600
0.066224 0.067551 0.071300
0.069518 0.067628 0.070912
0.072946 0.067704 0.070506
0.076466 0.067735 0.070065
0.080241 0.067689 0.069519
0.084108 0.067582 0.068866
0.087962 0.067445 0.068143
0.092017 0.067231 0.067419
0.096244 0.066956 0.066696
0.100979 0.066575 0.065920
0.107340 0.065964 0.064827
0.114022 0.065278 0.063627
0.121049 0.064418 0.062333
0.129009 0.063333 0.060707
0.137835 0.062115 0.058821
0.147252 0.060749 0.056639
0.156685 0.059311 0.054216
0.166191 0.057694 0.051324
0.175664 0.055808 0.048068
0.185024 0.053713 0.044802
0.194422 0.051607 0.041492
0.203884 0.049599 0.038051
0.213639 0.047902 0.034672
0.224253 0.046713 0.031866
0.235740 0.045806 0.030265
0.247864 0.044874 0.029691
0.260292 0.043919 0.029495
0.273352 0.042989 0.029327
0.287291 0.042056 0.029156
0.301697 0.041153 0.028984
0.316240 0.040283 0.028813
0.330668 0.039098 0.028646
0.345093 0.037799 0.028487
0.359410 0.036525 0.028338
0.373337 0.034871 0.028220
0.386590 0.032780 0.028170
0.399199 0.030525 0.028198
0.411311 0.028420 0.028307
0.422569 0.027011 0.028496
0.433053 0.026506 0.028716
0.442857 0.026612 0.028956
0.452170 0.026901 0.029226
0.461174 0.027236 0.029525
0.469984 0.027604 0.029858
0.478642 0.028021 0.030238
0.487012 0.028475 0.030654
0.495161 0.028964 0.031105
0.503021 0.029478 0.031580
0.510493 0.030000 0.032064
0.517768 0.030537 0.032562
0.524803 0.031077 0.033064
0.531716 0.031625 0.033573
0.538322 0.032161 0.034070
0.544658 0.032682 0.034553
0.550779 0.033187 0.035021
0.556800 0.033680 0.035476
0.562796 0.034160 0.035919
0.568740 0.034619 0.036341
0.574678 0.035053 0.036739
0.580613 0.035456 0.037106
0.586147 0.035836 0.037450
0.053288 0.069154 0.072729
0.055835 0.069123 0.071847
0.059262 0.068696 0.071600
0.062703 0.068345 0.071424
0.066117 0.068055 0.071212
0.069571 0.067796 0.070877
0.073079 0.067704 0.070489
0.076613 0.067735 0.070048
0.080401 0.067689 0.069483
0.084295 0.067582 0.068831
0.088162 0.067445 0.068107
0.092230 0.067231 0.067384
0.096497 0.066940 0.066660
0.101349 0.066534 0.065837
0.107773 0.065903 0.064700
0.114462 0.065154 0.063460
0.121565 0.064242 0.062102
0.129591 0.063120 0.060413
0.138487 0.061851 0.058466
0.147991 0.060433 0.056225
0.157435 0.058960 0.053727
0.166995 0.057294 0.050743
0.176525 0.055328 0.047417
0.185933 0.053184 0.044117
0.195394 0.051047 0.040740
0.204883 0.049007 0.037251
0.214776 0.047339 0.033862
0.225545 0.046166 0.031168
0.237195 0.045214 0.029660
0.249391 0.044253 0.029108
0.261925 0.043286 0.028882
0.275153 0.042333 0.028689
0.289271 0.041383 0.028498
0.303705 0.040485 0.028312
0.318326 0.039580 0.028135
0.332911 0.038384 0.027970
0.347433 0.037065 0.027820
0.361868 0.035826 0.027686
0.375827 0.034144 0.027600
0.389102 0.032033 0.027590
0.401804 0.029798 0.027665
0.413935 0.027792 0.027825
0.425182 0.026534 0.028069
0.435667 0.026184 0.028337
0.445500 0.026371 0.028624
0.454836 0.026708 0.028940
0.463846 0.027084 0.029280
0.472719 0.027495 0.029653
0.481403 0.027951 0.030071
0.489820 0.028444 0.030525
0.497962 0.028967 0.031008
0.505836 0.029512 0.031514
0.513341 0.030066 0.032028
0.520629 0.030636 0.032559
0.527656 0.031211 0.033094
0.534551 0.031795 0.033639
0.541148 0.032366 0.034170
0.547453 0.032917 0.034683
0.553533 0.033449 0.035176
0.559566 0.033969 0.035659
0.565556 0.034471 0.036123
0.571519 0.034949 0.036564
0.577461 0.035395 0.036974
0.583354 0.035819 0.037361
0.588573 0.036217 0.037724
0.052354 0.071030 0.073029
0.052207 0.071198 0.072482
0.057435 0.071000 0.071406
0.061703 0.070451 0.071088
0.065344 0.070069 0.070894
0.068931 0.069703 0.070630
0.072599 0.069321 0.070277
0.076306 0.069016 0.069907
0.080267 0.068650 0.069413
0.084241 0.068235 0.068792
0.088183 0.067749 0.068069
0.092310 0.067175 0.067314
0.096541 0.066849 0.066546
0.101451 0.066406 0.065675
0.107843 0.065738 0.064492
0.114543 0.064953 0.063208
0.121659 0.064005 0.061789
0.129743 0.062833 0.060059
0.138609 0.061530 0.058072
0.148139 0.060094 0.055793
0.157599 0.058588 0.053259
0.167219 0.056859 0.050207
0.176731 0.054877 0.046866
0.186165 0.052702 0.043537
0.195653 0.050534 0.040133
0.205173 0.048465 0.036618
0.215115 0.046768 0.033204
0.225978 0.045582 0.030486
0.237686 0.044602 0.028986
0.249946 0.043614 0.028422
0.262604 0.042623 0.028170
0.275978 0.041635 0.027954
0.290186 0.040686 0.027746
0.304761 0.039765 0.027551
0.319547 0.038861 0.027371
0.334238 0.037657 0.027211
0.348863 0.036369 0.027074
0.363542 0.035138 0.026963
0.377567 0.033461 0.026911
0.390915 0.031363 0.026942
0.403749 0.029179 0.027066
0.415935 0.027229 0.027279
0.427261 0.026077 0.027581
0.437829 0.025829 0.027903
0.447697 0.026068 0.028241
0.457112 0.026470 0.028605
0.466205 0.026893 0.028990
0.475122 0.027345 0.029403
0.483870 0.027845 0.029863
0.492310 0.028380 0.030359
0.500488 0.028949 0.030887
0.508398 0.029544 0.031442
0.515897 0.030146 0.032003
0.523177 0.030763 0.032579
0.530221 0.031385 0.033162
0.537102 0.032012 0.033748
0.543641 0.032619 0.034315
0.549909 0.033204 0.034862
0.555994 0.033770 0.035389
0.562023 0.034320 0.035901
0.568003 0.034847 0.036390
0.573951 0.035343 0.036848
0.579889 0.035804 0.037273
0.585805 0.036269 0.037702
0.590739 0.036692 0.038089
0.051394 0.073060 0.073258
0.051194 0.073274 0.072729
0.052861 0.073441 0.072570
0.059262 0.073090 0.071000
0.064317 0.072419 0.070595
0.068104 0.072007 0.070348
0.071876 0.071574 0.070040
0.075710 0.071129 0.069682
0.079753 0.070627 0.069169
0.083847 0.070068 0.068553
0.087886 0.069499 0.067854
0.092110 0.068873 0.067106
0.096480 0.068206 0.066327
0.101439 0.067407 0.065395
0.107830 0.066384 0.064188
0.114626 0.065215 0.062827
0.121789 0.063837 0.061351
0.129842 0.062449 0.059565
0.138735 0.061114 0.057542
0.148270 0.059632 0.055229
0.157805 0.058095 0.052645
0.167409 0.056351 0.049564
0.176949 0.054324 0.046196
0.186398 0.052106 0.042842
0.195934 0.049925 0.039413
0.205488 0.047828 0.035877
0.215523 0.046120 0.032425
0.226404 0.044908 0.029738
0.238175 0.043918 0.028232
0.250504 0.042890 0.027642
0.263223 0.041877 0.027366
0.276681 0.040872 0.027131
0.290970 0.039912 0.026910
0.305652 0.038987 0.026708
0.320527 0.038071 0.026530
0.335329 0.036879 0.026379
0.350089 0.035610 0.026259
0.364877 0.034423 0.026175
0.379015 0.032769 0.026160
0.392455 0.030718 0.026236
0.405371 0.028572 0.026412
0.417648 0.026694 0.026679
0.429045 0.025620 0.027042
0.439673 0.025432 0.027422
0.449608 0.025741 0.027813
0.459032 0.026192 0.028225
0.468211 0.026668 0.028662
0.477166 0.027171 0.029125
0.485909 0.027724 0.029637
0.494404 0.028318 0.030191
0.502596 0.028944 0.030775
0.510490 0.029594 0.031384
0.518002 0.030251 0.032000
0.525277 0.030922 0.032629
0.532335 0.031597 0.033264
0.539205 0.032273 0.033899
0.545742 0.032925 0.034512
0.552019 0.033554 0.035101
0.558093 0.034157 0.035665
0.564104 0.034738 0.036208
0.570112 0.035293 0.036725
0.576073 0.035809 0.037205
0.582012 0.036301 0.037660
0.587882 0.036809 0.038131
0.592676 0.037266 0.038553
0.050380 0.075257 0.073417
0.050154 0.075532 0.073011
0.049900 0.075714 0.072446
0.053949 0.075826 0.072326
0.061287 0.075346 0.070517
0.066874 0.074535 0.069998
0.070977 0.073988 0.069660
0.074918 0.073430 0.069272
0.079043 0.072815 0.068766
0.083235 0.072145 0.068140
0.087399 0.071419 0.067450
0.091724 0.070652 0.066694
0.096171 0.069860 0.065874
0.101222 0.069043 0.064936
0.107656 0.068049 0.063742
0.114593 0.066893 0.062397
0.121993 0.065545 0.060884
0.130169 0.063959 0.059099
0.139148 0.062121 0.057026
0.148762 0.060137 0.054630
0.158229 0.058190 0.051983
0.167755 0.056083 0.048841
0.177165 0.053662 0.045415
0.186662 0.051433 0.042039
0.196220 0.049226 0.038591
0.205868 0.047089 0.035019
0.215905 0.045371 0.031568
0.226861 0.044151 0.028881
0.238700 0.043137 0.027371
0.251088 0.042087 0.026775
0.263887 0.041055 0.026478
0.277447 0.040037 0.026227
0.291824 0.039069 0.025997
0.306603 0.038144 0.025793
0.321530 0.037251 0.025620
0.336490 0.036059 0.025484
0.351375 0.034814 0.025385
0.366233 0.033660 0.025333
0.380540 0.032035 0.025361
0.394072 0.030035 0.025487
0.407085 0.027933 0.025720
0.419434 0.026118 0.026049
0.430900 0.025142 0.026477
0.441599 0.025036 0.026922
0.451566 0.025411 0.027378
0.461036 0.025928 0.027855
0.470251 0.026468 0.028355
0.479232 0.027035 0.028880
0.487994 0.027651 0.029456
0.496489 0.028309 0.030072
0.504686 0.028999 0.030720
0.512557 0.029710 0.031389
0.520072 0.030430 0.032067
0.527334 0.031159 0.032755
0.534375 0.031891 0.033447
0.541225 0.032620 0.034135
0.547742 0.033322 0.034797
0.553989 0.033993 0.035429
0.560049 0.034634 0.036031
0.566050 0.035247 0.036606
0.572044 0.035826 0.037148
0.578004 0.036363 0.037648
0.583900 0.036898 0.038146
0.589732 0.037450 0.038662
0.594438 0.037948 0.039124
0.049304 0.077452 0.073482
0.049063 0.077685 0.073130
0.048656 0.077847 0.072183
0.050031 0.078043 0.072368
0.055165 0.078000 0.071569
0.063262 0.077535 0.069771
0.069423 0.076647 0.069159
0.073835 0.076024 0.068727
0.078099 0.075329 0.068230
0.082417 0.074580 0.067633
0.086737 0.073744 0.066954
0.091153 0.072838 0.066176
0.095720 0.071832 0.065317
0.100867 0.070786 0.064342
0.107282 0.069670 0.063130
0.114364 0.068515 0.061785
0.121900 0.067199 0.060275
0.130269 0.065646 0.058494
0.139475 0.063811 0.056444
0.149266 0.061739 0.054056
0.158995 0.059598 0.051297
0.168784 0.057434 0.048133
0.178527 0.055096 0.044706
0.188037 0.052583 0.041260
0.197460 0.049925 0.037726
0.206866 0.047276 0.034089
0.216624 0.045018 0.030607
0.227387 0.043409 0.027923
0.239258 0.042282 0.026446
0.251708 0.041228 0.025831
0.264591 0.040166 0.025516
0.278177 0.039151 0.025252
0.292713 0.038165 0.025016
0.307609 0.037259 0.024814
0.322635 0.036347 0.024651
0.337729 0.035190 0.024533
0.352730 0.033973 0.024461
0.367715 0.032842 0.024446
0.382122 0.031282 0.024523
0.395759 0.029310 0.024706
0.408801 0.027288 0.025002
0.421290 0.025549 0.025405
0.432818 0.024667 0.025911
0.443516 0.024654 0.026432
0.453583 0.025109 0.026967
0.463094 0.025702 0.027519
0.472326 0.026313 0.028089
0.481329 0.026949 0.028683
0.490095 0.027635 0.029328
0.498607 0.028365 0.030015
0.506790 0.029124 0.030733
0.514641 0.029903 0.031470
0.522147 0.030691 0.032216
0.529374 0.031485 0.032968
0.536364 0.032277 0.033719
0.543203 0.033066 0.034468
0.549688 0.033819 0.035182
0.555878 0.034534 0.035857
0.561931 0.035213 0.036498
0.567932 0.035857 0.037105
0.573922 0.036459 0.037670
0.579861 0.037026 0.038200
0.585698 0.037605 0.038744
0.591480 0.038204 0.039307
0.596098 0.038742 0.039810
0.048071 0.079641 0.073329
0.047796 0.079884 0.072984
0.047356 0.080010 0.072008
0.047069 0.080140 0.071531
0.050546 0.080261 0.071832
0.056523 0.080082 0.070485
0.065191 0.079619 0.068757
0.071831 0.078658 0.068126
0.076826 0.077932 0.067589
0.081369 0.077181 0.067006
0.085835 0.076346 0.066324
0.090412 0.075410 0.065544
0.095102 0.074359 0.064667
0.100349 0.073116 0.063675
0.106762 0.071744 0.062447
0.113980 0.070333 0.061054
0.121723 0.068883 0.059514
0.130184 0.067304 0.057758
0.139595 0.065504 0.055699
0.149554 0.063484 0.053306
0.159522 0.061288 0.050526
0.169581 0.058995 0.047362
0.179638 0.056649 0.043971
0.189543 0.054235 0.040529
0.199161 0.051648 0.036983
0.208682 0.048856 0.033231
0.218271 0.046104 0.029620
0.228434 0.043743 0.026820
0.239626 0.041835 0.025346
0.251855 0.040397 0.024798
0.264768 0.039260 0.024485
0.278519 0.038223 0.024213
0.293373 0.037221 0.023975
0.308651 0.036309 0.023780
0.323808 0.035413 0.023632
0.339014 0.034280 0.023537
0.354163 0.033096 0.023497
0.369275 0.032012 0.023527
0.383786 0.030495 0.023661
0.397515 0.028590 0.023912
0.410638 0.026646 0.024284
0.423209 0.024993 0.024771
0.434797 0.024201 0.025364
0.445545 0.024304 0.025970
0.455653 0.024844 0.026590
0.465204 0.025519 0.027223
0.474431 0.026205 0.027868
0.483491 0.026920 0.028540
0.492267 0.027682 0.029261
0.500745 0.028486 0.030023
0.508949 0.029326 0.030820
0.516766 0.030179 0.031632
0.524240 0.031041 0.032451
0.531426 0.031905 0.033274
0.538359 0.032763 0.034092
0.545149 0.033614 0.034903
0.551579 0.034422 0.035672
0.557733 0.035183 0.036394
0.563767 0.035898 0.037072
0.569748 0.036569 0.037706
0.575724 0.037190 0.038291
0.581630 0.037800 0.038865
0.587427 0.038427 0.039456
0.593148 0.039071 0.040066
0.597688 0.039651 0.040612
0.046530 0.081832 0.073037
0.046248 0.082010 0.072648
0.045801 0.082133 0.071735
0.045347 0.082231 0.070846
0.046388 0.082319 0.070947
0.051058 0.082231 0.070826
0.057916 0.082042 0.069148
0.067048 0.081584 0.067567
0.074284 0.080554 0.066869
0.079915 0.079698 0.066233
0.084719 0.078910 0.065551
0.089474 0.078054 0.064790
0.094318 0.077052 0.063932
0.099668 0.075828 0.062944
0.106108 0.074384 0.061721
0.113413 0.072795 0.060318
0.121342 0.071062 0.058751
0.129952 0.069215 0.056953
0.139479 0.067255 0.054855
0.149761 0.065166 0.052355
0.160001 0.063025 0.049558
0.170240 0.060740 0.046449
0.180560 0.058312 0.043150
0.190731 0.055863 0.039818
0.200726 0.053333 0.036332
0.210501 0.050599 0.032539
0.220073 0.047661 0.028836
0.229797 0.044657 0.025857
0.240156 0.041817 0.024301
0.251708 0.039707 0.023721
0.264379 0.038360 0.023395
0.277894 0.037285 0.023113
0.292536 0.036297 0.022872
0.307654 0.035406 0.022682
0.323008 0.034541 0.022549
0.338761 0.033425 0.022484
0.354511 0.032255 0.022487
0.370237 0.031201 0.022577
0.385362 0.029715 0.022788
0.399326 0.027861 0.023119
0.412561 0.026003 0.023577
0.425207 0.024444 0.024156
0.436861 0.023777 0.024843
0.447666 0.023976 0.025543
0.457830 0.024622 0.026253
0.467413 0.025384 0.026973
0.476671 0.026154 0.027702
0.485749 0.026950 0.028456
0.494530 0.027796 0.029260
0.502987 0.028682 0.030103
0.511168 0.029604 0.030984
0.518946 0.030540 0.031878
0.526359 0.031480 0.032777
0.533484 0.032420 0.033677
0.540351 0.033351 0.034567
0.547083 0.034270 0.035447
0.553442 0.035135 0.036272
0.559542 0.035941 0.037041
0.565554 0.036689 0.037753
0.571526 0.037383 0.038410
0.577473 0.038030 0.039022
0.583340 0.038687 0.039644
0.589077 0.039359 0.040282
0.594756 0.040050 0.040939
0.599200 0.040669 0.041525
0.044746 0.083972 0.072493
0.044446 0.084133 0.072115
0.044046 0.084209 0.071198
0.043559 0.084230 0.070025
0.043282 0.084319 0.069754
0.046172 0.084399 0.070119
0.051631 0.084029 0.069353
0.059263 0.083864 0.067616
0.068819 0.083477 0.066151
0.076759 0.082427 0.065411
0.082943 0.081537 0.064679
0.088218 0.080700 0.063905
0.093327 0.079765 0.063070
0.098824 0.078609 0.062105
0.105295 0.077217 0.060925
0.112704 0.075621 0.059514
0.120810 0.073834 0.057941
0.129588 0.071844 0.056139
0.139342 0.069649 0.054022
0.149749 0.067295 0.051488
0.160308 0.065012 0.048574
0.170786 0.062708 0.045506
0.181389 0.060247 0.042267
0.191844 0.057689 0.039030
0.202137 0.055065 0.035659
0.212255 0.052390 0.031949
0.222088 0.049498 0.028192
0.231729 0.046265 0.024987
0.241581 0.042739 0.023216
0.252231 0.039580 0.022590
0.264283 0.037690 0.022253
0.277494 0.036396 0.021966
0.291771 0.035348 0.021724
0.306602 0.034464 0.021540
0.321774 0.033631 0.021423
0.337427 0.032618 0.021383
0.353228 0.031501 0.021424
0.369161 0.030499 0.021565
0.384683 0.029169 0.021840
0.399369 0.027403 0.022259
0.413184 0.025599 0.022817
0.426358 0.024033 0.023510
0.438551 0.023384 0.024321
0.449723 0.023689 0.025142
0.460115 0.024446 0.025962
0.469744 0.025302 0.026776
0.479034 0.026162 0.027595
0.488127 0.027045 0.028436
0.496905 0.027979 0.029328
0.505341 0.028954 0.030261
0.513471 0.029965 0.031231
0.521193 0.030988 0.032213
0.528503 0.032011 0.033194
0.535566 0.033036 0.034180
0.542344 0.034044 0.035148
0.548959 0.035029 0.036095
0.555263 0.035955 0.036982
0.561319 0.036806 0.037797
0.567301 0.037583 0.038538
0.573268 0.038293 0.039213
0.579175 0.038979 0.039865
0.584992 0.039682 0.040534
0.590668 0.040398 0.041217
0.596296 0.041134 0.041920
0.600658 0.041790 0.042545
0.042776 0.086097 0.071759
0.042456 0.086229 0.071360
0.042091 0.086276 0.070442
0.041599 0.086284 0.069304
0.041183 0.086390 0.068612
0.041880 0.086337 0.068592
0.046124 0.086275 0.068840
0.052318 0.085718 0.067597
0.060495 0.085596 0.065911
0.070516 0.085284 0.064583
0.079309 0.084247 0.063823
0.086112 0.083341 0.062985
0.091910 0.082460 0.062106
0.097708 0.081434 0.061151
0.104281 0.080143 0.059982
0.111879 0.078587 0.058618
0.120097 0.076872 0.057076
0.129033 0.074892 0.055290
0.138994 0.072663 0.053157
0.149682 0.070169 0.050593
0.160509 0.067548 0.047687
0.171285 0.065044 0.044576
0.182149 0.062536 0.041434
0.192920 0.059962 0.038295
0.203505 0.057217 0.035006
0.213914 0.054375 0.031414
0.224107 0.051545 0.027676
0.234125 0.048498 0.024283
0.244244 0.045127 0.022217
0.254868 0.041764 0.021433
0.266107 0.038894 0.021075
0.278385 0.036638 0.020786
0.291933 0.034907 0.020547
0.306223 0.033637 0.020373
0.321103 0.032703 0.020275
0.336515 0.031750 0.020265
0.352170 0.030720 0.020346
0.368014 0.029769 0.020537
0.383561 0.028635 0.020870
0.398482 0.027076 0.021360
0.412682 0.025344 0.022007
0.426299 0.023776 0.022806
0.439025 0.023048 0.023733
0.450646 0.023380 0.024687
0.461489 0.024237 0.025637
0.471581 0.025224 0.026583
0.481139 0.026199 0.027517
0.490422 0.027192 0.028468
0.499305 0.028233 0.029467
0.507775 0.029310 0.030504
0.515860 0.030418 0.031570
0.523495 0.031533 0.032645
0.530714 0.032646 0.033717
0.537674 0.033758 0.034790
0.544335 0.034844 0.035838
0.550847 0.035899 0.036855
0.557065 0.036881 0.037801
0.563054 0.037774 0.038658
0.568995 0.038571 0.039421
0.574968 0.039302 0.040118
0.580827 0.040032 0.040815
0.586584 0.040778 0.041529
0.592222 0.041538 0.042257
0.597801 0.042316 0.043004
0.602084 0.043007 0.043664
0.040632 0.088202 0.070828
0.040281 0.088290 0.070393
0.039897 0.088310 0.069512
0.039387 0.088276 0.068360
0.038871 0.088266 0.067323
0.038581 0.088278 0.067009
0.041049 0.088299 0.067312
0.046122 0.087840 0.067083
0.052928 0.087298 0.065632
0.061665 0.087223 0.064019
0.072298 0.087080 0.062886
0.081839 0.086122 0.062057
0.089370 0.085205 0.061120
0.096031 0.084266 0.060124
0.102928 0.083154 0.058986
0.110719 0.081732 0.057654
0.119258 0.080060 0.056130
0.128358 0.078170 0.054363
0.138473 0.076015 0.052234
0.149487 0.073566 0.049678
0.160644 0.070869 0.046799
0.171683 0.068076 0.043718
0.182867 0.065294 0.040624
0.193891 0.062585 0.037584
0.204824 0.059826 0.034447
0.215572 0.056927 0.030908
0.226075 0.053948 0.027241
0.236501 0.050936 0.023767
0.247061 0.047755 0.021363
0.257925 0.044481 0.020292
0.268923 0.041110 0.019869
0.280459 0.037959 0.019583
0.293289 0.035322 0.019354
0.306897 0.033290 0.019196
0.321142 0.031906 0.019120
0.336100 0.030864 0.019142
0.351594 0.029911 0.019269
0.367334 0.029033 0.019518
0.382909 0.028073 0.019918
0.397910 0.026710 0.020482
0.412285 0.025094 0.021215
0.426141 0.023593 0.022114
0.439166 0.022756 0.023146
0.451077 0.023082 0.024230
0.462104 0.024021 0.025292
0.472548 0.025120 0.026364
0.482478 0.026224 0.027428
0.492033 0.027341 0.028504
0.501231 0.028518 0.029639
0.509933 0.029728 0.030809
0.518138 0.030958 0.031998
0.525823 0.032188 0.033189
0.532966 0.033397 0.034358
0.539791 0.034592 0.035516
0.546336 0.035756 0.036643
0.552710 0.036875 0.037725
0.558840 0.037910 0.038725
0.564762 0.038836 0.039617
0.570687 0.039649 0.040397
0.576628 0.040410 0.041125
0.582429 0.041181 0.041865
0.588119 0.041966 0.042620
0.593710 0.042766 0.043389
0.599265 0.043584 0.044177
0.603472 0.044305 0.044870
0.038194 0.090307 0.069657
0.037811 0.090385 0.069190
0.037356 0.090380 0.068331
0.036800 0.090307 0.067187
0.036185 0.090196 0.065862
0.035701 0.090323 0.065414
0.036110 0.090123 0.065236
0.040424 0.090177 0.065673
0.046206 0.089187 0.064959
0.053514 0.088786 0.063480
0.062768 0.088761 0.061980
0.074221 0.088852 0.061026
0.084444 0.088008 0.060136
0.092854 0.087097 0.059104
0.100709 0.086059 0.057947
0.108945 0.084819 0.056651
0.117935 0.083299 0.055112
0.127337 0.081516 0.053349
0.137668 0.079484 0.051245
0.148999 0.077174 0.048751
0.160643 0.074631 0.045902
0.172101 0.071871 0.042870
0.183610 0.068910 0.039859
0.194918 0.065899 0.036904
0.206124 0.062901 0.033887
0.217212 0.059854 0.030420
0.228071 0.056759 0.026776
0.238785 0.053693 0.023275
0.249735 0.050507 0.020541
0.260915 0.047236 0.019158
0.272080 0.043828 0.018659
0.283410 0.040277 0.018369
0.295688 0.036894 0.018156
0.308610 0.033908 0.018019
0.322103 0.031652 0.017972
0.336548 0.030131 0.018033
0.351786 0.029065 0.018214
0.367317 0.028282 0.018527
0.382814 0.027472 0.019002
0.397824 0.026298 0.019647
0.412156 0.024841 0.020465
0.426087 0.023422 0.021463
0.439387 0.022565 0.022598
0.451551 0.022880 0.023822
0.462785 0.023871 0.025013
0.473379 0.025072 0.026204
0.483476 0.026294 0.027385
0.493191 0.027528 0.028579
0.502491 0.028822 0.029832
0.511275 0.030151 0.031122
0.519564 0.031502 0.032434
0.527404 0.032863 0.033756
0.534687 0.034198 0.035053
0.541585 0.035503 0.036321
0.548231 0.036769 0.037551
0.554612 0.037961 0.038709
0.560640 0.039038 0.039752
0.566512 0.039991 0.040672
0.572382 0.040810 0.041459
0.578278 0.041608 0.042228
0.584022 0.042417 0.043007
0.589658 0.043239 0.043799
0.595196 0.044073 0.044605
0.600690 0.044923 0.045428
0.604856 0.045672 0.046150
0.035435 0.092466 0.068259
0.035007 0.092505 0.067780
0.034479 0.092462 0.066946
0.033878 0.092352 0.065829
0.033177 0.092220 0.064532
0.032553 0.092265 0.063749
0.032211 0.092183 0.063372
0.034382 0.092140 0.063592
0.039624 0.091757 0.063665
0.046071 0.090437 0.062614
0.053922 0.090181 0.061148
0.063691 0.090256 0.059781
0.076174 0.090646 0.059010
0.087148 0.089903 0.058063
0.096592 0.089003 0.056925
0.106036 0.087901 0.055581
0.115814 0.086566 0.054047
0.125816 0.084938 0.052292
0.136461 0.083046 0.050215
0.148198 0.080908 0.047768
0.160238 0.078522 0.045002
0.172190 0.075934 0.042073
0.184098 0.073146 0.039148
0.195877 0.070127 0.036263
0.207456 0.066983 0.033350
0.218877 0.063623 0.029924
0.230082 0.060246 0.026323
0.241099 0.057020 0.022814
0.252347 0.053757 0.019758
0.263948 0.050403 0.018038
0.275469 0.046979 0.017422
0.287135 0.043480 0.017153
0.299364 0.039852 0.016968
0.311914 0.036320 0.016865
0.324813 0.033126 0.016857
0.338368 0.030610 0.016961
0.352809 0.028787 0.017194
0.368106 0.027669 0.017584
0.383465 0.026883 0.018143
0.398518 0.025851 0.018886
0.412868 0.024541 0.019806
0.426723 0.023267 0.020904
0.440035 0.022444 0.022151
0.452248 0.022748 0.023487
0.463558 0.023789 0.024803
0.474279 0.025096 0.026115
0.484446 0.026428 0.027408
0.494224 0.027773 0.028715
0.503627 0.029189 0.030091
0.512503 0.030642 0.031506
0.520853 0.032116 0.032942
0.528725 0.033595 0.034384
0.536020 0.035041 0.035793
0.542939 0.036451 0.037168
0.549562 0.037804 0.038486
0.555919 0.039067 0.039716
0.562024 0.040205 0.040822
0.567998 0.041195 0.041781
0.573921 0.042039 0.042596
0.579825 0.042878 0.043406
0.585669 0.043733 0.044233
0.591313 0.044591 0.045064
0.596783 0.045453 0.045900
0.602220 0.046330 0.046751
0.606312 0.047097 0.047493
0.032352 0.094610 0.066731
0.031920 0.094613 0.066225
0.031347 0.094534 0.065402
0.030675 0.094373 0.064315
0.029928 0.094207 0.063050
0.029218 0.094111 0.061970
0.028641 0.094225 0.061520
0.028595 0.093829 0.061184
0.032703 0.093963 0.061680
0.038599 0.092979 0.061365
0.045781 0.091593 0.060106
0.054226 0.091501 0.058742
0.064787 0.091801 0.057529
0.078042 0.092464 0.056790
0.089810 0.091871 0.055809
0.100724 0.090971 0.054521
0.112049 0.089777 0.052928
0.123297 0.088351 0.051166
0.134624 0.086709 0.049153
0.146897 0.084759 0.046772
0.159548 0.082532 0.044059
0.171973 0.080089 0.041183
0.184468 0.077446 0.038313
0.196652 0.074648 0.035550
0.208636 0.071651 0.032776
0.220534 0.068331 0.029327
0.232159 0.064827 0.025737
0.243568 0.061246 0.022274
0.255177 0.057759 0.019021
0.267091 0.054310 0.016991
0.279047 0.050800 0.016215
0.291114 0.047225 0.015943
0.303570 0.043528 0.015797
