apps/filmtone-desktop-macos/FilmtoneDesktop/Resources/CreativeLuts/filmtone-creative-pack-01-urban-rec709-safe.cube
TITLE "Filmtone Urban Rec.709 Safe"
# pack=creative-pack-01
# slug=filmtone-creative-pack-01-urban
# variant=rec709-safe
# bakerVersion=1.5.0-stone-palermo-signature
# generator=filmtone-rec709-safe-color-v1
LUT_3D_SIZE 9
DOMAIN_MIN 0.0 0.0 0.0
DOMAIN_MAX 1.0 1.0 1.0
0.054155 0.067368 0.072306
0.080241 0.067689 0.069519
0.121049 0.064418 0.062333
0.194422 0.051607 0.041492
0.287291 0.042056 0.029156
0.399199 0.030525 0.028198
0.478642 0.028021 0.030238
0.538322 0.032161 0.034070
0.586147 0.035836 0.037450
0.044746 0.083972 0.072493
0.068819 0.083477 0.066151
0.120810 0.073834 0.057941
0.202137 0.055065 0.035659
0.291771 0.035348 0.021724
0.413184 0.025599 0.022817
0.496905 0.027979 0.029328
0.555263 0.035955 0.036982
0.600658 0.041790 0.042545
0.022198 0.101117 0.061315
0.018129 0.099755 0.054285
0.083847 0.097953 0.049304
0.209584 0.086974 0.031346
0.317880 0.059969 0.012465
0.423428 0.030139 0.018129
0.508974 0.031514 0.032019
0.566412 0.045287 0.045573
0.612597 0.052906 0.053042
0.008466 0.129970 0.041008
0.006564 0.127207 0.036149
0.004867 0.121726 0.033327
0.102741 0.121165 0.032153
0.328952 0.127427 0.006012
0.492613 0.117404 0.020899
0.564765 0.083572 0.042323
0.578930 0.055272 0.055272
0.624336 0.062917 0.062917
0.002654 0.186031 0.030706
0.001418 0.180952 0.028353
0.000529 0.181057 0.026820
0.000058 0.132104 0.024425
0.133272 0.172503 0.023804
0.481276 0.230723 0.020163
0.632796 0.222243 0.045898
0.673764 0.180548 0.071582
0.680308 0.116424 0.079765
0.001004 0.265520 0.027221
0.000899 0.260653 0.027236
0.000981 0.260690 0.027333
0.000796 0.254752 0.027286
0.000000 0.156893 0.024903
0.190967 0.252949 0.006317
0.605527 0.353516 0.051314
0.733407 0.347704 0.068309
0.779557 0.314492 0.099802
0.009665 0.366352 0.030844
0.010092 0.362224 0.031699
0.010722 0.360672 0.032528
0.011966 0.362786 0.033695
0.011277 0.347585 0.034135
0.000000 0.210834 0.027054
0.283575 0.370123 0.020857
0.686650 0.486257 0.122735
0.792936 0.493370 0.150044
0.032799 0.461907 0.040709
0.035249 0.461253 0.043899
0.038452 0.461632 0.047749
0.044110 0.468343 0.052985
0.046963 0.467011 0.057002
0.030948 0.405765 0.050076
0.007221 0.287834 0.032841
0.409201 0.516207 0.101074
0.754983 0.610840 0.211221
0.085027 0.551651 0.085055
0.091217 0.555571 0.091231
0.097139 0.559618 0.097139
0.105776 0.568300 0.105776
0.113479 0.576458 0.113479
0.114224 0.575977 0.114238
0.050409 0.438030 0.067914
0.036821 0.393404 0.057893
0.527617 0.633192 0.196127
0.052728 0.068040 0.093385
0.078253 0.068619 0.092873
0.122117 0.066117 0.078184
0.199621 0.053172 0.052557
0.291098 0.041095 0.028635
0.402394 0.029757 0.027793
0.480765 0.027959 0.030098
0.539305 0.032208 0.034034
0.587483 0.036098 0.037626
0.043758 0.085722 0.088711
0.076968 0.091793 0.092986
0.130075 0.081164 0.074843
0.215838 0.058970 0.046291
0.303676 0.034152 0.020622
0.419301 0.022230 0.020431
0.502204 0.026899 0.028158
0.557384 0.036812 0.037751
0.602135 0.042793 0.043469
0.021113 0.102457 0.065886
0.036640 0.109987 0.078185
0.098279 0.109989 0.058743
0.224309 0.097292 0.040930
0.332997 0.066784 0.010767
0.434995 0.030651 0.013888
0.518203 0.028178 0.028619
0.578810 0.043884 0.044122
0.615745 0.053966 0.054065
0.007811 0.133643 0.042308
0.005941 0.136876 0.046715
0.007269 0.147863 0.041027
0.117732 0.133878 0.030970
0.347584 0.143688 0.003996
0.501021 0.122269 0.013418
0.585959 0.088861 0.034984
0.598286 0.052885 0.052871
0.627902 0.063961 0.063961
0.002200 0.192232 0.030363
0.001073 0.193049 0.030357
0.000319 0.189804 0.026997
0.000005 0.136728 0.024377
0.141649 0.181506 0.022263
0.485936 0.241132 0.013553
0.644720 0.235212 0.037861
0.692928 0.189893 0.066508
0.692128 0.131015 0.082914
0.001409 0.274362 0.027380
0.000859 0.273004 0.027150
0.000640 0.262821 0.026916
0.000660 0.261711 0.026966
0.000000 0.159930 0.025025
0.199560 0.259665 0.005161
0.610875 0.363996 0.045595
0.741562 0.364187 0.067821
0.788552 0.330916 0.101122
0.010934 0.375976 0.031248
0.010376 0.374169 0.030831
0.010215 0.364545 0.031623
0.010521 0.357862 0.032540
0.010402 0.347077 0.033230
0.000000 0.212497 0.027085
0.293130 0.378097 0.021592
0.696396 0.500914 0.120910
0.795489 0.511539 0.160142
0.036491 0.470813 0.043003
0.040217 0.473067 0.046962
0.042270 0.469411 0.050402
0.044503 0.466298 0.054066
0.049146 0.469809 0.059015
0.033464 0.411670 0.052167
0.007876 0.290229 0.033465
0.422679 0.526635 0.109997
0.760216 0.621913 0.217346
0.091823 0.560538 0.091837
0.099377 0.566594 0.099391
0.103999 0.568652 0.104012
0.107969 0.570174 0.107982
0.113710 0.576080 0.113710
0.117754 0.581234 0.117768
0.053822 0.446863 0.070571
0.037742 0.396190 0.058662
0.538074 0.640113 0.201274
0.046246 0.065995 0.135525
0.065744 0.066865 0.137695
0.117191 0.065767 0.130174
0.202172 0.053784 0.095909
0.300381 0.036063 0.056955
0.408717 0.025219 0.027564
0.485453 0.028061 0.030116
0.541820 0.032434 0.034174
0.589539 0.036473 0.037912
0.036155 0.081213 0.130840
0.065761 0.086825 0.137549
0.125954 0.083233 0.130403
0.219374 0.060999 0.092848
0.313854 0.028816 0.045897
0.428452 0.018585 0.020078
0.507797 0.027539 0.028702
0.560059 0.037761 0.038614
0.604512 0.043932 0.044532
0.018349 0.104991 0.104638
0.046025 0.116649 0.115843
0.124956 0.142895 0.136479
0.244237 0.120760 0.101465
0.358419 0.081229 0.052408
0.461914 0.030376 0.008978
0.529671 0.020828 0.021200
0.583532 0.043047 0.043232
0.623198 0.055872 0.055940
0.007165 0.138884 0.059566
0.006940 0.154717 0.068622
0.042286 0.195958 0.117349
0.183070 0.193700 0.072505
0.380762 0.176680 0.041959
0.521447 0.134067 0.014147
0.611863 0.098131 0.022624
0.636836 0.047081 0.044766
0.654130 0.061458 0.061458
0.001780 0.196668 0.033066
0.000772 0.209206 0.042098
0.001425 0.238131 0.075787
0.016739 0.262486 0.071473
0.218631 0.234134 0.012619
0.531289 0.285588 0.012727
0.663174 0.259540 0.026573
0.730801 0.215355 0.054658
0.738911 0.160808 0.082264
0.001722 0.279970 0.027723
0.001355 0.287980 0.032178
0.000482 0.300642 0.049021
0.000558 0.303648 0.043405
0.000015 0.196979 0.026474
0.241690 0.280906 0.002749
0.641820 0.399199 0.031297
0.764919 0.400864 0.060547
0.820266 0.362768 0.093850
0.012022 0.382526 0.031683
0.012238 0.387453 0.032024
0.007550 0.380687 0.033335
0.007563 0.372136 0.028476
0.009086 0.378369 0.029059
0.000000 0.215183 0.027100
0.308042 0.380091 0.015694
0.722782 0.529174 0.105529
0.819425 0.545911 0.157288
0.039776 0.477655 0.045291
0.045664 0.484823 0.050644
0.044326 0.481998 0.050752
0.044437 0.473489 0.052278
0.049664 0.479199 0.057371
0.031553 0.412453 0.049915
0.007433 0.291022 0.033022
0.432174 0.530611 0.105924
0.774078 0.637670 0.217333
0.097944 0.568127 0.097957
0.107790 0.577673 0.107817
0.114561 0.582982 0.114588
0.116664 0.582097 0.116677
0.116328 0.579566 0.116328
0.126023 0.593848 0.126037
0.056127 0.452548 0.072387
0.038365 0.398097 0.059207
0.549180 0.647512 0.206753
0.036364 0.058762 0.225098
0.048003 0.058786 0.229071
0.092429 0.058841 0.227303
0.194801 0.047051 0.205605
0.300838 0.032687 0.153599
0.411719 0.024635 0.103138
0.491163 0.028100 0.059803
0.548073 0.033047 0.036474
0.593540 0.037049 0.038398
0.027860 0.069349 0.221037
0.043405 0.071432 0.231923
0.099563 0.069700 0.228282
0.211951 0.056104 0.203010
0.314729 0.024814 0.142385
0.432966 0.017955 0.095505
0.513475 0.028116 0.059555
0.565768 0.039044 0.042419
0.608685 0.045289 0.045815
0.015885 0.096928 0.187384
0.022835 0.104401 0.201079
0.102028 0.134219 0.227448
0.238377 0.128388 0.221781
0.361659 0.085945 0.158868
0.468568 0.014947 0.089953
0.548757 0.022250 0.064165
0.594082 0.044652 0.053842
0.629478 0.057356 0.057473
0.006529 0.146368 0.132175
0.006152 0.162697 0.148742
0.055305 0.214943 0.197903
0.244784 0.278406 0.263892
0.409614 0.242975 0.202119
0.553836 0.170304 0.132266
0.626241 0.081348 0.063590
0.655253 0.038455 0.041579
0.667142 0.061288 0.062388
0.001398 0.209397 0.075205
0.000517 0.222619 0.086353
0.016070 0.279530 0.134237
0.116542 0.352352 0.243296
0.330661 0.340903 0.139907
0.566445 0.330282 0.101915
0.675659 0.269113 0.050024
0.747514 0.202019 0.052085
0.772794 0.146503 0.078433
0.002368 0.291389 0.044178
0.001933 0.303070 0.051174
0.001023 0.342306 0.094576
0.017772 0.394623 0.175442
0.049579 0.428963 0.159859
0.362188 0.375235 0.018265
0.686381 0.454231 0.030655
0.787174 0.419104 0.051079
0.850494 0.372414 0.086602
0.013045 0.387804 0.033408
0.013874 0.396580 0.038004
0.013531 0.424052 0.073376
0.007369 0.433854 0.121242
0.012169 0.439500 0.101921
0.003982 0.285633 0.025833
0.373821 0.416603 0.010082
0.764200 0.574185 0.071363
0.857430 0.577358 0.129358
0.042620 0.482659 0.047531
0.050138 0.492941 0.054696
0.056421 0.507760 0.084210
0.043320 0.510075 0.107101
0.041112 0.500279 0.084309
0.043153 0.502568 0.069882
0.004030 0.284949 0.029436
0.457188 0.527807 0.072763
0.807211 0.673691 0.221400
0.103017 0.573991 0.103031
0.114763 0.586361 0.114790
0.125155 0.596848 0.125962
0.121069 0.601668 0.135339
0.120266 0.600258 0.122898
0.122090 0.603760 0.122158
0.083978 0.532875 0.087486
0.032176 0.387542 0.053386
0.571499 0.648043 0.191537
0.025243 0.037597 0.339829
0.028957 0.036965 0.344890
0.070996 0.034764 0.344642
0.156824 0.026228 0.334941
0.293605 0.024377 0.321118
0.413103 0.023698 0.272530
0.494854 0.027282 0.213446
0.552520 0.032854 0.155847
0.598032 0.037452 0.106455
0.021684 0.045048 0.337736
0.024469 0.043758 0.345601
0.074472 0.043057 0.344407
0.171139 0.027079 0.326513
0.307532 0.016032 0.303485
0.435681 0.017054 0.259212
0.517543 0.027799 0.205657
0.570602 0.039533 0.155468
0.613411 0.046443 0.110752
0.013797 0.074474 0.313377
0.014130 0.076131 0.322712
0.066302 0.104717 0.350054
0.204099 0.101343 0.345323
0.353684 0.076619 0.322258
0.470488 0.009283 0.255976
0.554787 0.022247 0.214388
0.601267 0.045348 0.177479
0.635731 0.058429 0.134690
0.006184 0.130772 0.264926
0.004318 0.138725 0.276663
0.025024 0.191138 0.321424
0.227774 0.264551 0.371770
0.400975 0.260039 0.378657
0.558449 0.181850 0.318134
0.634561 0.087325 0.243454
0.668374 0.042864 0.193546
0.685372 0.067102 0.169970
0.001060 0.225363 0.204283
0.000330 0.238350 0.224294
0.014774 0.294062 0.284732
0.188694 0.378494 0.359767
0.400761 0.468217 0.455295
0.585938 0.416694 0.378410
0.709346 0.327565 0.289006
0.766031 0.218427 0.208819
0.775331 0.128646 0.164272
0.003542 0.311362 0.131229
0.002688 0.322120 0.144475
0.002764 0.367127 0.197660
0.045305 0.458500 0.289285
0.292844 0.544340 0.416125
0.501101 0.523174 0.290684
0.719326 0.516030 0.245274
0.802734 0.439569 0.159337
0.857580 0.345767 0.110194
0.016689 0.406902 0.081613
0.017674 0.414496 0.089950
0.018909 0.447683 0.138587
0.027150 0.499236 0.227760
0.057564 0.560702 0.347476
0.177830 0.601077 0.306189
0.524071 0.529717 0.038682
0.803783 0.613630 0.056868
0.881473 0.577439 0.094997
0.047353 0.491176 0.066241
0.056636 0.503543 0.083574
0.072339 0.534663 0.135632
0.063789 0.557432 0.207052
0.034678 0.568176 0.267333
0.047342 0.582433 0.221738
0.018766 0.395661 0.029673
0.523941 0.559112 0.033593
0.851332 0.701634 0.152439
0.107709 0.579246 0.107763
0.120143 0.592617 0.120275
0.137448 0.614936 0.151182
0.148642 0.640292 0.235932
0.095392 0.634880 0.246431
0.088792 0.619572 0.195043
0.090249 0.622059 0.156408
0.020438 0.381143 0.037527
0.600196 0.648599 0.123743
0.020337 0.028451 0.447799
0.021461 0.029488 0.452398
0.048783 0.029692 0.456709
0.119458 0.029100 0.457506
0.253513 0.027124 0.454009
0.409082 0.023887 0.445623
0.499792 0.026307 0.392162
0.558243 0.032354 0.330794
0.604738 0.037547 0.275361
0.021911 0.029114 0.443484
0.019397 0.026053 0.453116
0.052592 0.024157 0.452185
0.131663 0.021892 0.445934
0.272453 0.019019 0.437497
0.435213 0.016003 0.426261
0.523065 0.027412 0.372909
0.576873 0.039699 0.316983
0.620322 0.047278 0.267481
0.019284 0.036760 0.426680
0.015218 0.032105 0.430451
0.045514 0.060956 0.459621
0.154620 0.051061 0.456461
0.298438 0.017041 0.435144
0.468093 0.006354 0.420564
0.558607 0.021964 0.376243
0.608669 0.045732 0.332669
0.643854 0.059295 0.287570
0.014520 0.096705 0.402187
0.010504 0.095654 0.405258
0.018146 0.139511 0.444140
0.174892 0.209447 0.488571
0.377764 0.206686 0.492967
0.551021 0.174846 0.485724
0.632916 0.071581 0.426136
0.674365 0.042681 0.373930
0.693350 0.068231 0.333452
0.007890 0.214669 0.367288
0.005300 0.219617 0.377684
0.006767 0.264004 0.424757
0.061799 0.349859 0.482918
0.397119 0.436247 0.552856
0.576778 0.430851 0.561229
0.709285 0.340993 0.499489
0.770167 0.227121 0.433505
0.784722 0.139651 0.371685
0.004923 0.335377 0.322331
0.003675 0.344671 0.338616
0.003084 0.382256 0.387013
0.042173 0.471018 0.460453
0.360200 0.570126 0.540146
0.570912 0.647058 0.627519
0.711992 0.592330 0.550813
0.820005 0.499352 0.459892
0.870215 0.375816 0.379607
0.023131 0.434495 0.240378
0.024399 0.442341 0.255806
0.024729 0.474252 0.313081
0.031089 0.529411 0.379685
0.125950 0.630834 0.463245
0.462457 0.694135 0.575804
0.652717 0.673714 0.448196
0.818418 0.659449 0.409277
0.892715 0.595101 0.328535
0.062645 0.514712 0.177585
0.073173 0.526098 0.197422
0.089880 0.556741 0.254842
0.078110 0.584591 0.315768
0.069175 0.646799 0.412928
0.094888 0.704651 0.512463
0.363074 0.731110 0.453991
0.665522 0.660578 0.112581
0.884782 0.723067 0.198544
0.119936 0.592276 0.157554
0.133410 0.606159 0.179565
0.149530 0.631456 0.229718
0.164413 0.664189 0.308189
0.115359 0.685371 0.382355
0.051924 0.695065 0.433001
0.072080 0.707923 0.376590
0.044437 0.513397 0.054177
0.662213 0.676819 0.053737
0.023471 0.030999 0.523753
0.025340 0.032730 0.527633
0.035598 0.033792 0.530950
0.088792 0.034536 0.535555
0.206861 0.034146 0.536484
0.354242 0.032193 0.536537
0.490535 0.029227 0.534477
0.563854 0.031845 0.491071
0.610711 0.037560 0.436062
0.027469 0.034004 0.519292
0.026690 0.032700 0.527030
0.039147 0.032069 0.526592
0.099547 0.031756 0.526530
0.227980 0.030675 0.522790
0.385055 0.028465 0.520066
0.523432 0.026494 0.515064
0.582719 0.039810 0.464374
0.626546 0.047958 0.416145
0.028375 0.032691 0.501985
0.027345 0.030912 0.503409
0.040201 0.023149 0.526006
0.114630 0.022258 0.525447
0.252023 0.020515 0.514835
0.420560 0.018649 0.513865
0.559707 0.021544 0.510378
0.615051 0.045968 0.471227
0.650677 0.059997 0.429956
0.032598 0.051155 0.475820
0.031964 0.051091 0.475628
0.029061 0.080807 0.510511
0.126625 0.138303 0.573057
0.321578 0.132244 0.587019
0.499430 0.095128 0.582873
0.623550 0.040733 0.567566
0.679125 0.041650 0.526988
0.698452 0.067905 0.479426
0.032591 0.183478 0.498310
0.032094 0.187948 0.505731
0.022796 0.217682 0.534580
0.042489 0.289859 0.592754
0.337521 0.360223 0.640402
0.563622 0.357549 0.648569
0.703182 0.331792 0.648844
0.769489 0.219389 0.608182
0.785533 0.130203 0.546232
0.022014 0.331992 0.503437
0.022224 0.338044 0.514652
0.016505 0.364950 0.540701
0.031214 0.429659 0.587188
0.191802 0.528826 0.640720
0.557693 0.604612 0.707624
0.701140 0.595032 0.708475
0.814710 0.504295 0.648844
0.870049 0.382079 0.597423
0.033995 0.456865 0.453480
0.036195 0.464628 0.467843
0.035883 0.492174 0.508344
0.034012 0.537345 0.558525
0.090238 0.636803 0.626079
0.518930 0.707658 0.681223
0.691663 0.751936 0.726929
0.811077 0.702632 0.666328
0.898238 0.628672 0.596002
0.081418 0.543865 0.385913
0.093669 0.554993 0.407171
0.108001 0.581962 0.458739
0.086165 0.605762 0.500443
0.072468 0.670035 0.557754
0.295304 0.757770 0.607965
0.600623 0.791642 0.676501
0.758969 0.770381 0.568611
0.895994 0.761242 0.546029
0.145381 0.615689 0.326576
0.154970 0.627932 0.348147
0.167635 0.651646 0.395567
0.181136 0.683528 0.456050
0.127461 0.711237 0.491559
0.086440 0.766730 0.566749
0.134432 0.815778 0.641306
0.485557 0.825437 0.577264
0.754665 0.758114 0.274525
0.026007 0.033239 0.589360
0.027741 0.034792 0.592122
0.030249 0.035783 0.593135
0.067458 0.036644 0.595279
0.166059 0.037377 0.598310
0.297416 0.037281 0.599008
0.443580 0.036417 0.599155
0.552478 0.035053 0.594810
0.616146 0.037707 0.563425
0.030009 0.036109 0.581463
0.030663 0.036166 0.581806
0.033746 0.036189 0.578471
0.076960 0.036947 0.575823
0.184199 0.038307 0.574442
0.323043 0.039245 0.573552
0.474128 0.039063 0.575051
0.582359 0.039558 0.570919
0.632155 0.048693 0.534106
0.032673 0.036533 0.553287
0.034723 0.037823 0.546904
0.037771 0.036045 0.557510
0.099398 0.038047 0.559359
0.220401 0.040238 0.562065
0.372158 0.041402 0.568184
0.520306 0.041361 0.577253
0.616699 0.045915 0.571980
0.656582 0.060769 0.542021
0.041922 0.045784 0.513521
0.045713 0.049325 0.506732
0.044986 0.050625 0.521465
0.101632 0.065902 0.590059
0.260321 0.046582 0.608961
0.416108 0.031039 0.613538
0.569771 0.029870 0.622344
0.675384 0.037151 0.629249
0.700950 0.067398 0.587567
0.055440 0.115956 0.524525
0.059061 0.123691 0.532139
0.057377 0.151531 0.561184
0.062760 0.216916 0.630219
0.291622 0.274390 0.700920
0.511983 0.266856 0.721460
0.665915 0.231630 0.725856
0.761542 0.177794 0.720980
0.779190 0.102158 0.662720
0.051726 0.294642 0.599782
0.055705 0.302331 0.609249
0.052178 0.329631 0.633431
0.042208 0.370495 0.670704
0.088929 0.459203 0.725491
0.520256 0.522820 0.764004
0.701152 0.515480 0.770459
0.808362 0.483894 0.770230
0.868466 0.374227 0.740653
0.052700 0.447321 0.604030
0.059290 0.456544 0.615462
0.066919 0.483249 0.637425
0.057192 0.510403 0.663180
0.077254 0.588506 0.718560
0.391852 0.669459 0.761898
0.679423 0.709016 0.805423
0.803588 0.698022 0.800902
0.893202 0.629450 0.757855
0.105274 0.560802 0.573442
0.119877 0.571123 0.588820
0.131634 0.593591 0.619799
0.103232 0.612951 0.648153
0.080852 0.662708 0.693356
0.178729 0.757087 0.744305
0.637560 0.800962 0.771518
0.809403 0.824211 0.788751
0.897780 0.783705 0.751874
0.171283 0.635910 0.527840
0.177962 0.645743 0.544631
0.191022 0.666048 0.579732
0.204861 0.693942 0.623555
0.144821 0.717800 0.647497
0.101430 0.780438 0.689649
0.418615 0.848185 0.715868
0.667727 0.868666 0.770263
0.836354 0.852522 0.662122
0.027982 0.035020 0.640173
0.029498 0.036313 0.639973
0.030623 0.037074 0.638495
0.048996 0.037626 0.636258
0.129244 0.038564 0.637978
0.254851 0.039349 0.636986
0.403094 0.039659 0.634395
0.522090 0.039364 0.629471
0.612896 0.038696 0.622075
0.031521 0.037304 0.629909
0.031994 0.037176 0.624994
0.032763 0.037267 0.617952
0.056611 0.038107 0.609696
0.146639 0.040195 0.606312
0.278347 0.042423 0.603768
0.432419 0.043706 0.603824
0.553305 0.043999 0.603472
0.632117 0.049207 0.589052
0.034790 0.038291 0.599033
0.037042 0.039807 0.587862
0.039550 0.041603 0.585777
0.079656 0.044404 0.583343
0.190191 0.048225 0.586514
0.325445 0.051250 0.592878
0.479563 0.052486 0.602606
0.593000 0.052676 0.610313
0.656710 0.061185 0.599050
0.045153 0.046359 0.538579
0.049051 0.049764 0.528793
0.052671 0.053012 0.532358
0.081945 0.049194 0.571155
0.218039 0.051329 0.600103
0.353422 0.054143 0.614964
0.510775 0.056130 0.630905
0.626782 0.057671 0.644153
0.695439 0.065708 0.640402
0.058291 0.071049 0.531934
0.061565 0.074702 0.537599
0.065631 0.081566 0.548441
0.080532 0.132296 0.601919
0.246479 0.193666 0.700253
0.461030 0.175228 0.729163
0.606104 0.130846 0.736773
0.701828 0.083533 0.728238
0.771220 0.087612 0.721878
0.073876 0.234884 0.619439
0.077811 0.242619 0.627909
0.082480 0.265318 0.647113
0.083872 0.304801 0.684182
0.102675 0.381317 0.750860
0.475108 0.432023 0.805480
0.673280 0.425308 0.817904
0.784717 0.395889 0.820105
0.863296 0.346694 0.816060
0.063199 0.409141 0.690590
0.069919 0.418460 0.700165
0.077493 0.446646 0.722435
0.078995 0.483614 0.749245
0.084959 0.531854 0.776604
0.257100 0.618404 0.825945
0.661219 0.650370 0.839963
0.795026 0.643107 0.841398
0.888899 0.616831 0.841276
0.112580 0.549416 0.681089
0.125943 0.559558 0.692004
0.147903 0.582660 0.712117
0.158636 0.607783 0.735910
0.125260 0.627610 0.762103
0.130495 0.708000 0.815565
0.545739 0.769619 0.841337
0.776079 0.792458 0.851287
0.891213 0.780956 0.846607
0.193250 0.643709 0.665258
0.200971 0.652168 0.677204
0.215582 0.669735 0.699561
0.231722 0.695698 0.730450
0.167698 0.715967 0.758617
0.112500 0.768425 0.804697
0.310129 0.848851 0.836617
0.704487 0.875181 0.837528
0.873584 0.881682 0.835495
