apps/filmtone-desktop-macos/FilmtoneDesktop/Resources/CreativeLuts/filmtone-creative-pack-01-urban.cube
TITLE "Filmtone Urban"
# pack=creative-pack-01
# slug=filmtone-creative-pack-01-urban
# bakerVersion=1.4.0-stone-urban-distinct
# generator=filmtone-urban-palermo-green-density-v1
LUT_3D_SIZE 9
DOMAIN_MIN 0.0 0.0 0.0
DOMAIN_MAX 1.0 1.0 1.0
0.054155 0.067368 0.072306
0.080241 0.067689 0.069519
0.121049 0.064418 0.062333
0.194422 0.051607 0.041492
0.287276 0.042041 0.029141
0.399285 0.029714 0.027381
0.487562 0.022858 0.025144
0.563622 0.020488 0.022537
0.627251 0.017881 0.019669
0.044746 0.083972 0.072493
0.068819 0.083477 0.066151
0.120810 0.073834 0.057941
0.202137 0.055065 0.035659
0.291564 0.035141 0.021518
0.411097 0.021379 0.018582
0.504984 0.014121 0.015533
0.584725 0.011345 0.012479
0.649894 0.008663 0.009529
0.022198 0.101117 0.061315
0.018129 0.099755 0.054285
0.083847 0.097953 0.049304
0.209584 0.086974 0.031346
0.316802 0.058891 0.011388
0.415991 0.020577 0.008502
0.509967 0.005335 0.005869
0.598064 0.003268 0.003595
0.667575 0.001627 0.001789
0.008466 0.129970 0.041008
0.006564 0.127207 0.036149
0.004867 0.121726 0.033327
0.102741 0.121165 0.032153
0.326747 0.125222 0.003807
0.476906 0.099590 0.002544
0.562198 0.044671 0.000308
0.604379 0.000000 0.000000
0.671305 0.000000 0.000000
0.002654 0.186031 0.030706
0.001418 0.180952 0.028353
0.000529 0.181057 0.026820
0.000058 0.132104 0.024425
0.133272 0.172503 0.023804
0.464134 0.213581 0.003021
0.617166 0.190051 0.006592
0.691157 0.132403 0.008957
0.725795 0.048188 0.004135
0.000003 0.264520 0.026221
0.000000 0.259754 0.026337
0.000000 0.259709 0.026352
0.000000 0.253956 0.026490
0.000000 0.156893 0.024903
0.190448 0.252430 0.005798
0.585672 0.322652 0.007248
0.723873 0.312032 0.013703
0.793317 0.263523 0.018952
0.000000 0.356695 0.021179
0.000000 0.352132 0.021607
0.000000 0.349950 0.021805
0.000000 0.350820 0.021729
0.000000 0.336309 0.022858
0.000000 0.210834 0.027054
0.267933 0.355108 0.003311
0.680690 0.443030 0.011902
0.809247 0.441337 0.019684
0.000000 0.442008 0.008148
0.000000 0.438148 0.008896
0.000000 0.434806 0.009552
0.000000 0.436881 0.009140
0.000000 0.430991 0.010300
0.000000 0.375555 0.019165
0.000000 0.280613 0.025620
0.349081 0.468132 0.006271
0.756985 0.560632 0.016266
0.001068 0.520882 0.001099
0.000855 0.517388 0.000870
0.000626 0.513329 0.000626
0.000656 0.513954 0.000656
0.000671 0.514290 0.000671
0.000275 0.507118 0.000290
0.000000 0.389258 0.017578
0.000000 0.356588 0.021073
0.436408 0.572045 0.010529
0.052728 0.068040 0.093385
0.078253 0.068619 0.092873
0.122117 0.066117 0.078184
0.199621 0.053172 0.052557
0.291068 0.041064 0.028604
0.402367 0.028640 0.026670
0.489645 0.022086 0.024295
0.564396 0.019625 0.021587
0.628942 0.016959 0.018655
0.043758 0.085722 0.088711
0.076968 0.091793 0.092986
0.130075 0.081164 0.074843
0.215838 0.058970 0.046291
0.303594 0.034069 0.020540
0.418123 0.019361 0.017554
0.510594 0.013174 0.014491
0.587860 0.010419 0.011460
0.652443 0.007791 0.008570
0.021113 0.102457 0.065886
0.036640 0.109987 0.078185
0.098279 0.109989 0.058743
0.224309 0.097292 0.040930
0.332632 0.066419 0.010402
0.429953 0.024388 0.007574
0.514723 0.004592 0.005051
0.601257 0.002658 0.002924
0.670668 0.001184 0.001302
0.007811 0.133643 0.042308
0.005941 0.136876 0.046715
0.007269 0.147863 0.041027
0.117732 0.133878 0.030970
0.346876 0.142980 0.003288
0.491135 0.111698 0.002651
0.574757 0.056748 0.000604
0.610605 0.000015 0.000000
0.674098 0.000000 0.000000
0.002200 0.192232 0.030363
0.001073 0.193049 0.030357
0.000319 0.189804 0.026997
0.000005 0.136728 0.024377
0.141649 0.181506 0.022263
0.475914 0.231083 0.003479
0.626520 0.208698 0.007340
0.697871 0.145129 0.009552
0.735775 0.064164 0.006592
0.000000 0.272953 0.025971
0.000000 0.272145 0.026291
0.000000 0.262181 0.026276
0.000000 0.261051 0.026307
0.000000 0.159930 0.025025
0.199069 0.259174 0.004669
0.592248 0.336904 0.007584
0.729946 0.329030 0.014176
0.799619 0.280400 0.019684
0.000000 0.365225 0.020325
0.000000 0.363928 0.020462
0.000000 0.354330 0.021408
0.000000 0.347341 0.022019
0.000000 0.336675 0.022828
0.000000 0.212497 0.027085
0.277455 0.363180 0.003494
0.686900 0.457740 0.012268
0.814572 0.459449 0.019974
0.000000 0.449851 0.006744
0.000000 0.448478 0.006989
0.000000 0.440818 0.008392
0.000000 0.433433 0.009827
0.000000 0.431861 0.010132
0.000000 0.379217 0.018753
0.000000 0.282353 0.025589
0.359030 0.476219 0.006546
0.762371 0.572381 0.016617
0.001572 0.528634 0.001587
0.001480 0.527169 0.001495
0.001038 0.520394 0.001053
0.000595 0.512947 0.000610
0.000519 0.511391 0.000519
0.000488 0.510704 0.000504
0.000000 0.395331 0.016846
0.000000 0.358465 0.020920
0.446891 0.578988 0.010880
0.046246 0.065995 0.135525
0.065744 0.066865 0.137695
0.117191 0.065767 0.130174
0.202172 0.053784 0.095909
0.300334 0.036017 0.056908
0.408770 0.023552 0.025907
0.494896 0.021279 0.023407
0.567374 0.018737 0.020611
0.631734 0.016025 0.017628
0.036155 0.081213 0.130840
0.065761 0.086825 0.137549
0.125954 0.083233 0.130403
0.219374 0.060999 0.092848
0.313758 0.028721 0.045802
0.427391 0.015015 0.016517
0.517287 0.012230 0.013453
0.591678 0.009507 0.010458
0.656295 0.006946 0.007640
0.018349 0.104991 0.104638
0.046025 0.116649 0.115843
0.124956 0.142895 0.136479
0.244237 0.120760 0.101465
0.358419 0.081229 0.052408
0.461238 0.028289 0.006821
0.535401 0.003890 0.004278
0.616385 0.002101 0.002311
0.682238 0.000805 0.000885
0.007165 0.138884 0.059566
0.006940 0.154717 0.068622
0.042286 0.195958 0.117349
0.183070 0.193700 0.072505
0.380762 0.176680 0.041959
0.518899 0.131519 0.011599
0.604466 0.081020 0.004085
0.639994 0.002502 0.000000
0.687678 0.000000 0.000000
0.001780 0.196668 0.033066
0.000772 0.209206 0.042098
0.001425 0.238131 0.075787
0.016739 0.262486 0.071473
0.218631 0.234134 0.012619
0.528908 0.283207 0.010346
0.652323 0.246296 0.011948
0.723720 0.181811 0.012863
0.764767 0.102586 0.012619
0.000000 0.278248 0.026001
0.000000 0.286625 0.030823
0.000000 0.300160 0.048539
0.000000 0.303090 0.042847
0.000015 0.196979 0.026474
0.241382 0.280598 0.002441
0.633692 0.385672 0.009583
0.754879 0.373205 0.016419
0.820127 0.317525 0.022095
0.000000 0.370932 0.019684
0.000000 0.375906 0.019822
0.000000 0.373617 0.025818
0.000000 0.364706 0.020920
0.000000 0.369574 0.019989
0.000000 0.215183 0.027100
0.298146 0.370703 0.003738
0.713893 0.494285 0.013748
0.834653 0.498833 0.021683
0.000000 0.455573 0.005737
0.000000 0.458793 0.005203
0.000000 0.455207 0.006683
0.000000 0.442512 0.008087
0.000000 0.443122 0.007950
0.000000 0.382040 0.018418
0.000000 0.283589 0.025589
0.373709 0.484398 0.006851
0.775601 0.589837 0.017410
0.001999 0.534829 0.002014
0.002136 0.537148 0.002167
0.001892 0.533669 0.001923
0.001221 0.523110 0.001236
0.000595 0.512795 0.000595
0.001160 0.522271 0.001175
0.000000 0.399176 0.016373
0.000000 0.359762 0.020844
0.458198 0.586542 0.011261
0.036364 0.058762 0.225098
0.048003 0.058786 0.229071
0.092429 0.058841 0.227303
0.194801 0.047051 0.205605
0.300776 0.032624 0.153536
0.411529 0.022816 0.101650
0.501146 0.020441 0.053351
0.575566 0.017831 0.021543
0.637295 0.015083 0.016591
0.027860 0.069349 0.221037
0.043405 0.071432 0.231923
0.099563 0.069700 0.228282
0.211951 0.056104 0.203010
0.314614 0.024699 0.142270
0.431692 0.014068 0.092106
0.523752 0.011293 0.044488
0.599815 0.008614 0.012402
0.662806 0.006130 0.006743
0.015885 0.096928 0.187384
0.022835 0.104401 0.201079
0.102028 0.134219 0.227448
0.238377 0.128388 0.221781
0.361659 0.085945 0.158868
0.468001 0.012602 0.087902
0.557355 0.003233 0.047346
0.630597 0.001601 0.012122
0.690819 0.000494 0.000636
0.006529 0.146368 0.132175
0.006152 0.162697 0.148742
0.055305 0.214943 0.197903
0.244784 0.278406 0.263892
0.409614 0.242975 0.202119
0.553836 0.170304 0.132266
0.628275 0.076234 0.058244
0.679194 0.007385 0.010788
0.722423 0.000015 0.001328
0.001398 0.209397 0.075205
0.000516 0.222618 0.086352
0.016070 0.279530 0.134237
0.116542 0.352352 0.243296
0.330661 0.340903 0.139907
0.566445 0.330282 0.101915
0.672755 0.266209 0.047120
0.741314 0.183215 0.029816
0.782849 0.097017 0.022476
0.000000 0.289021 0.041810
0.000000 0.301137 0.049241
0.000092 0.341375 0.093645
0.016953 0.394903 0.175082
0.049241 0.429084 0.159655
0.362188 0.375235 0.018265
0.683970 0.451820 0.028244
0.779904 0.404868 0.029877
0.840513 0.334936 0.032685
0.000000 0.375463 0.020401
0.000000 0.384070 0.024216
0.000000 0.415549 0.060578
0.000015 0.432578 0.115511
0.004501 0.437797 0.095506
0.003388 0.285039 0.025238
0.370611 0.413611 0.005020
0.761654 0.558373 0.020447
0.862272 0.541588 0.028626
0.000000 0.459358 0.005127
0.000000 0.465461 0.004791
0.000153 0.479957 0.029694
0.001541 0.492988 0.068696
0.000443 0.478920 0.045457
0.000122 0.477195 0.027878
0.000000 0.280919 0.025406
0.424186 0.500725 0.007538
0.814832 0.633738 0.020295
0.002274 0.538888 0.002289
0.002640 0.544350 0.002670
0.002838 0.546853 0.003769
0.003738 0.551568 0.020005
0.002625 0.542443 0.005585
0.002411 0.541070 0.002487
0.000000 0.468574 0.003662
0.000000 0.355367 0.021210
0.496559 0.594247 0.011643
0.025361 0.037720 0.340072
0.028908 0.036920 0.345007
0.070857 0.034614 0.344582
0.156602 0.026005 0.334721
0.293436 0.024208 0.320949
0.412495 0.022042 0.271543
0.503561 0.019576 0.212275
0.578957 0.016908 0.149932
0.641968 0.014136 0.091418
0.021256 0.044626 0.337388
0.024311 0.043602 0.345479
0.074349 0.042933 0.344293
0.170999 0.026939 0.326373
0.307405 0.015906 0.303359
0.433939 0.013121 0.256547
0.526415 0.010368 0.197778
0.603423 0.007744 0.137783
0.667829 0.005348 0.080491
0.013154 0.073831 0.312734
0.013900 0.075900 0.322482
0.066302 0.104717 0.350054
0.204099 0.101343 0.345323
0.353684 0.076619 0.322258
0.469726 0.006779 0.254404
0.562480 0.002626 0.204622
0.636234 0.001161 0.152105
0.695783 0.000256 0.092134
0.005907 0.130496 0.264649
0.004180 0.138587 0.276525
0.025024 0.191138 0.321424
0.227774 0.264551 0.371770
0.400975 0.260039 0.378657
0.558449 0.181850 0.318134
0.636179 0.082414 0.240406
0.691752 0.011383 0.175280
0.743008 0.004364 0.127260
0.001056 0.225358 0.204278
0.000309 0.238329 0.224272
0.014774 0.294062 0.284732
0.188694 0.378494 0.359767
0.400761 0.468217 0.455295
0.585938 0.416694 0.378410
0.709346 0.327565 0.289006
0.768307 0.213504 0.203769
0.804211 0.093477 0.132631
0.000000 0.307820 0.127687
0.000000 0.319432 0.141787
0.001312 0.366033 0.196399
0.043626 0.459037 0.288914
0.292844 0.544340 0.416125
0.501101 0.523174 0.290684
0.719326 0.516030 0.245274
0.799924 0.436759 0.156527
0.849714 0.323156 0.080797
0.000000 0.393164 0.065415
0.000000 0.400793 0.072999
0.000031 0.439078 0.122576
0.011978 0.499901 0.219318
0.043442 0.565240 0.344106
0.176272 0.601633 0.305272
0.524071 0.529717 0.038682
0.801099 0.610620 0.052903
0.879332 0.557977 0.048051
0.000000 0.466850 0.019867
0.000061 0.474968 0.028687
0.002304 0.507439 0.071458
0.005005 0.543511 0.161288
0.009384 0.567514 0.252781
0.024994 0.579934 0.205859
0.014038 0.391058 0.024949
0.516655 0.552819 0.012467
0.860319 0.683238 0.033585
0.002472 0.542123 0.002533
0.002930 0.548577 0.003082
0.004990 0.567834 0.021179
0.009201 0.599466 0.114000
0.010483 0.610666 0.178515
0.008347 0.588891 0.124559
0.011078 0.589166 0.082994
0.001007 0.361730 0.018097
0.564034 0.620005 0.013092
0.019600 0.028000 0.462137
0.019433 0.027762 0.466542
0.046646 0.026875 0.469105
0.118579 0.025426 0.467088
0.254447 0.023512 0.458967
0.409572 0.021233 0.446412
0.507295 0.018688 0.396228
0.582980 0.015973 0.337747
0.647154 0.013189 0.279000
0.017344 0.024778 0.452362
0.015931 0.022720 0.458261
0.049278 0.020332 0.456041
0.129053 0.017714 0.447813
0.270528 0.014963 0.436960
0.432931 0.012178 0.423946
0.530551 0.009457 0.372688
0.607536 0.006900 0.316943
0.672636 0.004604 0.261308
0.011706 0.029586 0.428505
0.009763 0.026918 0.431576
0.044225 0.059729 0.459969
0.153584 0.049747 0.456235
0.297307 0.015336 0.434291
0.467046 0.003852 0.419368
0.564776 0.002072 0.373556
0.641079 0.000786 0.327152
0.700389 0.000093 0.273564
0.005301 0.088232 0.396487
0.003637 0.089594 0.402129
0.015474 0.137738 0.444622
0.174886 0.209445 0.488605
0.377764 0.206686 0.492967
0.551021 0.174846 0.485724
0.634318 0.066285 0.425071
0.695811 0.010773 0.370001
0.747494 0.004456 0.319707
0.000757 0.207536 0.360155
0.000152 0.214469 0.372536
0.005005 0.262242 0.422995
0.061799 0.349859 0.482918
0.397119 0.436247 0.552856
0.576778 0.430851 0.561229
0.709285 0.340993 0.499489
0.771695 0.222522 0.431235
0.810559 0.104585 0.358526
0.000000 0.330480 0.317433
0.000000 0.341192 0.335134
0.000534 0.381186 0.385962
0.040391 0.471504 0.460883
0.360200 0.570126 0.540146
0.570912 0.647058 0.627519
0.711992 0.592330 0.550813
0.820005 0.499352 0.459892
0.870878 0.371435 0.375265
0.000015 0.419867 0.221744
0.000061 0.427726 0.236851
0.001358 0.465461 0.299062
0.017182 0.529198 0.375357
0.119387 0.632868 0.462425
0.462457 0.694135 0.575804
0.652717 0.673714 0.448196
0.818418 0.659449 0.409277
0.889311 0.591669 0.325078
0.001907 0.491569 0.126406
0.002304 0.498634 0.138460
0.004349 0.531762 0.190707
0.007797 0.573434 0.273213
0.037446 0.649149 0.401480
0.083452 0.708171 0.511269
0.363043 0.731121 0.453971
0.665522 0.660578 0.112581
0.885130 0.719203 0.181018
0.004883 0.555718 0.048753
0.005661 0.563012 0.060075
0.008301 0.589807 0.105058
0.012909 0.630472 0.190570
0.019531 0.669825 0.324132
0.028306 0.691432 0.421225
0.049882 0.703853 0.363073
0.033219 0.504891 0.043015
0.655879 0.671031 0.024628
0.019594 0.027991 0.577694
0.019271 0.027530 0.580653
0.028457 0.026441 0.581270
0.085149 0.024823 0.581890
0.211852 0.022774 0.572702
0.366078 0.020394 0.561751
0.504273 0.017780 0.550614
0.587139 0.015031 0.508870
0.651537 0.012245 0.456734
0.016885 0.024122 0.561474
0.015359 0.021941 0.563414
0.027199 0.019464 0.559893
0.090663 0.016789 0.555953
0.226276 0.014016 0.543431
0.388475 0.011242 0.531302
0.528455 0.008565 0.519701
0.611337 0.006086 0.479402
0.676524 0.003901 0.431927
0.011050 0.015786 0.530802
0.009100 0.013001 0.529579
0.028630 0.010586 0.542694
0.105217 0.007711 0.538868
0.246908 0.005251 0.521243
0.418214 0.003198 0.514562
0.564125 0.001575 0.512560
0.644888 0.000479 0.482026
0.703477 0.000010 0.440611
0.004714 0.025442 0.499801
0.003122 0.024571 0.500668
0.007835 0.064229 0.532535
0.123484 0.135420 0.579781
0.320207 0.129582 0.587458
0.498466 0.091676 0.582422
0.624872 0.034745 0.568185
0.698924 0.009293 0.534340
0.748837 0.003189 0.489830
0.000503 0.159489 0.491220
0.000049 0.164272 0.499120
0.000198 0.203372 0.533745
0.034745 0.287297 0.596536
0.337514 0.360220 0.640452
0.563622 0.357549 0.648569
0.703182 0.331792 0.648844
0.770672 0.214603 0.607614
0.810162 0.093263 0.548379
0.000000 0.309987 0.481437
0.000000 0.315984 0.492683
0.000000 0.351415 0.528664
0.022385 0.427832 0.588129
0.191577 0.528878 0.640864
0.557693 0.604612 0.707624
0.701140 0.595032 0.708475
0.814710 0.504295 0.648844
0.869963 0.377966 0.595087
0.001007 0.443259 0.439719
0.001328 0.450599 0.453971
0.002884 0.483818 0.500862
0.014588 0.537850 0.559869
0.081544 0.639170 0.628229
0.518930 0.707658 0.681223
0.691663 0.751936 0.726929
0.811077 0.702632 0.666328
0.898238 0.628672 0.596002
0.004242 0.523278 0.345998
0.004669 0.530159 0.361776
0.006683 0.559853 0.416037
0.009644 0.595560 0.476799
0.043824 0.671168 0.553292
0.293843 0.758221 0.607797
0.600623 0.791642 0.676501
0.758969 0.770381 0.568611
0.895994 0.761242 0.546029
0.008316 0.585733 0.230777
0.008927 0.592889 0.247440
0.011200 0.618387 0.297139
0.015732 0.656367 0.366293
0.025879 0.699367 0.445930
0.061387 0.765255 0.558343
0.134432 0.815778 0.641306
0.485557 0.825437 0.577264
0.754665 0.758114 0.274525
0.019538 0.027911 0.671779
0.019058 0.027225 0.672842
0.019537 0.025946 0.671490
0.059744 0.024171 0.669071
0.169107 0.021998 0.663254
0.312701 0.019527 0.652597
0.469311 0.016856 0.642191
0.582422 0.014084 0.628920
0.655994 0.011309 0.597235
0.016394 0.023420 0.651545
0.014790 0.021128 0.649628
0.015756 0.018573 0.643671
0.062012 0.015854 0.637504
0.180512 0.013069 0.628400
0.332370 0.010317 0.616645
0.493558 0.007696 0.606265
0.607322 0.005306 0.594634
0.680423 0.003243 0.566625
0.010390 0.014842 0.610894
0.008440 0.012058 0.606135
0.011334 0.009342 0.611101
0.077609 0.006794 0.608521
0.210832 0.004512 0.602103
0.375491 0.002594 0.596493
0.531838 0.001138 0.594938
0.643012 0.000245 0.592653
0.706462 0.000000 0.570626
0.004149 0.008872 0.580921
0.002636 0.007153 0.579154
0.001676 0.008704 0.595515
0.081913 0.041851 0.629578
0.252655 0.020022 0.632115
0.417365 0.002106 0.630274
0.577066 0.000244 0.633234
0.692912 0.004318 0.643137
0.747738 0.001938 0.614267
0.000299 0.074524 0.575649
0.000003 0.079549 0.582270
0.000000 0.113634 0.608042
0.026001 0.199481 0.664591
0.289174 0.271397 0.711406
0.511635 0.264027 0.723232
0.665278 0.228260 0.725597
0.763058 0.171893 0.721981
0.804959 0.061128 0.676997
0.000000 0.264836 0.597513
0.000000 0.270146 0.606332
0.000015 0.301793 0.632227
0.009430 0.356603 0.674083
0.080140 0.457115 0.728222
0.520256 0.522820 0.764004
0.701152 0.515480 0.770459
0.808362 0.483894 0.770230
0.868040 0.369802 0.739193
0.001541 0.422141 0.589166
0.001831 0.428199 0.598764
0.003220 0.459068 0.627878
0.005890 0.499199 0.665492
0.048997 0.590478 0.728222
0.391852 0.669459 0.761898
0.679423 0.709016 0.805423
0.803588 0.698022 0.800902
0.893202 0.629450 0.757855
0.006302 0.543008 0.557900
0.006760 0.548730 0.569986
0.008759 0.574121 0.606195
0.011505 0.605402 0.646418
0.036667 0.667063 0.700267
0.165499 0.760693 0.747539
0.637560 0.800962 0.771518
0.809403 0.824211 0.788751
0.897780 0.783705 0.751874
0.010971 0.613275 0.473182
0.011505 0.619318 0.487938
0.013520 0.640482 0.526558
0.017319 0.673304 0.578897
0.025681 0.710552 0.626520
0.067994 0.781491 0.686091
0.418555 0.848203 0.715862
0.667727 0.868666 0.770263
0.836354 0.852522 0.662122
0.019426 0.027751 0.743501
0.018797 0.026853 0.740387
0.017776 0.025394 0.735603
0.036861 0.023472 0.728372
0.127170 0.021188 0.721754
0.267678 0.018638 0.709283
0.430891 0.015921 0.694990
0.558838 0.013137 0.680227
0.653317 0.010383 0.663595
0.015874 0.022678 0.719865
0.014199 0.020285 0.710622
0.012364 0.017663 0.700967
0.036758 0.014910 0.689778
0.137749 0.012126 0.680245
0.285738 0.009407 0.666894
0.455593 0.006854 0.653467
0.583924 0.004564 0.640992
0.677884 0.002635 0.627997
0.009727 0.013895 0.681643
0.007786 0.011123 0.672444
0.005961 0.008453 0.669064
0.048867 0.005984 0.661576
0.175526 0.003814 0.654893
0.328887 0.002043 0.647672
0.498621 0.000767 0.642055
0.617795 0.000086 0.637588
0.702739 0.000000 0.634699
0.003608 0.005154 0.636290
0.002183 0.003118 0.632374
0.001061 0.001516 0.639463
0.041474 0.000445 0.654340
0.199022 0.000006 0.655127
0.350942 0.000000 0.657633
0.523903 0.000000 0.662333
0.647868 0.000000 0.667643
0.736996 0.000031 0.672587
0.000145 0.017221 0.634070
0.000000 0.017655 0.639735
0.000000 0.021607 0.654658
0.016922 0.084581 0.698405
0.229068 0.168841 0.746548
0.461128 0.147662 0.755215
0.612924 0.099779 0.754009
0.716396 0.045869 0.745037
0.796521 0.043915 0.742199
0.000000 0.197833 0.670344
0.000000 0.203174 0.678157
0.000092 0.225788 0.697078
0.005921 0.272526 0.730343
0.056352 0.367117 0.779263
0.474144 0.430259 0.810651
0.672892 0.423636 0.818265
0.783337 0.393698 0.818799
0.862928 0.341085 0.815213
0.002106 0.379919 0.687297
0.002380 0.385519 0.695186
0.003418 0.411399 0.716197
0.005280 0.452201 0.745602
0.026856 0.518227 0.787335
0.250706 0.615351 0.824811
0.661219 0.650370 0.839963
0.795026 0.643107 0.841398
0.888899 0.616831 0.841276
0.006928 0.525917 0.682353
0.007355 0.531151 0.691142
0.009003 0.553124 0.715145
0.011551 0.583627 0.746822
0.018235 0.617761 0.778271
0.082338 0.712825 0.830259
0.545739 0.769619 0.841337
0.776079 0.792458 0.851287
0.891213 0.780956 0.846607
0.013168 0.625299 0.654582
0.013733 0.630533 0.664759
0.015580 0.648722 0.690303
0.019196 0.679881 0.729366
0.025925 0.713252 0.766720
0.058869 0.774105 0.813657
0.305791 0.850034 0.837674
0.704487 0.875181 0.837528
0.873584 0.881682 0.835495
