apps/filmtone-desktop-macos/FilmtoneDesktop/Resources/CreativeLuts/filmtone-creative-pack-01-urban.cube
TITLE "Filmtone Urban"
# pack=creative-pack-01
# slug=filmtone-creative-pack-01-urban
# bakerVersion=1.4.0-stone-urban-distinct
# generator=filmtone-urban-palermo-green-density-v1
LUT_3D_SIZE 65
DOMAIN_MIN 0.0 0.0 0.0
DOMAIN_MAX 1.0 1.0 1.0
0.054155 0.067368 0.072306
0.056982 0.067429 0.072059
0.059809 0.067460 0.071829
0.063010 0.067475 0.071600
0.066224 0.067551 0.071300
0.069518 0.067628 0.070912
0.072946 0.067704 0.070506
0.076466 0.067735 0.070065
0.080241 0.067689 0.069519
0.084108 0.067582 0.068866
0.087962 0.067445 0.068143
0.092017 0.067231 0.067419
0.096244 0.066956 0.066696
0.100979 0.066575 0.065920
0.107340 0.065964 0.064827
0.114022 0.065278 0.063627
0.121049 0.064418 0.062333
0.129009 0.063333 0.060707
0.137835 0.062115 0.058821
0.147252 0.060749 0.056639
0.156685 0.059311 0.054216
0.166191 0.057694 0.051324
0.175664 0.055808 0.048068
0.185024 0.053713 0.044802
0.194422 0.051607 0.041492
0.203884 0.049599 0.038051
0.213639 0.047902 0.034672
0.224253 0.046713 0.031866
0.235740 0.045806 0.030265
0.247864 0.044874 0.029691
0.260291 0.043918 0.029494
0.273347 0.042984 0.029322
0.287276 0.042041 0.029141
0.301665 0.041120 0.028951
0.316180 0.040222 0.028752
0.330566 0.038996 0.028544
0.344934 0.037639 0.028328
0.359175 0.036291 0.028103
0.373063 0.034523 0.027870
0.386406 0.032244 0.027630
0.399285 0.029714 0.027381
0.411889 0.027238 0.027126
0.423866 0.025367 0.026863
0.435256 0.024358 0.026593
0.446110 0.023939 0.026316
0.456617 0.023666 0.026032
0.466956 0.023402 0.025742
0.477248 0.023133 0.025446
0.487562 0.022858 0.025144
0.497720 0.022578 0.024836
0.507790 0.022293 0.024523
0.517663 0.022003 0.024204
0.527187 0.021709 0.023880
0.536579 0.021410 0.023551
0.545758 0.021107 0.023217
0.554861 0.020799 0.022879
0.563622 0.020488 0.022537
0.572071 0.020173 0.022191
0.580258 0.019855 0.021840
0.588324 0.019533 0.021486
0.596350 0.019208 0.021129
0.604281 0.018880 0.020768
0.612156 0.018550 0.020405
0.619964 0.018217 0.020038
0.627251 0.017881 0.019669
0.053288 0.069154 0.072729
0.055835 0.069123 0.071847
0.059262 0.068696 0.071600
0.062703 0.068345 0.071424
0.066117 0.068055 0.071212
0.069571 0.067796 0.070877
0.073079 0.067704 0.070489
0.076613 0.067735 0.070048
0.080401 0.067689 0.069483
0.084295 0.067582 0.068831
0.088162 0.067445 0.068107
0.092230 0.067231 0.067384
0.096497 0.066940 0.066660
0.101349 0.066534 0.065837
0.107773 0.065903 0.064700
0.114462 0.065154 0.063460
0.121565 0.064242 0.062102
0.129591 0.063120 0.060413
0.138487 0.061851 0.058466
0.147991 0.060433 0.056225
0.157435 0.058960 0.053727
0.166995 0.057294 0.050743
0.176525 0.055328 0.047417
0.185933 0.053184 0.044117
0.195394 0.051047 0.040740
0.204883 0.049007 0.037251
0.214776 0.047339 0.033862
0.225545 0.046166 0.031168
0.237195 0.045214 0.029660
0.249391 0.044253 0.029108
0.261923 0.043283 0.028880
0.275141 0.042321 0.028677
0.289239 0.041351 0.028466
0.303640 0.040419 0.028247
0.318211 0.039465 0.028019
0.332725 0.038198 0.027784
0.347154 0.036786 0.027540
0.361473 0.035429 0.027289
0.375372 0.033576 0.027031
0.388725 0.031214 0.026765
0.401698 0.028631 0.026492
0.414328 0.026180 0.026213
0.426303 0.024379 0.025927
0.437701 0.023457 0.025635
0.448603 0.023049 0.025337
0.459159 0.022757 0.025032
0.469532 0.022475 0.024723
0.479928 0.022188 0.024407
0.490304 0.021897 0.024086
0.500552 0.021601 0.023761
0.510643 0.021300 0.023430
0.520564 0.020995 0.023095
0.530161 0.020687 0.022755
0.539612 0.020374 0.022411
0.548835 0.020058 0.022064
0.557980 0.019738 0.021712
0.566796 0.019415 0.021357
0.575268 0.019089 0.020998
0.583463 0.018760 0.020636
0.591605 0.018429 0.020272
0.599679 0.018095 0.019904
0.607683 0.017759 0.019534
0.615603 0.017420 0.019162
0.623425 0.017080 0.018788
0.630399 0.016738 0.018412
0.052354 0.071030 0.073029
0.052207 0.071198 0.072482
0.057435 0.071000 0.071406
0.061703 0.070451 0.071088
0.065344 0.070069 0.070894
0.068931 0.069703 0.070630
0.072599 0.069321 0.070277
0.076306 0.069016 0.069907
0.080267 0.068650 0.069413
0.084241 0.068235 0.068792
0.088183 0.067749 0.068069
0.092310 0.067175 0.067314
0.096541 0.066849 0.066546
0.101451 0.066406 0.065675
0.107843 0.065738 0.064492
0.114543 0.064953 0.063208
0.121659 0.064005 0.061789
0.129743 0.062833 0.060059
0.138609 0.061530 0.058072
0.148139 0.060094 0.055793
0.157599 0.058588 0.053259
0.167219 0.056859 0.050207
0.176731 0.054877 0.046866
0.186165 0.052702 0.043537
0.195653 0.050534 0.040133
0.205173 0.048465 0.036618
0.215115 0.046768 0.033204
0.225978 0.045582 0.030486
0.237686 0.044602 0.028986
0.249946 0.043614 0.028422
0.262599 0.042618 0.028165
0.275958 0.041615 0.027934
0.290135 0.040636 0.027696
0.304660 0.039664 0.027450
0.319372 0.038686 0.027196
0.333961 0.037380 0.026935
0.348456 0.035961 0.026667
0.362978 0.034567 0.026392
0.376916 0.032663 0.026110
0.390323 0.030249 0.025822
0.403417 0.027647 0.025527
0.416100 0.025176 0.025227
0.428153 0.023403 0.024920
0.439642 0.022509 0.024608
0.450593 0.022083 0.024291
0.461251 0.021790 0.023968
0.471739 0.021492 0.023641
0.482209 0.021190 0.023309
0.492689 0.020883 0.022972
0.502997 0.020573 0.022631
0.513176 0.020259 0.022285
0.523198 0.019942 0.021936
0.532851 0.019621 0.021583
0.542359 0.019297 0.021227
0.551677 0.018970 0.020867
0.560875 0.018640 0.020504
0.569686 0.018308 0.020138
0.578178 0.017973 0.019770
0.586447 0.017636 0.019399
0.594647 0.017296 0.019026
0.602764 0.016956 0.018651
0.610795 0.016613 0.018274
0.618754 0.016269 0.017896
0.626714 0.015924 0.017516
0.633408 0.015577 0.017135
0.051394 0.073060 0.073258
0.051194 0.073274 0.072729
0.052861 0.073441 0.072570
0.059262 0.073090 0.071000
0.064317 0.072419 0.070595
0.068104 0.072007 0.070348
0.071876 0.071574 0.070040
0.075710 0.071129 0.069682
0.079753 0.070627 0.069169
0.083847 0.070068 0.068553
0.087886 0.069499 0.067854
0.092110 0.068873 0.067106
0.096480 0.068206 0.066327
0.101439 0.067407 0.065395
0.107830 0.066384 0.064188
0.114626 0.065215 0.062827
0.121789 0.063837 0.061351
0.129842 0.062449 0.059565
0.138735 0.061114 0.057542
0.148270 0.059632 0.055229
0.157805 0.058095 0.052645
0.167409 0.056351 0.049564
0.176949 0.054324 0.046196
0.186398 0.052106 0.042842
0.195934 0.049925 0.039413
0.205488 0.047828 0.035877
0.215523 0.046120 0.032425
0.226404 0.044908 0.029738
0.238175 0.043918 0.028232
0.250503 0.042889 0.027642
0.263215 0.041870 0.027358
0.276652 0.040843 0.027102
0.290899 0.039840 0.026838
0.305511 0.038846 0.026567
0.320287 0.037831 0.026290
0.334955 0.036505 0.026006
0.349544 0.035066 0.025715
0.364136 0.033667 0.025418
0.378157 0.031729 0.025116
0.391632 0.029297 0.024807
0.404792 0.026661 0.024493
0.417557 0.024189 0.024174
0.429675 0.022414 0.023850
0.441227 0.021504 0.023520
0.452253 0.021079 0.023187
0.462929 0.020771 0.022848
0.473532 0.020459 0.022505
0.484075 0.020144 0.022159
0.494585 0.019825 0.021808
0.505008 0.019503 0.021454
0.515258 0.019178 0.021096
0.525321 0.018850 0.020735
0.535056 0.018519 0.020371
0.544631 0.018186 0.020004
0.554042 0.017850 0.019635
0.563302 0.017512 0.019264
0.572188 0.017173 0.018890
0.580766 0.016831 0.018514
0.589091 0.016488 0.018137
0.597330 0.016143 0.017758
0.605542 0.015798 0.017377
0.613638 0.015451 0.016996
0.621675 0.015103 0.016614
0.629681 0.014755 0.016231
0.636285 0.014407 0.015848
0.050380 0.075257 0.073417
0.050154 0.075532 0.073011
0.049900 0.075714 0.072446
0.053949 0.075826 0.072326
0.061287 0.075346 0.070517
0.066874 0.074535 0.069998
0.070977 0.073988 0.069660
0.074918 0.073430 0.069272
0.079043 0.072815 0.068766
0.083235 0.072145 0.068140
0.087399 0.071419 0.067450
0.091724 0.070652 0.066694
0.096171 0.069860 0.065874
0.101222 0.069043 0.064936
0.107656 0.068049 0.063742
0.114593 0.066893 0.062397
0.121993 0.065545 0.060884
0.130169 0.063959 0.059099
0.139148 0.062121 0.057026
0.148762 0.060137 0.054630
0.158229 0.058190 0.051983
0.167755 0.056083 0.048841
0.177165 0.053662 0.045415
0.186662 0.051433 0.042039
0.196220 0.049226 0.038591
0.205868 0.047089 0.035019
0.215905 0.045371 0.031568
0.226861 0.044151 0.028881
0.238700 0.043137 0.027371
0.251087 0.042086 0.026775
0.263876 0.041044 0.026467
0.277407 0.039996 0.026187
0.291728 0.038973 0.025901
0.306417 0.037959 0.025608
0.321219 0.036940 0.025309
0.336011 0.035579 0.025004
0.350683 0.034122 0.024694
0.365305 0.032706 0.024378
0.379465 0.030735 0.024057
0.393010 0.028287 0.023730
0.406254 0.025621 0.023399
0.419085 0.023134 0.023064
0.431268 0.021375 0.022724
0.442897 0.020467 0.022380
0.453968 0.020028 0.022031
0.464717 0.019708 0.021679
0.475392 0.019385 0.021324
0.486006 0.019059 0.020965
0.496588 0.018730 0.020603
0.507067 0.018398 0.020238
0.517386 0.018064 0.019870
0.527489 0.017727 0.019500
0.537303 0.017389 0.019128
0.546940 0.017048 0.018753
0.556413 0.016706 0.018377
0.565734 0.016363 0.017999
0.574676 0.016018 0.017619
0.583293 0.015672 0.017239
0.591670 0.015325 0.016857
0.599959 0.014977 0.016474
0.608204 0.014628 0.016091
0.616346 0.014280 0.015708
0.624427 0.013931 0.015324
0.632491 0.013582 0.014941
0.639070 0.013234 0.014557
0.049304 0.077452 0.073482
0.049063 0.077685 0.073130
0.048656 0.077847 0.072183
0.050031 0.078043 0.072368
0.055165 0.078000 0.071569
0.063262 0.077535 0.069771
0.069423 0.076647 0.069159
0.073835 0.076024 0.068727
0.078099 0.075329 0.068230
0.082417 0.074580 0.067633
0.086737 0.073744 0.066954
0.091153 0.072838 0.066176
0.095720 0.071832 0.065317
0.100867 0.070786 0.064342
0.107282 0.069670 0.063130
0.114364 0.068515 0.061785
0.121900 0.067199 0.060275
0.130269 0.065646 0.058494
0.139475 0.063811 0.056444
0.149266 0.061739 0.054056
0.158995 0.059598 0.051297
0.168784 0.057434 0.048133
0.178527 0.055096 0.044706
0.188037 0.052583 0.041260
0.197460 0.049925 0.037726
0.206866 0.047276 0.034089
0.216624 0.045018 0.030607
0.227387 0.043409 0.027923
0.239258 0.042282 0.026446
0.251707 0.041227 0.025829
0.264575 0.040150 0.025500
0.278123 0.039098 0.025199
0.292589 0.038040 0.024892
0.307374 0.037024 0.024579
0.322245 0.035957 0.024261
0.337135 0.034595 0.023938
0.351879 0.033122 0.023610
0.366589 0.031675 0.023278
0.380820 0.029705 0.022941
0.394448 0.027213 0.022599
0.407705 0.024548 0.022253
0.420675 0.022049 0.021904
0.432922 0.020293 0.021550
0.444557 0.019389 0.021194
0.455757 0.018940 0.020833
0.466577 0.018609 0.020470
0.477308 0.018277 0.020104
0.487992 0.017942 0.019736
0.498629 0.017604 0.019365
0.509190 0.017265 0.018992
0.519562 0.016924 0.018616
0.529715 0.016581 0.018239
0.539606 0.016237 0.017861
0.549288 0.015892 0.017481
0.558791 0.015545 0.017100
0.568196 0.015198 0.016718
0.577191 0.014850 0.016335
0.585816 0.014502 0.015952
0.594254 0.014153 0.015568
0.602603 0.013804 0.015185
0.610891 0.013455 0.014801
0.619074 0.013107 0.014418
0.627181 0.012759 0.014035
0.635281 0.012412 0.013653
0.641831 0.012066 0.013272
0.048071 0.079641 0.073329
0.047796 0.079884 0.072984
0.047356 0.080010 0.072008
0.047069 0.080140 0.071531
0.050546 0.080261 0.071832
0.056523 0.080082 0.070485
0.065191 0.079619 0.068757
0.071831 0.078658 0.068126
0.076826 0.077932 0.067589
0.081369 0.077181 0.067006
0.085835 0.076346 0.066324
0.090412 0.075410 0.065544
0.095102 0.074359 0.064667
0.100349 0.073116 0.063675
0.106762 0.071744 0.062447
0.113980 0.070333 0.061054
0.121723 0.068883 0.059514
0.130184 0.067304 0.057758
0.139595 0.065504 0.055699
0.149554 0.063484 0.053306
0.159522 0.061288 0.050526
0.169581 0.058995 0.047362
0.179638 0.056649 0.043971
0.189543 0.054235 0.040529
0.199161 0.051648 0.036983
0.208682 0.048856 0.033231
0.218271 0.046104 0.029620
0.228434 0.043743 0.026820
0.239626 0.041835 0.025346
0.251853 0.040394 0.024796
0.264747 0.039239 0.024464
0.278451 0.038155 0.024144
0.293217 0.037066 0.023820
0.308360 0.036018 0.023490
0.323331 0.034936 0.023155
0.338294 0.033560 0.022817
0.353140 0.032073 0.022474
0.367938 0.030613 0.022126
0.382242 0.028616 0.021775
0.395940 0.026111 0.021421
0.409266 0.023436 0.021063
0.422316 0.020925 0.020702
0.434628 0.019160 0.020337
0.446322 0.018277 0.019971
0.457580 0.017819 0.019601
0.468469 0.017481 0.019229
0.479226 0.017141 0.018855
0.490020 0.016799 0.018479
0.500723 0.016456 0.018102
0.511308 0.016112 0.017723
0.521785 0.015766 0.017342
0.531986 0.015419 0.016961
0.541936 0.015071 0.016579
0.551675 0.014723 0.016196
0.561217 0.014375 0.015812
0.570676 0.014026 0.015429
0.579706 0.013677 0.015045
0.588375 0.013329 0.014661
0.596855 0.012980 0.014278
0.605231 0.012633 0.013896
0.613543 0.012286 0.013514
0.621777 0.011940 0.013134
0.629932 0.011595 0.012754
0.638051 0.011252 0.012377
0.644578 0.010910 0.012001
0.046530 0.081832 0.073037
0.046248 0.082010 0.072648
0.045801 0.082133 0.071735
0.045347 0.082231 0.070846
0.046388 0.082319 0.070947
0.051058 0.082231 0.070826
0.057916 0.082042 0.069148
0.067048 0.081584 0.067567
0.074284 0.080554 0.066869
0.079915 0.079698 0.066233
0.084719 0.078910 0.065551
0.089474 0.078054 0.064790
0.094318 0.077052 0.063932
0.099668 0.075828 0.062944
0.106108 0.074384 0.061721
0.113413 0.072795 0.060318
0.121342 0.071062 0.058751
0.129952 0.069215 0.056953
0.139479 0.067255 0.054855
0.149761 0.065166 0.052355
0.160001 0.063025 0.049558
0.170240 0.060740 0.046449
0.180560 0.058312 0.043150
0.190731 0.055863 0.039818
0.200726 0.053333 0.036332
0.210501 0.050599 0.032539
0.220073 0.047661 0.028836
0.229797 0.044657 0.025857
0.240156 0.041817 0.024301
0.251705 0.039704 0.023717
0.264353 0.038334 0.023369
0.277814 0.037205 0.023033
0.292356 0.036117 0.022692
0.307320 0.035071 0.022348
0.322458 0.033992 0.021999
0.337923 0.032588 0.021647
0.353315 0.031059 0.021291
0.368674 0.029557 0.020932
0.383553 0.027504 0.020569
0.397461 0.024959 0.020204
0.410884 0.022275 0.019836
0.424000 0.019756 0.019466
0.436373 0.018014 0.019093
0.448127 0.017124 0.018719
0.459455 0.016675 0.018342
0.470397 0.016331 0.017964
0.481219 0.015986 0.017584
0.492078 0.015640 0.017204
0.502846 0.015292 0.016822
0.513478 0.014945 0.016439
0.524017 0.014596 0.016056
0.534275 0.014248 0.015672
0.544265 0.013899 0.015289
0.554057 0.013550 0.014905
0.563651 0.013202 0.014522
0.573171 0.012854 0.014139
0.582231 0.012506 0.013757
0.590927 0.012160 0.013376
0.599445 0.011814 0.012996
0.607855 0.011470 0.012617
0.616187 0.011127 0.012240
0.624467 0.010785 0.011864
0.632636 0.010446 0.011491
0.640796 0.010108 0.011119
0.647267 0.009773 0.010750
0.044746 0.083972 0.072493
0.044446 0.084133 0.072115
0.044046 0.084209 0.071198
0.043559 0.084230 0.070025
0.043282 0.084319 0.069754
0.046172 0.084399 0.070119
0.051631 0.084029 0.069353
0.059263 0.083864 0.067616
0.068819 0.083477 0.066151
0.076759 0.082427 0.065411
0.082943 0.081537 0.064679
0.088218 0.080700 0.063905
0.093327 0.079765 0.063070
0.098824 0.078609 0.062105
0.105295 0.077217 0.060925
0.112704 0.075621 0.059514
0.120810 0.073834 0.057941
0.129588 0.071844 0.056139
0.139342 0.069649 0.054022
0.149749 0.067295 0.051488
0.160308 0.065012 0.048574
0.170786 0.062708 0.045506
0.181389 0.060247 0.042267
0.191844 0.057689 0.039030
0.202137 0.055065 0.035659
0.212255 0.052390 0.031949
0.222088 0.049498 0.028192
0.231729 0.046265 0.024987
0.241581 0.042739 0.023216
0.252226 0.039574 0.022584
0.264251 0.037657 0.022221
0.277399 0.036302 0.021871
0.291564 0.035141 0.021518
0.306221 0.034084 0.021160
0.321152 0.033009 0.020800
0.336481 0.031671 0.020437
0.351875 0.030148 0.020071
0.367377 0.028638 0.019702
0.382580 0.026668 0.019331
0.397145 0.024116 0.018957
0.411097 0.021379 0.018582
0.424714 0.018732 0.018205
0.437627 0.016877 0.017826
0.449763 0.015967 0.017446
0.461342 0.015513 0.017065
0.472348 0.015166 0.016683
0.483234 0.014818 0.016300
0.494156 0.014469 0.015916
0.504984 0.014121 0.015533
0.515675 0.013772 0.015149
0.526256 0.013423 0.014766
0.536569 0.013075 0.014382
0.546567 0.012727 0.014000
0.556436 0.012380 0.013618
0.566075 0.012034 0.013237
0.575597 0.011689 0.012857
0.584725 0.011345 0.012479
0.593470 0.011002 0.012103
0.602007 0.010662 0.011728
0.610449 0.010323 0.011355
0.618807 0.009986 0.010985
0.627114 0.009651 0.010617
0.635292 0.009319 0.010251
0.643472 0.008990 0.009889
0.649894 0.008663 0.009529
0.042776 0.086097 0.071759
0.042456 0.086229 0.071360
0.042091 0.086276 0.070442
0.041599 0.086284 0.069304
0.041183 0.086390 0.068612
0.041880 0.086337 0.068592
0.046124 0.086275 0.068840
0.052318 0.085718 0.067597
0.060495 0.085596 0.065911
0.070516 0.085284 0.064583
0.079309 0.084247 0.063823
0.086112 0.083341 0.062985
0.091910 0.082460 0.062106
0.097708 0.081434 0.061151
0.104281 0.080143 0.059982
0.111879 0.078587 0.058618
0.120097 0.076872 0.057076
0.129033 0.074892 0.055290
0.138994 0.072663 0.053157
0.149682 0.070169 0.050593
0.160509 0.067548 0.047687
0.171285 0.065044 0.044576
0.182149 0.062536 0.041434
0.192920 0.059962 0.038295
0.203505 0.057217 0.035006
0.213914 0.054375 0.031414
0.224107 0.051545 0.027676
0.234125 0.048498 0.024283
0.244244 0.045127 0.022217
0.254856 0.041752 0.021422
0.266061 0.038848 0.021030
0.278267 0.036520 0.020668
0.291689 0.034663 0.020304
0.305786 0.033200 0.019937
0.320394 0.031994 0.019567
0.335445 0.030679 0.019195
0.350644 0.029195 0.018821
0.365994 0.027678 0.018445
0.381141 0.025839 0.018067
0.395845 0.023419 0.017688
0.410086 0.020662 0.017307
0.424063 0.017905 0.016926
0.437460 0.015848 0.016543
0.450018 0.014828 0.016160
0.462060 0.014343 0.015777
0.473584 0.013994 0.015393
0.484801 0.013645 0.015010
0.495996 0.013296 0.014626
0.507025 0.012948 0.014243
0.517857 0.012601 0.013861
0.528506 0.012254 0.013479
0.538853 0.011908 0.013099
0.548898 0.011563 0.012720
0.558812 0.011220 0.012342
0.568477 0.010878 0.011966
0.578037 0.010538 0.011592
0.587200 0.010200 0.011220
0.595962 0.009864 0.010850
0.604497 0.009530 0.010483
0.612993 0.009199 0.010119
0.621375 0.008870 0.009757
0.629686 0.008545 0.009399
0.637896 0.008222 0.009045
0.646091 0.007903 0.008693
0.652459 0.007587 0.008346
0.040632 0.088202 0.070828
0.040281 0.088290 0.070393
0.039897 0.088310 0.069512
0.039387 0.088276 0.068360
0.038871 0.088266 0.067323
0.038581 0.088278 0.067009
0.041049 0.088299 0.067312
0.046122 0.087840 0.067083
0.052928 0.087298 0.065632
0.061665 0.087223 0.064019
0.072298 0.087080 0.062886
0.081839 0.086122 0.062057
0.089370 0.085205 0.061120
0.096031 0.084266 0.060124
0.102928 0.083154 0.058986
0.110719 0.081732 0.057654
0.119258 0.080060 0.056130
0.128358 0.078170 0.054363
0.138473 0.076015 0.052234
0.149487 0.073566 0.049678
0.160644 0.070869 0.046799
0.171683 0.068076 0.043718
0.182867 0.065294 0.040624
0.193891 0.062585 0.037584
0.204824 0.059826 0.034447
0.215572 0.056927 0.030908
0.226075 0.053948 0.027241
0.236501 0.050936 0.023767
0.247059 0.047753 0.021361
0.257904 0.044460 0.020271
0.268856 0.041043 0.019802
0.280308 0.037807 0.019432
0.292994 0.035027 0.019059
0.306385 0.032779 0.018684
0.320329 0.031093 0.018307
0.334887 0.029651 0.017929
0.349874 0.028192 0.017549
0.365055 0.026686 0.017168
0.380144 0.024950 0.016786
0.394827 0.022649 0.016404
0.409132 0.019920 0.016021
0.423241 0.017130 0.015637
0.436852 0.014859 0.015253
0.449633 0.013701 0.014870
0.461809 0.013185 0.014487
0.473692 0.012822 0.014104
0.485339 0.012474 0.013722
0.496890 0.012128 0.013341
0.508376 0.011782 0.012961
0.519606 0.011438 0.012582
0.530549 0.011095 0.012205
0.541131 0.010754 0.011830
0.551261 0.010415 0.011456
0.561185 0.010077 0.011085
0.570886 0.009742 0.010716
0.580436 0.009409 0.010350
0.589628 0.009079 0.009987
0.598401 0.008752 0.009627
0.606957 0.008427 0.009270
0.615472 0.008106 0.008916
0.623857 0.007788 0.008566
0.632152 0.007473 0.008220
0.640373 0.007162 0.007879
0.648607 0.006856 0.007541
0.654913 0.006553 0.007208
0.038194 0.090307 0.069657
0.037811 0.090385 0.069190
0.037356 0.090380 0.068331
0.036800 0.090307 0.067187
0.036185 0.090196 0.065862
0.035701 0.090323 0.065414
0.036110 0.090123 0.065236
0.040424 0.090177 0.065673
0.046206 0.089187 0.064959
0.053514 0.088786 0.063480
0.062768 0.088761 0.061980
0.074221 0.088852 0.061026
0.084444 0.088008 0.060136
0.092854 0.087097 0.059104
0.100709 0.086059 0.057947
0.108945 0.084819 0.056651
0.117935 0.083299 0.055112
0.127337 0.081516 0.053349
0.137668 0.079484 0.051245
0.148999 0.077174 0.048751
0.160643 0.074631 0.045902
0.172101 0.071871 0.042870
0.183610 0.068910 0.039859
0.194918 0.065899 0.036904
0.206124 0.062901 0.033887
0.217212 0.059854 0.030420
0.228071 0.056759 0.026776
0.238785 0.053693 0.023275
0.249730 0.050501 0.020536
0.260881 0.047202 0.019123
0.271985 0.043732 0.018564
0.283211 0.040078 0.018170
0.295323 0.036529 0.017791
0.308001 0.033300 0.017411
0.321161 0.030710 0.017029
0.335162 0.028745 0.016647
0.349836 0.027115 0.016264
0.364743 0.025637 0.015881
0.379672 0.023976 0.015497
0.394263 0.021781 0.015114
0.408414 0.019129 0.014730
0.422481 0.016324 0.014347
0.436276 0.013931 0.013965
0.449235 0.012623 0.013583
0.461571 0.012032 0.013202
0.473582 0.011657 0.012823
0.485412 0.011313 0.012444
0.497175 0.010971 0.012068
0.508840 0.010630 0.011693
0.520261 0.010292 0.011321
0.531437 0.009955 0.010951
0.542379 0.009621 0.010583
0.552882 0.009289 0.010218
0.563102 0.008959 0.009855
0.573143 0.008633 0.009496
0.582881 0.008310 0.009141
0.592068 0.007989 0.008788
0.600860 0.007673 0.008440
0.609374 0.007360 0.008096
0.617902 0.007050 0.007755
0.626281 0.006745 0.007419
0.634570 0.006444 0.007088
0.642780 0.006147 0.006762
0.650987 0.005855 0.006440
0.657269 0.005567 0.006124
0.035435 0.092466 0.068259
0.035007 0.092505 0.067780
0.034479 0.092462 0.066946
0.033878 0.092352 0.065829
0.033177 0.092220 0.064532
0.032553 0.092265 0.063749
0.032211 0.092183 0.063372
0.034382 0.092140 0.063592
0.039624 0.091757 0.063665
0.046071 0.090437 0.062614
0.053922 0.090181 0.061148
0.063691 0.090256 0.059781
0.076174 0.090646 0.059010
0.087148 0.089903 0.058063
0.096592 0.089003 0.056925
0.106036 0.087901 0.055581
0.115814 0.086566 0.054047
0.125816 0.084938 0.052292
0.136461 0.083046 0.050215
0.148198 0.080908 0.047768
0.160238 0.078522 0.045002
0.172190 0.075934 0.042073
0.184098 0.073146 0.039148
0.195877 0.070127 0.036263
0.207456 0.066983 0.033350
0.218877 0.063623 0.029924
0.230082 0.060246 0.026323
0.241099 0.057020 0.022814
0.252336 0.053747 0.019747
0.263895 0.050350 0.017985
0.275336 0.046846 0.017289
0.286873 0.043218 0.016890
0.298903 0.039391 0.016508
0.311174 0.035579 0.016125
0.323698 0.032011 0.015741
0.336765 0.029007 0.015358
0.350590 0.026568 0.014974
0.365193 0.024678 0.014591
0.379900 0.022957 0.014208
0.394438 0.020809 0.013826
0.408503 0.018203 0.013444
0.422381 0.015447 0.013064
0.436084 0.012981 0.012685
0.449003 0.011555 0.012307
0.461351 0.010892 0.011931
0.473458 0.010507 0.011557
0.485352 0.010169 0.011186
0.497207 0.009833 0.010816
0.509048 0.009500 0.010449
0.520673 0.009169 0.010085
0.532048 0.008840 0.009724
0.543188 0.008515 0.009366
0.553884 0.008193 0.009012
0.564324 0.007874 0.008661
0.574521 0.007558 0.008314
0.584400 0.007247 0.007971
0.593839 0.006939 0.007632
0.602866 0.006635 0.007298
0.611507 0.006335 0.006969
0.620117 0.006040 0.006644
0.628709 0.005749 0.006324
0.637072 0.005464 0.006010
0.645237 0.005183 0.005701
0.653409 0.004908 0.005399
0.659601 0.004638 0.005101
0.032352 0.094610 0.066731
0.031920 0.094613 0.066225
0.031347 0.094534 0.065402
0.030675 0.094373 0.064315
0.029928 0.094207 0.063050
0.029218 0.094111 0.061970
0.028641 0.094225 0.061520
0.028595 0.093829 0.061184
0.032703 0.093963 0.061680
0.038599 0.092979 0.061365
0.045781 0.091593 0.060106
0.054226 0.091501 0.058742
0.064787 0.091801 0.057529
0.078042 0.092464 0.056790
0.089810 0.091871 0.055809
0.100724 0.090971 0.054521
0.112049 0.089777 0.052928
0.123297 0.088351 0.051166
0.134624 0.086709 0.049153
0.146897 0.084759 0.046772
0.159548 0.082532 0.044059
0.171973 0.080089 0.041183
0.184468 0.077446 0.038313
0.196652 0.074648 0.035550
0.208636 0.071651 0.032776
0.220534 0.068331 0.029327
0.232159 0.064827 0.025737
0.243568 0.061246 0.022274
0.255158 0.057740 0.019003
0.267014 0.054233 0.016914
0.278867 0.050620 0.016035
0.290773 0.046884 0.015602
0.302991 0.042949 0.015218
0.315364 0.039014 0.014835
