apps/filmtone-desktop-macos/FilmtoneDesktop/Resources/CreativeLuts/filmtone-creative-pack-01-stone.cube
TITLE "Filmtone Stone"
# pack=creative-pack-01
# slug=filmtone-creative-pack-01-stone
# bakerVersion=1.5.0-stone-palermo-signature
# generator=filmtone-stone-dlogm-palermo-display-v2
LUT_3D_SIZE 5
DOMAIN_MIN 0.0 0.0 0.0
DOMAIN_MAX 1.0 1.0 1.0
0.000000 0.000000 0.000000
0.220371 0.008626 0.006405
0.295182 0.025454 0.000599
0.493725 0.003998 0.000000
0.679283 0.001033 0.000044
0.045057 0.096585 0.047457
0.114613 0.107553 0.041263
0.342195 0.116352 0.012513
0.580456 0.121625 0.009748
0.745903 0.128614 0.024630
0.021873 0.260672 0.076440
0.048490 0.226789 0.054749
0.313926 0.299094 0.020784
0.647479 0.369452 0.022586
0.810714 0.392304 0.039272
0.054516 0.508342 0.172420
0.060530 0.445963 0.117997
0.165450 0.412826 0.053608
0.574460 0.556686 0.030801
0.845061 0.647897 0.051457
0.190531 0.723232 0.372740
0.224925 0.702774 0.322256
0.247320 0.634009 0.191287
0.409178 0.638340 0.087588
0.764342 0.746735 0.070539
0.000000 0.000000 0.250000
0.184278 0.022683 0.172982
0.303676 0.038652 0.063375
0.519477 0.000042 0.030320
0.706079 0.009309 0.058771
0.045658 0.114135 0.103277
0.141396 0.145616 0.123540
0.367023 0.153559 0.110589
0.596445 0.137331 0.085880
0.756759 0.119749 0.080508
0.035363 0.299755 0.147616
0.181290 0.333785 0.190734
0.381071 0.358514 0.135351
0.679161 0.386961 0.084803
0.826074 0.397445 0.090201
0.106043 0.562969 0.287949
0.228740 0.573574 0.298926
0.292970 0.496764 0.181821
0.621805 0.595524 0.113774
0.856321 0.648832 0.127709
0.264910 0.759615 0.461534
0.337398 0.763504 0.448698
0.367731 0.707648 0.338029
0.471697 0.678266 0.213713
0.775373 0.759738 0.183838
0.000214 0.001179 0.490731
0.134739 0.035590 0.332562
0.307816 0.038287 0.264513
0.539123 0.000551 0.251349
0.722899 0.019416 0.285731
0.012278 0.121801 0.292026
0.124119 0.176070 0.323869
0.376085 0.193007 0.334514
0.618947 0.173446 0.330615
0.776340 0.158071 0.330522
0.028608 0.344185 0.341363
0.191084 0.392611 0.368560
0.459323 0.471038 0.405430
0.690727 0.479178 0.414821
0.836089 0.457462 0.395462
0.097154 0.584421 0.415872
0.292008 0.614613 0.442959
0.511681 0.642644 0.496397
0.683770 0.667899 0.432399
0.878506 0.664914 0.330960
0.315814 0.779064 0.547312
0.419147 0.799623 0.565508
0.545624 0.814332 0.575907
0.590646 0.752875 0.451482
0.802747 0.796917 0.419744
0.000092 0.000451 0.687192
0.091565 0.019082 0.502531
0.302802 0.012076 0.493459
0.562297 0.011404 0.508488
0.740466 0.026730 0.535840
0.008541 0.100821 0.509848
0.093777 0.176088 0.551061
0.387600 0.202883 0.572462
0.633996 0.211752 0.582248
0.790573 0.198122 0.588896
0.012875 0.363297 0.587516
0.038726 0.423221 0.616291
0.358698 0.497455 0.640101
0.690101 0.515656 0.642119
0.837286 0.488554 0.640611
0.048904 0.639222 0.646841
0.138694 0.668853 0.656057
0.413180 0.698329 0.664160
0.732717 0.728065 0.636215
0.860278 0.715411 0.663485
0.236109 0.793265 0.663052
0.392440 0.812704 0.668979
0.575112 0.834877 0.681661
0.718222 0.848981 0.710744
0.839875 0.842528 0.651416
0.000177 0.001424 0.817345
0.083548 0.023340 0.658920
0.326729 0.017572 0.674673
0.579863 0.018612 0.695689
0.770053 0.075491 0.737867
0.008062 0.081282 0.670266
0.058274 0.171383 0.710647
0.406650 0.205496 0.741136
0.645419 0.217003 0.758736
0.805595 0.248715 0.776724
0.010174 0.353106 0.755763
0.028815 0.413002 0.784399
0.284267 0.481316 0.808985
0.690691 0.496478 0.804653
0.838610 0.506144 0.813206
0.027213 0.625086 0.814741
0.045355 0.661147 0.829280
0.225559 0.701806 0.840065
0.492022 0.723858 0.844573
0.854719 0.719555 0.832465
0.070630 0.836152 0.859269
0.134335 0.845477 0.858486
0.278902 0.856017 0.855926
0.610367 0.861638 0.842240
0.862618 0.870214 0.837820
