apps/capacitor-film-lab-ios/ios/App/App/public/luts/warm-cinematic.cube
TITLE "Warm Cinematic"
LUT_3D_SIZE 5
DOMAIN_MIN 0.0 0.0 0.0
DOMAIN_MAX 1.0 1.0 1.0
0.001184 0.000298 0.000000
0.203522 0.000298 0.000000
0.589568 0.000298 0.000000
0.923126 0.000298 0.000000
1.000000 0.000298 0.000000
0.001184 0.161912 0.000000
0.203522 0.161912 0.000000
0.589568 0.161912 0.000000
0.923126 0.161912 0.000000
1.000000 0.161912 0.000000
0.001184 0.500000 0.000000
0.203522 0.500000 0.000000
0.589568 0.500000 0.000000
0.923126 0.500000 0.000000
1.000000 0.500000 0.000000
0.001184 0.838088 0.000000
0.203522 0.838088 0.000000
0.589568 0.838088 0.000000
0.923126 0.838088 0.000000
1.000000 0.838088 0.000000
0.001184 0.999702 0.000000
0.203522 0.999702 0.000000
0.589568 0.999702 0.000000
0.923126 0.999702 0.000000
1.000000 0.999702 0.000000
0.001184 0.000298 0.096902
0.203522 0.000298 0.096902
0.589568 0.000298 0.096902
0.923126 0.000298 0.096902
1.000000 0.000298 0.096902
0.001184 0.161912 0.096902
0.203522 0.161912 0.096902
0.589568 0.161912 0.096902
0.923126 0.161912 0.096902
1.000000 0.161912 0.096902
0.001184 0.500000 0.096902
0.203522 0.500000 0.096902
0.589568 0.500000 0.096902
0.923126 0.500000 0.096902
1.000000 0.500000 0.096902
0.001184 0.838088 0.096902
0.203522 0.838088 0.096902
0.589568 0.838088 0.096902
0.923126 0.838088 0.096902
1.000000 0.838088 0.096902
0.001184 0.999702 0.096902
0.203522 0.999702 0.096902
0.589568 0.999702 0.096902
0.923126 0.999702 0.096902
1.000000 0.999702 0.096902
0.001184 0.000298 0.359215
0.203522 0.000298 0.359215
0.589568 0.000298 0.359215
0.923126 0.000298 0.359215
1.000000 0.000298 0.359215
0.001184 0.161912 0.359215
0.203522 0.161912 0.359215
0.589568 0.161912 0.359215
0.923126 0.161912 0.359215
1.000000 0.161912 0.359215
0.001184 0.500000 0.359215
0.203522 0.500000 0.359215
0.589568 0.500000 0.359215
0.923126 0.500000 0.359215
1.000000 0.500000 0.359215
0.001184 0.838088 0.359215
0.203522 0.838088 0.359215
0.589568 0.838088 0.359215
0.923126 0.838088 0.359215
1.000000 0.838088 0.359215
0.001184 0.999702 0.359215
0.203522 0.999702 0.359215
0.589568 0.999702 0.359215
0.923126 0.999702 0.359215
1.000000 0.999702 0.359215
0.001184 0.000298 0.673006
0.203522 0.000298 0.673006
0.589568 0.000298 0.673006
0.923126 0.000298 0.673006
1.000000 0.000298 0.673006
0.001184 0.161912 0.673006
0.203522 0.161912 0.673006
0.589568 0.161912 0.673006
0.923126 0.161912 0.673006
1.000000 0.161912 0.673006
0.001184 0.500000 0.673006
0.203522 0.500000 0.673006
0.589568 0.500000 0.673006
0.923126 0.500000 0.673006
1.000000 0.500000 0.673006
0.001184 0.838088 0.673006
0.203522 0.838088 0.673006
0.589568 0.838088 0.673006
0.923126 0.838088 0.673006
1.000000 0.838088 0.673006
0.001184 0.999702 0.673006
0.203522 0.999702 0.673006
0.589568 0.999702 0.673006
0.923126 0.999702 0.673006
1.000000 0.999702 0.673006
0.001184 0.000298 0.923126
0.203522 0.000298 0.923126
0.589568 0.000298 0.923126
0.923126 0.000298 0.923126
1.000000 0.000298 0.923126
0.001184 0.161912 0.923126
0.203522 0.161912 0.923126
0.589568 0.161912 0.923126
0.923126 0.161912 0.923126
1.000000 0.161912 0.923126
0.001184 0.500000 0.923126
0.203522 0.500000 0.923126
0.589568 0.500000 0.923126
0.923126 0.500000 0.923126
1.000000 0.500000 0.923126
0.001184 0.838088 0.923126
0.203522 0.838088 0.923126
0.589568 0.838088 0.923126
0.923126 0.838088 0.923126
1.000000 0.838088 0.923126
0.001184 0.999702 0.923126
0.203522 0.999702 0.923126
0.589568 0.999702 0.923126
0.923126 0.999702 0.923126
1.000000 0.999702 0.923126
