apps/capacitor-film-lab-ios/ios/App/App/public/luts/warm-cinematic.cube
TITLE "Warm Cinematic"
LUT_3D_SIZE 17
DOMAIN_MIN 0.0 0.0 0.0
DOMAIN_MAX 1.0 1.0 1.0
0.001184 0.000298 0.000000
0.021629 0.000298 0.000000
0.064627 0.000298 0.000000
0.126488 0.000298 0.000000
0.203522 0.000298 0.000000
0.292037 0.000298 0.000000
0.388344 0.000298 0.000000
0.488751 0.000298 0.000000
0.589568 0.000298 0.000000
0.687105 0.000298 0.000000
0.777670 0.000298 0.000000
0.857574 0.000298 0.000000
0.923126 0.000298 0.000000
0.970635 0.000298 0.000000
0.996411 0.000298 0.000000
1.000000 0.000298 0.000000
1.000000 0.000298 0.000000
0.001184 0.014506 0.000000
0.021629 0.014506 0.000000
0.064627 0.014506 0.000000
0.126488 0.014506 0.000000
0.203522 0.014506 0.000000
0.292037 0.014506 0.000000
0.388344 0.014506 0.000000
0.488751 0.014506 0.000000
0.589568 0.014506 0.000000
0.687105 0.014506 0.000000
0.777670 0.014506 0.000000
0.857574 0.014506 0.000000
0.923126 0.014506 0.000000
0.970635 0.014506 0.000000
0.996411 0.014506 0.000000
1.000000 0.014506 0.000000
1.000000 0.014506 0.000000
0.001184 0.048016 0.000000
0.021629 0.048016 0.000000
0.064627 0.048016 0.000000
0.126488 0.048016 0.000000
0.203522 0.048016 0.000000
0.292037 0.048016 0.000000
0.388344 0.048016 0.000000
0.488751 0.048016 0.000000
0.589568 0.048016 0.000000
0.687105 0.048016 0.000000
0.777670 0.048016 0.000000
0.857574 0.048016 0.000000
0.923126 0.048016 0.000000
0.970635 0.048016 0.000000
0.996411 0.048016 0.000000
1.000000 0.048016 0.000000
1.000000 0.048016 0.000000
0.001184 0.098071 0.000000
0.021629 0.098071 0.000000
0.064627 0.098071 0.000000
0.126488 0.098071 0.000000
0.203522 0.098071 0.000000
0.292037 0.098071 0.000000
0.388344 0.098071 0.000000
0.488751 0.098071 0.000000
0.589568 0.098071 0.000000
0.687105 0.098071 0.000000
0.777670 0.098071 0.000000
0.857574 0.098071 0.000000
0.923126 0.098071 0.000000
0.970635 0.098071 0.000000
0.996411 0.098071 0.000000
1.000000 0.098071 0.000000
1.000000 0.098071 0.000000
0.001184 0.161912 0.000000
0.021629 0.161912 0.000000
0.064627 0.161912 0.000000
0.126488 0.161912 0.000000
0.203522 0.161912 0.000000
0.292037 0.161912 0.000000
0.388344 0.161912 0.000000
0.488751 0.161912 0.000000
0.589568 0.161912 0.000000
0.687105 0.161912 0.000000
0.777670 0.161912 0.000000
0.857574 0.161912 0.000000
0.923126 0.161912 0.000000
0.970635 0.161912 0.000000
0.996411 0.161912 0.000000
1.000000 0.161912 0.000000
1.000000 0.161912 0.000000
0.001184 0.236783 0.000000
0.021629 0.236783 0.000000
0.064627 0.236783 0.000000
0.126488 0.236783 0.000000
0.203522 0.236783 0.000000
0.292037 0.236783 0.000000
0.388344 0.236783 0.000000
0.488751 0.236783 0.000000
0.589568 0.236783 0.000000
0.687105 0.236783 0.000000
0.777670 0.236783 0.000000
0.857574 0.236783 0.000000
0.923126 0.236783 0.000000
0.970635 0.236783 0.000000
0.996411 0.236783 0.000000
1.000000 0.236783 0.000000
1.000000 0.236783 0.000000
0.001184 0.319927 0.000000
0.021629 0.319927 0.000000
0.064627 0.319927 0.000000
0.126488 0.319927 0.000000
0.203522 0.319927 0.000000
0.292037 0.319927 0.000000
0.388344 0.319927 0.000000
0.488751 0.319927 0.000000
0.589568 0.319927 0.000000
0.687105 0.319927 0.000000
0.777670 0.319927 0.000000
0.857574 0.319927 0.000000
0.923126 0.319927 0.000000
0.970635 0.319927 0.000000
0.996411 0.319927 0.000000
1.000000 0.319927 0.000000
1.000000 0.319927 0.000000
0.001184 0.408585 0.000000
0.021629 0.408585 0.000000
0.064627 0.408585 0.000000
0.126488 0.408585 0.000000
0.203522 0.408585 0.000000
0.292037 0.408585 0.000000
0.388344 0.408585 0.000000
0.488751 0.408585 0.000000
0.589568 0.408585 0.000000
0.687105 0.408585 0.000000
0.777670 0.408585 0.000000
0.857574 0.408585 0.000000
0.923126 0.408585 0.000000
0.970635 0.408585 0.000000
0.996411 0.408585 0.000000
1.000000 0.408585 0.000000
1.000000 0.408585 0.000000
0.001184 0.500000 0.000000
0.021629 0.500000 0.000000
0.064627 0.500000 0.000000
0.126488 0.500000 0.000000
0.203522 0.500000 0.000000
0.292037 0.500000 0.000000
0.388344 0.500000 0.000000
0.488751 0.500000 0.000000
0.589568 0.500000 0.000000
0.687105 0.500000 0.000000
0.777670 0.500000 0.000000
0.857574 0.500000 0.000000
0.923126 0.500000 0.000000
0.970635 0.500000 0.000000
0.996411 0.500000 0.000000
1.000000 0.500000 0.000000
1.000000 0.500000 0.000000
0.001184 0.591415 0.000000
0.021629 0.591415 0.000000
0.064627 0.591415 0.000000
0.126488 0.591415 0.000000
0.203522 0.591415 0.000000
0.292037 0.591415 0.000000
0.388344 0.591415 0.000000
0.488751 0.591415 0.000000
0.589568 0.591415 0.000000
0.687105 0.591415 0.000000
0.777670 0.591415 0.000000
0.857574 0.591415 0.000000
0.923126 0.591415 0.000000
0.970635 0.591415 0.000000
0.996411 0.591415 0.000000
1.000000 0.591415 0.000000
1.000000 0.591415 0.000000
0.001184 0.680073 0.000000
0.021629 0.680073 0.000000
0.064627 0.680073 0.000000
0.126488 0.680073 0.000000
0.203522 0.680073 0.000000
0.292037 0.680073 0.000000
0.388344 0.680073 0.000000
0.488751 0.680073 0.000000
0.589568 0.680073 0.000000
0.687105 0.680073 0.000000
0.777670 0.680073 0.000000
0.857574 0.680073 0.000000
0.923126 0.680073 0.000000
0.970635 0.680073 0.000000
0.996411 0.680073 0.000000
1.000000 0.680073 0.000000
1.000000 0.680073 0.000000
0.001184 0.763217 0.000000
0.021629 0.763217 0.000000
0.064627 0.763217 0.000000
0.126488 0.763217 0.000000
0.203522 0.763217 0.000000
0.292037 0.763217 0.000000
0.388344 0.763217 0.000000
0.488751 0.763217 0.000000
0.589568 0.763217 0.000000
0.687105 0.763217 0.000000
0.777670 0.763217 0.000000
0.857574 0.763217 0.000000
0.923126 0.763217 0.000000
0.970635 0.763217 0.000000
0.996411 0.763217 0.000000
1.000000 0.763217 0.000000
1.000000 0.763217 0.000000
0.001184 0.838088 0.000000
0.021629 0.838088 0.000000
0.064627 0.838088 0.000000
0.126488 0.838088 0.000000
0.203522 0.838088 0.000000
0.292037 0.838088 0.000000
0.388344 0.838088 0.000000
0.488751 0.838088 0.000000
0.589568 0.838088 0.000000
0.687105 0.838088 0.000000
0.777670 0.838088 0.000000
0.857574 0.838088 0.000000
0.923126 0.838088 0.000000
0.970635 0.838088 0.000000
0.996411 0.838088 0.000000
1.000000 0.838088 0.000000
1.000000 0.838088 0.000000
0.001184 0.901929 0.000000
0.021629 0.901929 0.000000
0.064627 0.901929 0.000000
0.126488 0.901929 0.000000
0.203522 0.901929 0.000000
0.292037 0.901929 0.000000
0.388344 0.901929 0.000000
0.488751 0.901929 0.000000
0.589568 0.901929 0.000000
0.687105 0.901929 0.000000
0.777670 0.901929 0.000000
0.857574 0.901929 0.000000
0.923126 0.901929 0.000000
0.970635 0.901929 0.000000
0.996411 0.901929 0.000000
1.000000 0.901929 0.000000
1.000000 0.901929 0.000000
0.001184 0.951984 0.000000
0.021629 0.951984 0.000000
0.064627 0.951984 0.000000
0.126488 0.951984 0.000000
0.203522 0.951984 0.000000
0.292037 0.951984 0.000000
0.388344 0.951984 0.000000
0.488751 0.951984 0.000000
0.589568 0.951984 0.000000
0.687105 0.951984 0.000000
0.777670 0.951984 0.000000
0.857574 0.951984 0.000000
0.923126 0.951984 0.000000
0.970635 0.951984 0.000000
0.996411 0.951984 0.000000
1.000000 0.951984 0.000000
1.000000 0.951984 0.000000
0.001184 0.985494 0.000000
0.021629 0.985494 0.000000
0.064627 0.985494 0.000000
0.126488 0.985494 0.000000
0.203522 0.985494 0.000000
0.292037 0.985494 0.000000
0.388344 0.985494 0.000000
0.488751 0.985494 0.000000
0.589568 0.985494 0.000000
0.687105 0.985494 0.000000
0.777670 0.985494 0.000000
0.857574 0.985494 0.000000
0.923126 0.985494 0.000000
0.970635 0.985494 0.000000
0.996411 0.985494 0.000000
1.000000 0.985494 0.000000
1.000000 0.985494 0.000000
0.001184 0.999702 0.000000
0.021629 0.999702 0.000000
0.064627 0.999702 0.000000
0.126488 0.999702 0.000000
0.203522 0.999702 0.000000
0.292037 0.999702 0.000000
0.388344 0.999702 0.000000
0.488751 0.999702 0.000000
0.589568 0.999702 0.000000
0.687105 0.999702 0.000000
0.777670 0.999702 0.000000
0.857574 0.999702 0.000000
0.923126 0.999702 0.000000
0.970635 0.999702 0.000000
0.996411 0.999702 0.000000
1.000000 0.999702 0.000000
1.000000 0.999702 0.000000
0.001184 0.000298 0.003219
0.021629 0.000298 0.003219
0.064627 0.000298 0.003219
0.126488 0.000298 0.003219
0.203522 0.000298 0.003219
0.292037 0.000298 0.003219
0.388344 0.000298 0.003219
0.488751 0.000298 0.003219
0.589568 0.000298 0.003219
0.687105 0.000298 0.003219
0.777670 0.000298 0.003219
0.857574 0.000298 0.003219
0.923126 0.000298 0.003219
0.970635 0.000298 0.003219
0.996411 0.000298 0.003219
1.000000 0.000298 0.003219
1.000000 0.000298 0.003219
0.001184 0.014506 0.003219
0.021629 0.014506 0.003219
0.064627 0.014506 0.003219
0.126488 0.014506 0.003219
0.203522 0.014506 0.003219
0.292037 0.014506 0.003219
0.388344 0.014506 0.003219
0.488751 0.014506 0.003219
0.589568 0.014506 0.003219
0.687105 0.014506 0.003219
0.777670 0.014506 0.003219
0.857574 0.014506 0.003219
0.923126 0.014506 0.003219
0.970635 0.014506 0.003219
0.996411 0.014506 0.003219
1.000000 0.014506 0.003219
1.000000 0.014506 0.003219
0.001184 0.048016 0.003219
0.021629 0.048016 0.003219
0.064627 0.048016 0.003219
0.126488 0.048016 0.003219
0.203522 0.048016 0.003219
0.292037 0.048016 0.003219
0.388344 0.048016 0.003219
0.488751 0.048016 0.003219
0.589568 0.048016 0.003219
0.687105 0.048016 0.003219
0.777670 0.048016 0.003219
0.857574 0.048016 0.003219
0.923126 0.048016 0.003219
0.970635 0.048016 0.003219
0.996411 0.048016 0.003219
1.000000 0.048016 0.003219
1.000000 0.048016 0.003219
0.001184 0.098071 0.003219
0.021629 0.098071 0.003219
0.064627 0.098071 0.003219
0.126488 0.098071 0.003219
0.203522 0.098071 0.003219
0.292037 0.098071 0.003219
0.388344 0.098071 0.003219
0.488751 0.098071 0.003219
0.589568 0.098071 0.003219
0.687105 0.098071 0.003219
0.777670 0.098071 0.003219
0.857574 0.098071 0.003219
0.923126 0.098071 0.003219
0.970635 0.098071 0.003219
0.996411 0.098071 0.003219
1.000000 0.098071 0.003219
1.000000 0.098071 0.003219
0.001184 0.161912 0.003219
0.021629 0.161912 0.003219
0.064627 0.161912 0.003219
0.126488 0.161912 0.003219
0.203522 0.161912 0.003219
0.292037 0.161912 0.003219
0.388344 0.161912 0.003219
0.488751 0.161912 0.003219
0.589568 0.161912 0.003219
0.687105 0.161912 0.003219
0.777670 0.161912 0.003219
0.857574 0.161912 0.003219
0.923126 0.161912 0.003219
0.970635 0.161912 0.003219
0.996411 0.161912 0.003219
1.000000 0.161912 0.003219
1.000000 0.161912 0.003219
0.001184 0.236783 0.003219
0.021629 0.236783 0.003219
0.064627 0.236783 0.003219
0.126488 0.236783 0.003219
0.203522 0.236783 0.003219
0.292037 0.236783 0.003219
0.388344 0.236783 0.003219
0.488751 0.236783 0.003219
0.589568 0.236783 0.003219
0.687105 0.236783 0.003219
0.777670 0.236783 0.003219
0.857574 0.236783 0.003219
0.923126 0.236783 0.003219
0.970635 0.236783 0.003219
0.996411 0.236783 0.003219
1.000000 0.236783 0.003219
1.000000 0.236783 0.003219
0.001184 0.319927 0.003219
0.021629 0.319927 0.003219
0.064627 0.319927 0.003219
0.126488 0.319927 0.003219
0.203522 0.319927 0.003219
0.292037 0.319927 0.003219
0.388344 0.319927 0.003219
0.488751 0.319927 0.003219
0.589568 0.319927 0.003219
0.687105 0.319927 0.003219
0.777670 0.319927 0.003219
0.857574 0.319927 0.003219
0.923126 0.319927 0.003219
0.970635 0.319927 0.003219
0.996411 0.319927 0.003219
1.000000 0.319927 0.003219
1.000000 0.319927 0.003219
0.001184 0.408585 0.003219
0.021629 0.408585 0.003219
0.064627 0.408585 0.003219
0.126488 0.408585 0.003219
0.203522 0.408585 0.003219
0.292037 0.408585 0.003219
0.388344 0.408585 0.003219
0.488751 0.408585 0.003219
0.589568 0.408585 0.003219
0.687105 0.408585 0.003219
0.777670 0.408585 0.003219
0.857574 0.408585 0.003219
0.923126 0.408585 0.003219
0.970635 0.408585 0.003219
0.996411 0.408585 0.003219
1.000000 0.408585 0.003219
1.000000 0.408585 0.003219
0.001184 0.500000 0.003219
0.021629 0.500000 0.003219
0.064627 0.500000 0.003219
0.126488 0.500000 0.003219
0.203522 0.500000 0.003219
0.292037 0.500000 0.003219
0.388344 0.500000 0.003219
0.488751 0.500000 0.003219
0.589568 0.500000 0.003219
0.687105 0.500000 0.003219
0.777670 0.500000 0.003219
0.857574 0.500000 0.003219
0.923126 0.500000 0.003219
0.970635 0.500000 0.003219
0.996411 0.500000 0.003219
1.000000 0.500000 0.003219
1.000000 0.500000 0.003219
0.001184 0.591415 0.003219
0.021629 0.591415 0.003219
0.064627 0.591415 0.003219
0.126488 0.591415 0.003219
0.203522 0.591415 0.003219
0.292037 0.591415 0.003219
0.388344 0.591415 0.003219
0.488751 0.591415 0.003219
0.589568 0.591415 0.003219
0.687105 0.591415 0.003219
0.777670 0.591415 0.003219
0.857574 0.591415 0.003219
0.923126 0.591415 0.003219
0.970635 0.591415 0.003219
0.996411 0.591415 0.003219
1.000000 0.591415 0.003219
1.000000 0.591415 0.003219
0.001184 0.680073 0.003219
0.021629 0.680073 0.003219
0.064627 0.680073 0.003219
0.126488 0.680073 0.003219
0.203522 0.680073 0.003219
0.292037 0.680073 0.003219
0.388344 0.680073 0.003219
0.488751 0.680073 0.003219
0.589568 0.680073 0.003219
0.687105 0.680073 0.003219
0.777670 0.680073 0.003219
0.857574 0.680073 0.003219
0.923126 0.680073 0.003219
0.970635 0.680073 0.003219
0.996411 0.680073 0.003219
1.000000 0.680073 0.003219
1.000000 0.680073 0.003219
0.001184 0.763217 0.003219
0.021629 0.763217 0.003219
0.064627 0.763217 0.003219
0.126488 0.763217 0.003219
0.203522 0.763217 0.003219
0.292037 0.763217 0.003219
0.388344 0.763217 0.003219
0.488751 0.763217 0.003219
0.589568 0.763217 0.003219
0.687105 0.763217 0.003219
0.777670 0.763217 0.003219
0.857574 0.763217 0.003219
0.923126 0.763217 0.003219
0.970635 0.763217 0.003219
0.996411 0.763217 0.003219
1.000000 0.763217 0.003219
1.000000 0.763217 0.003219
0.001184 0.838088 0.003219
0.021629 0.838088 0.003219
0.064627 0.838088 0.003219
0.126488 0.838088 0.003219
0.203522 0.838088 0.003219
0.292037 0.838088 0.003219
0.388344 0.838088 0.003219
0.488751 0.838088 0.003219
0.589568 0.838088 0.003219
0.687105 0.838088 0.003219
0.777670 0.838088 0.003219
0.857574 0.838088 0.003219
0.923126 0.838088 0.003219
0.970635 0.838088 0.003219
0.996411 0.838088 0.003219
1.000000 0.838088 0.003219
1.000000 0.838088 0.003219
0.001184 0.901929 0.003219
0.021629 0.901929 0.003219
0.064627 0.901929 0.003219
0.126488 0.901929 0.003219
0.203522 0.901929 0.003219
0.292037 0.901929 0.003219
0.388344 0.901929 0.003219
0.488751 0.901929 0.003219
0.589568 0.901929 0.003219
0.687105 0.901929 0.003219
0.777670 0.901929 0.003219
0.857574 0.901929 0.003219
0.923126 0.901929 0.003219
0.970635 0.901929 0.003219
0.996411 0.901929 0.003219
1.000000 0.901929 0.003219
1.000000 0.901929 0.003219
0.001184 0.951984 0.003219
0.021629 0.951984 0.003219
0.064627 0.951984 0.003219
0.126488 0.951984 0.003219
0.203522 0.951984 0.003219
0.292037 0.951984 0.003219
0.388344 0.951984 0.003219
0.488751 0.951984 0.003219
0.589568 0.951984 0.003219
0.687105 0.951984 0.003219
0.777670 0.951984 0.003219
0.857574 0.951984 0.003219
0.923126 0.951984 0.003219
0.970635 0.951984 0.003219
0.996411 0.951984 0.003219
1.000000 0.951984 0.003219
1.000000 0.951984 0.003219
0.001184 0.985494 0.003219
0.021629 0.985494 0.003219
0.064627 0.985494 0.003219
0.126488 0.985494 0.003219
0.203522 0.985494 0.003219
0.292037 0.985494 0.003219
0.388344 0.985494 0.003219
0.488751 0.985494 0.003219
0.589568 0.985494 0.003219
0.687105 0.985494 0.003219
0.777670 0.985494 0.003219
0.857574 0.985494 0.003219
0.923126 0.985494 0.003219
0.970635 0.985494 0.003219
0.996411 0.985494 0.003219
1.000000 0.985494 0.003219
1.000000 0.985494 0.003219
0.001184 0.999702 0.003219
0.021629 0.999702 0.003219
0.064627 0.999702 0.003219
0.126488 0.999702 0.003219
0.203522 0.999702 0.003219
0.292037 0.999702 0.003219
0.388344 0.999702 0.003219
0.488751 0.999702 0.003219
0.589568 0.999702 0.003219
0.687105 0.999702 0.003219
0.777670 0.999702 0.003219
0.857574 0.999702 0.003219
0.923126 0.999702 0.003219
0.970635 0.999702 0.003219
0.996411 0.999702 0.003219
1.000000 0.999702 0.003219
1.000000 0.999702 0.003219
0.001184 0.000298 0.021034
0.021629 0.000298 0.021034
0.064627 0.000298 0.021034
0.126488 0.000298 0.021034
0.203522 0.000298 0.021034
0.292037 0.000298 0.021034
0.388344 0.000298 0.021034
0.488751 0.000298 0.021034
0.589568 0.000298 0.021034
0.687105 0.000298 0.021034
0.777670 0.000298 0.021034
0.857574 0.000298 0.021034
0.923126 0.000298 0.021034
0.970635 0.000298 0.021034
0.996411 0.000298 0.021034
1.000000 0.000298 0.021034
1.000000 0.000298 0.021034
0.001184 0.014506 0.021034
0.021629 0.014506 0.021034
0.064627 0.014506 0.021034
0.126488 0.014506 0.021034
0.203522 0.014506 0.021034
0.292037 0.014506 0.021034
0.388344 0.014506 0.021034
0.488751 0.014506 0.021034
0.589568 0.014506 0.021034
0.687105 0.014506 0.021034
0.777670 0.014506 0.021034
0.857574 0.014506 0.021034
0.923126 0.014506 0.021034
0.970635 0.014506 0.021034
0.996411 0.014506 0.021034
1.000000 0.014506 0.021034
1.000000 0.014506 0.021034
0.001184 0.048016 0.021034
0.021629 0.048016 0.021034
0.064627 0.048016 0.021034
0.126488 0.048016 0.021034
0.203522 0.048016 0.021034
0.292037 0.048016 0.021034
0.388344 0.048016 0.021034
0.488751 0.048016 0.021034
0.589568 0.048016 0.021034
0.687105 0.048016 0.021034
0.777670 0.048016 0.021034
0.857574 0.048016 0.021034
0.923126 0.048016 0.021034
0.970635 0.048016 0.021034
0.996411 0.048016 0.021034
1.000000 0.048016 0.021034
1.000000 0.048016 0.021034
0.001184 0.098071 0.021034
0.021629 0.098071 0.021034
0.064627 0.098071 0.021034
0.126488 0.098071 0.021034
0.203522 0.098071 0.021034
0.292037 0.098071 0.021034
0.388344 0.098071 0.021034
0.488751 0.098071 0.021034
0.589568 0.098071 0.021034
0.687105 0.098071 0.021034
0.777670 0.098071 0.021034
0.857574 0.098071 0.021034
0.923126 0.098071 0.021034
0.970635 0.098071 0.021034
0.996411 0.098071 0.021034
1.000000 0.098071 0.021034
1.000000 0.098071 0.021034
0.001184 0.161912 0.021034
0.021629 0.161912 0.021034
0.064627 0.161912 0.021034
0.126488 0.161912 0.021034
0.203522 0.161912 0.021034
0.292037 0.161912 0.021034
0.388344 0.161912 0.021034
0.488751 0.161912 0.021034
0.589568 0.161912 0.021034
0.687105 0.161912 0.021034
0.777670 0.161912 0.021034
0.857574 0.161912 0.021034
0.923126 0.161912 0.021034
0.970635 0.161912 0.021034
0.996411 0.161912 0.021034
1.000000 0.161912 0.021034
1.000000 0.161912 0.021034
0.001184 0.236783 0.021034
0.021629 0.236783 0.021034
0.064627 0.236783 0.021034
0.126488 0.236783 0.021034
0.203522 0.236783 0.021034
0.292037 0.236783 0.021034
0.388344 0.236783 0.021034
0.488751 0.236783 0.021034
0.589568 0.236783 0.021034
0.687105 0.236783 0.021034
0.777670 0.236783 0.021034
0.857574 0.236783 0.021034
0.923126 0.236783 0.021034
0.970635 0.236783 0.021034
0.996411 0.236783 0.021034
1.000000 0.236783 0.021034
1.000000 0.236783 0.021034
0.001184 0.319927 0.021034
0.021629 0.319927 0.021034
0.064627 0.319927 0.021034
0.126488 0.319927 0.021034
0.203522 0.319927 0.021034
0.292037 0.319927 0.021034
0.388344 0.319927 0.021034
0.488751 0.319927 0.021034
0.589568 0.319927 0.021034
0.687105 0.319927 0.021034
0.777670 0.319927 0.021034
0.857574 0.319927 0.021034
0.923126 0.319927 0.021034
0.970635 0.319927 0.021034
0.996411 0.319927 0.021034
1.000000 0.319927 0.021034
1.000000 0.319927 0.021034
0.001184 0.408585 0.021034
0.021629 0.408585 0.021034
0.064627 0.408585 0.021034
0.126488 0.408585 0.021034
0.203522 0.408585 0.021034
0.292037 0.408585 0.021034
0.388344 0.408585 0.021034
0.488751 0.408585 0.021034
0.589568 0.408585 0.021034
0.687105 0.408585 0.021034
0.777670 0.408585 0.021034
0.857574 0.408585 0.021034
0.923126 0.408585 0.021034
0.970635 0.408585 0.021034
0.996411 0.408585 0.021034
1.000000 0.408585 0.021034
1.000000 0.408585 0.021034
0.001184 0.500000 0.021034
0.021629 0.500000 0.021034
0.064627 0.500000 0.021034
0.126488 0.500000 0.021034
0.203522 0.500000 0.021034
0.292037 0.500000 0.021034
0.388344 0.500000 0.021034
0.488751 0.500000 0.021034
0.589568 0.500000 0.021034
0.687105 0.500000 0.021034
0.777670 0.500000 0.021034
0.857574 0.500000 0.021034
0.923126 0.500000 0.021034
0.970635 0.500000 0.021034
0.996411 0.500000 0.021034
1.000000 0.500000 0.021034
1.000000 0.500000 0.021034
0.001184 0.591415 0.021034
0.021629 0.591415 0.021034
0.064627 0.591415 0.021034
0.126488 0.591415 0.021034
0.203522 0.591415 0.021034
0.292037 0.591415 0.021034
0.388344 0.591415 0.021034
0.488751 0.591415 0.021034
0.589568 0.591415 0.021034
0.687105 0.591415 0.021034
0.777670 0.591415 0.021034
0.857574 0.591415 0.021034
0.923126 0.591415 0.021034
0.970635 0.591415 0.021034
0.996411 0.591415 0.021034
1.000000 0.591415 0.021034
1.000000 0.591415 0.021034
0.001184 0.680073 0.021034
0.021629 0.680073 0.021034
0.064627 0.680073 0.021034
0.126488 0.680073 0.021034
0.203522 0.680073 0.021034
0.292037 0.680073 0.021034
0.388344 0.680073 0.021034
0.488751 0.680073 0.021034
0.589568 0.680073 0.021034
0.687105 0.680073 0.021034
0.777670 0.680073 0.021034
0.857574 0.680073 0.021034
0.923126 0.680073 0.021034
0.970635 0.680073 0.021034
0.996411 0.680073 0.021034
1.000000 0.680073 0.021034
1.000000 0.680073 0.021034
0.001184 0.763217 0.021034
0.021629 0.763217 0.021034
0.064627 0.763217 0.021034
0.126488 0.763217 0.021034
0.203522 0.763217 0.021034
0.292037 0.763217 0.021034
0.388344 0.763217 0.021034
0.488751 0.763217 0.021034
0.589568 0.763217 0.021034
0.687105 0.763217 0.021034
0.777670 0.763217 0.021034
0.857574 0.763217 0.021034
0.923126 0.763217 0.021034
0.970635 0.763217 0.021034
0.996411 0.763217 0.021034
1.000000 0.763217 0.021034
1.000000 0.763217 0.021034
0.001184 0.838088 0.021034
0.021629 0.838088 0.021034
0.064627 0.838088 0.021034
0.126488 0.838088 0.021034
0.203522 0.838088 0.021034
0.292037 0.838088 0.021034
0.388344 0.838088 0.021034
0.488751 0.838088 0.021034
0.589568 0.838088 0.021034
0.687105 0.838088 0.021034
0.777670 0.838088 0.021034
0.857574 0.838088 0.021034
0.923126 0.838088 0.021034
0.970635 0.838088 0.021034
0.996411 0.838088 0.021034
1.000000 0.838088 0.021034
1.000000 0.838088 0.021034
0.001184 0.901929 0.021034
0.021629 0.901929 0.021034
0.064627 0.901929 0.021034
0.126488 0.901929 0.021034
0.203522 0.901929 0.021034
0.292037 0.901929 0.021034
0.388344 0.901929 0.021034
0.488751 0.901929 0.021034
0.589568 0.901929 0.021034
0.687105 0.901929 0.021034
0.777670 0.901929 0.021034
0.857574 0.901929 0.021034
0.923126 0.901929 0.021034
0.970635 0.901929 0.021034
0.996411 0.901929 0.021034
1.000000 0.901929 0.021034
1.000000 0.901929 0.021034
0.001184 0.951984 0.021034
0.021629 0.951984 0.021034
0.064627 0.951984 0.021034
0.126488 0.951984 0.021034
0.203522 0.951984 0.021034
0.292037 0.951984 0.021034
0.388344 0.951984 0.021034
0.488751 0.951984 0.021034
0.589568 0.951984 0.021034
0.687105 0.951984 0.021034
0.777670 0.951984 0.021034
0.857574 0.951984 0.021034
0.923126 0.951984 0.021034
0.970635 0.951984 0.021034
0.996411 0.951984 0.021034
1.000000 0.951984 0.021034
1.000000 0.951984 0.021034
0.001184 0.985494 0.021034
0.021629 0.985494 0.021034
0.064627 0.985494 0.021034
0.126488 0.985494 0.021034
0.203522 0.985494 0.021034
0.292037 0.985494 0.021034
0.388344 0.985494 0.021034
0.488751 0.985494 0.021034
0.589568 0.985494 0.021034
0.687105 0.985494 0.021034
0.777670 0.985494 0.021034
0.857574 0.985494 0.021034
0.923126 0.985494 0.021034
0.970635 0.985494 0.021034
0.996411 0.985494 0.021034
1.000000 0.985494 0.021034
1.000000 0.985494 0.021034
0.001184 0.999702 0.021034
0.021629 0.999702 0.021034
0.064627 0.999702 0.021034
0.126488 0.999702 0.021034
0.203522 0.999702 0.021034
0.292037 0.999702 0.021034
0.388344 0.999702 0.021034
0.488751 0.999702 0.021034
0.589568 0.999702 0.021034
0.687105 0.999702 0.021034
0.777670 0.999702 0.021034
0.857574 0.999702 0.021034
0.923126 0.999702 0.021034
0.970635 0.999702 0.021034
0.996411 0.999702 0.021034
1.000000 0.999702 0.021034
1.000000 0.999702 0.021034
0.001184 0.000298 0.052861
0.021629 0.000298 0.052861
0.064627 0.000298 0.052861
0.126488 0.000298 0.052861
0.203522 0.000298 0.052861
0.292037 0.000298 0.052861
0.388344 0.000298 0.052861
0.488751 0.000298 0.052861
0.589568 0.000298 0.052861
0.687105 0.000298 0.052861
0.777670 0.000298 0.052861
0.857574 0.000298 0.052861
0.923126 0.000298 0.052861
0.970635 0.000298 0.052861
0.996411 0.000298 0.052861
1.000000 0.000298 0.052861
1.000000 0.000298 0.052861
0.001184 0.014506 0.052861
