apps/capacitor-film-lab-ios/ios/App/App/public/luts/warm-cinematic.cube
TITLE "Warm Cinematic"
LUT_3D_SIZE 9
DOMAIN_MIN 0.0 0.0 0.0
DOMAIN_MAX 1.0 1.0 1.0
0.001184 0.000298 0.000000
0.064627 0.000298 0.000000
0.203522 0.000298 0.000000
0.388344 0.000298 0.000000
0.589568 0.000298 0.000000
0.777670 0.000298 0.000000
0.923126 0.000298 0.000000
0.996411 0.000298 0.000000
1.000000 0.000298 0.000000
0.001184 0.048016 0.000000
0.064627 0.048016 0.000000
0.203522 0.048016 0.000000
0.388344 0.048016 0.000000
0.589568 0.048016 0.000000
0.777670 0.048016 0.000000
0.923126 0.048016 0.000000
0.996411 0.048016 0.000000
1.000000 0.048016 0.000000
0.001184 0.161912 0.000000
0.064627 0.161912 0.000000
0.203522 0.161912 0.000000
0.388344 0.161912 0.000000
0.589568 0.161912 0.000000
0.777670 0.161912 0.000000
0.923126 0.161912 0.000000
0.996411 0.161912 0.000000
1.000000 0.161912 0.000000
0.001184 0.319927 0.000000
0.064627 0.319927 0.000000
0.203522 0.319927 0.000000
0.388344 0.319927 0.000000
0.589568 0.319927 0.000000
0.777670 0.319927 0.000000
0.923126 0.319927 0.000000
0.996411 0.319927 0.000000
1.000000 0.319927 0.000000
0.001184 0.500000 0.000000
0.064627 0.500000 0.000000
0.203522 0.500000 0.000000
0.388344 0.500000 0.000000
0.589568 0.500000 0.000000
0.777670 0.500000 0.000000
0.923126 0.500000 0.000000
0.996411 0.500000 0.000000
1.000000 0.500000 0.000000
0.001184 0.680073 0.000000
0.064627 0.680073 0.000000
0.203522 0.680073 0.000000
0.388344 0.680073 0.000000
0.589568 0.680073 0.000000
0.777670 0.680073 0.000000
0.923126 0.680073 0.000000
0.996411 0.680073 0.000000
1.000000 0.680073 0.000000
0.001184 0.838088 0.000000
0.064627 0.838088 0.000000
0.203522 0.838088 0.000000
0.388344 0.838088 0.000000
0.589568 0.838088 0.000000
0.777670 0.838088 0.000000
0.923126 0.838088 0.000000
0.996411 0.838088 0.000000
1.000000 0.838088 0.000000
0.001184 0.951984 0.000000
0.064627 0.951984 0.000000
0.203522 0.951984 0.000000
0.388344 0.951984 0.000000
0.589568 0.951984 0.000000
0.777670 0.951984 0.000000
0.923126 0.951984 0.000000
0.996411 0.951984 0.000000
1.000000 0.951984 0.000000
0.001184 0.999702 0.000000
0.064627 0.999702 0.000000
0.203522 0.999702 0.000000
0.388344 0.999702 0.000000
0.589568 0.999702 0.000000
0.777670 0.999702 0.000000
0.923126 0.999702 0.000000
0.996411 0.999702 0.000000
1.000000 0.999702 0.000000
0.001184 0.000298 0.021034
0.064627 0.000298 0.021034
0.203522 0.000298 0.021034
0.388344 0.000298 0.021034
0.589568 0.000298 0.021034
0.777670 0.000298 0.021034
0.923126 0.000298 0.021034
0.996411 0.000298 0.021034
1.000000 0.000298 0.021034
0.001184 0.048016 0.021034
0.064627 0.048016 0.021034
0.203522 0.048016 0.021034
0.388344 0.048016 0.021034
0.589568 0.048016 0.021034
0.777670 0.048016 0.021034
0.923126 0.048016 0.021034
0.996411 0.048016 0.021034
1.000000 0.048016 0.021034
0.001184 0.161912 0.021034
0.064627 0.161912 0.021034
0.203522 0.161912 0.021034
0.388344 0.161912 0.021034
0.589568 0.161912 0.021034
0.777670 0.161912 0.021034
0.923126 0.161912 0.021034
0.996411 0.161912 0.021034
1.000000 0.161912 0.021034
0.001184 0.319927 0.021034
0.064627 0.319927 0.021034
0.203522 0.319927 0.021034
0.388344 0.319927 0.021034
0.589568 0.319927 0.021034
0.777670 0.319927 0.021034
0.923126 0.319927 0.021034
0.996411 0.319927 0.021034
1.000000 0.319927 0.021034
0.001184 0.500000 0.021034
0.064627 0.500000 0.021034
0.203522 0.500000 0.021034
0.388344 0.500000 0.021034
0.589568 0.500000 0.021034
0.777670 0.500000 0.021034
0.923126 0.500000 0.021034
0.996411 0.500000 0.021034
1.000000 0.500000 0.021034
0.001184 0.680073 0.021034
0.064627 0.680073 0.021034
0.203522 0.680073 0.021034
0.388344 0.680073 0.021034
0.589568 0.680073 0.021034
0.777670 0.680073 0.021034
0.923126 0.680073 0.021034
0.996411 0.680073 0.021034
1.000000 0.680073 0.021034
0.001184 0.838088 0.021034
0.064627 0.838088 0.021034
0.203522 0.838088 0.021034
0.388344 0.838088 0.021034
0.589568 0.838088 0.021034
0.777670 0.838088 0.021034
0.923126 0.838088 0.021034
0.996411 0.838088 0.021034
1.000000 0.838088 0.021034
0.001184 0.951984 0.021034
0.064627 0.951984 0.021034
0.203522 0.951984 0.021034
0.388344 0.951984 0.021034
0.589568 0.951984 0.021034
0.777670 0.951984 0.021034
0.923126 0.951984 0.021034
0.996411 0.951984 0.021034
1.000000 0.951984 0.021034
0.001184 0.999702 0.021034
0.064627 0.999702 0.021034
0.203522 0.999702 0.021034
0.388344 0.999702 0.021034
0.589568 0.999702 0.021034
0.777670 0.999702 0.021034
0.923126 0.999702 0.021034
0.996411 0.999702 0.021034
1.000000 0.999702 0.021034
0.001184 0.000298 0.096902
0.064627 0.000298 0.096902
0.203522 0.000298 0.096902
0.388344 0.000298 0.096902
0.589568 0.000298 0.096902
0.777670 0.000298 0.096902
0.923126 0.000298 0.096902
0.996411 0.000298 0.096902
1.000000 0.000298 0.096902
0.001184 0.048016 0.096902
0.064627 0.048016 0.096902
0.203522 0.048016 0.096902
0.388344 0.048016 0.096902
0.589568 0.048016 0.096902
0.777670 0.048016 0.096902
0.923126 0.048016 0.096902
0.996411 0.048016 0.096902
1.000000 0.048016 0.096902
0.001184 0.161912 0.096902
0.064627 0.161912 0.096902
0.203522 0.161912 0.096902
0.388344 0.161912 0.096902
0.589568 0.161912 0.096902
0.777670 0.161912 0.096902
0.923126 0.161912 0.096902
0.996411 0.161912 0.096902
1.000000 0.161912 0.096902
0.001184 0.319927 0.096902
0.064627 0.319927 0.096902
0.203522 0.319927 0.096902
0.388344 0.319927 0.096902
0.589568 0.319927 0.096902
0.777670 0.319927 0.096902
0.923126 0.319927 0.096902
0.996411 0.319927 0.096902
1.000000 0.319927 0.096902
0.001184 0.500000 0.096902
0.064627 0.500000 0.096902
0.203522 0.500000 0.096902
0.388344 0.500000 0.096902
0.589568 0.500000 0.096902
0.777670 0.500000 0.096902
0.923126 0.500000 0.096902
0.996411 0.500000 0.096902
1.000000 0.500000 0.096902
0.001184 0.680073 0.096902
0.064627 0.680073 0.096902
0.203522 0.680073 0.096902
0.388344 0.680073 0.096902
0.589568 0.680073 0.096902
0.777670 0.680073 0.096902
0.923126 0.680073 0.096902
0.996411 0.680073 0.096902
1.000000 0.680073 0.096902
0.001184 0.838088 0.096902
0.064627 0.838088 0.096902
0.203522 0.838088 0.096902
0.388344 0.838088 0.096902
0.589568 0.838088 0.096902
0.777670 0.838088 0.096902
0.923126 0.838088 0.096902
0.996411 0.838088 0.096902
1.000000 0.838088 0.096902
0.001184 0.951984 0.096902
0.064627 0.951984 0.096902
0.203522 0.951984 0.096902
0.388344 0.951984 0.096902
0.589568 0.951984 0.096902
0.777670 0.951984 0.096902
0.923126 0.951984 0.096902
0.996411 0.951984 0.096902
1.000000 0.951984 0.096902
0.001184 0.999702 0.096902
0.064627 0.999702 0.096902
0.203522 0.999702 0.096902
0.388344 0.999702 0.096902
0.589568 0.999702 0.096902
0.777670 0.999702 0.096902
0.923126 0.999702 0.096902
0.996411 0.999702 0.096902
1.000000 0.999702 0.096902
0.001184 0.000298 0.214427
0.064627 0.000298 0.214427
0.203522 0.000298 0.214427
0.388344 0.000298 0.214427
0.589568 0.000298 0.214427
0.777670 0.000298 0.214427
0.923126 0.000298 0.214427
0.996411 0.000298 0.214427
1.000000 0.000298 0.214427
0.001184 0.048016 0.214427
0.064627 0.048016 0.214427
0.203522 0.048016 0.214427
0.388344 0.048016 0.214427
0.589568 0.048016 0.214427
0.777670 0.048016 0.214427
0.923126 0.048016 0.214427
0.996411 0.048016 0.214427
1.000000 0.048016 0.214427
0.001184 0.161912 0.214427
0.064627 0.161912 0.214427
0.203522 0.161912 0.214427
0.388344 0.161912 0.214427
0.589568 0.161912 0.214427
0.777670 0.161912 0.214427
0.923126 0.161912 0.214427
0.996411 0.161912 0.214427
1.000000 0.161912 0.214427
0.001184 0.319927 0.214427
0.064627 0.319927 0.214427
0.203522 0.319927 0.214427
0.388344 0.319927 0.214427
0.589568 0.319927 0.214427
0.777670 0.319927 0.214427
0.923126 0.319927 0.214427
0.996411 0.319927 0.214427
1.000000 0.319927 0.214427
0.001184 0.500000 0.214427
0.064627 0.500000 0.214427
0.203522 0.500000 0.214427
0.388344 0.500000 0.214427
0.589568 0.500000 0.214427
0.777670 0.500000 0.214427
0.923126 0.500000 0.214427
0.996411 0.500000 0.214427
1.000000 0.500000 0.214427
0.001184 0.680073 0.214427
0.064627 0.680073 0.214427
0.203522 0.680073 0.214427
0.388344 0.680073 0.214427
0.589568 0.680073 0.214427
0.777670 0.680073 0.214427
0.923126 0.680073 0.214427
0.996411 0.680073 0.214427
1.000000 0.680073 0.214427
0.001184 0.838088 0.214427
0.064627 0.838088 0.214427
0.203522 0.838088 0.214427
0.388344 0.838088 0.214427
0.589568 0.838088 0.214427
0.777670 0.838088 0.214427
0.923126 0.838088 0.214427
0.996411 0.838088 0.214427
1.000000 0.838088 0.214427
0.001184 0.951984 0.214427
0.064627 0.951984 0.214427
0.203522 0.951984 0.214427
0.388344 0.951984 0.214427
0.589568 0.951984 0.214427
0.777670 0.951984 0.214427
0.923126 0.951984 0.214427
0.996411 0.951984 0.214427
1.000000 0.951984 0.214427
0.001184 0.999702 0.214427
0.064627 0.999702 0.214427
0.203522 0.999702 0.214427
0.388344 0.999702 0.214427
0.589568 0.999702 0.214427
0.777670 0.999702 0.214427
0.923126 0.999702 0.214427
0.996411 0.999702 0.214427
1.000000 0.999702 0.214427
0.001184 0.000298 0.359215
0.064627 0.000298 0.359215
0.203522 0.000298 0.359215
0.388344 0.000298 0.359215
0.589568 0.000298 0.359215
0.777670 0.000298 0.359215
0.923126 0.000298 0.359215
0.996411 0.000298 0.359215
1.000000 0.000298 0.359215
0.001184 0.048016 0.359215
0.064627 0.048016 0.359215
0.203522 0.048016 0.359215
0.388344 0.048016 0.359215
0.589568 0.048016 0.359215
0.777670 0.048016 0.359215
0.923126 0.048016 0.359215
0.996411 0.048016 0.359215
1.000000 0.048016 0.359215
0.001184 0.161912 0.359215
0.064627 0.161912 0.359215
0.203522 0.161912 0.359215
0.388344 0.161912 0.359215
0.589568 0.161912 0.359215
0.777670 0.161912 0.359215
0.923126 0.161912 0.359215
0.996411 0.161912 0.359215
1.000000 0.161912 0.359215
0.001184 0.319927 0.359215
0.064627 0.319927 0.359215
0.203522 0.319927 0.359215
0.388344 0.319927 0.359215
0.589568 0.319927 0.359215
0.777670 0.319927 0.359215
0.923126 0.319927 0.359215
0.996411 0.319927 0.359215
1.000000 0.319927 0.359215
0.001184 0.500000 0.359215
0.064627 0.500000 0.359215
0.203522 0.500000 0.359215
0.388344 0.500000 0.359215
0.589568 0.500000 0.359215
0.777670 0.500000 0.359215
0.923126 0.500000 0.359215
0.996411 0.500000 0.359215
1.000000 0.500000 0.359215
0.001184 0.680073 0.359215
0.064627 0.680073 0.359215
0.203522 0.680073 0.359215
0.388344 0.680073 0.359215
0.589568 0.680073 0.359215
0.777670 0.680073 0.359215
0.923126 0.680073 0.359215
0.996411 0.680073 0.359215
1.000000 0.680073 0.359215
0.001184 0.838088 0.359215
0.064627 0.838088 0.359215
0.203522 0.838088 0.359215
0.388344 0.838088 0.359215
0.589568 0.838088 0.359215
0.777670 0.838088 0.359215
0.923126 0.838088 0.359215
0.996411 0.838088 0.359215
1.000000 0.838088 0.359215
0.001184 0.951984 0.359215
0.064627 0.951984 0.359215
0.203522 0.951984 0.359215
0.388344 0.951984 0.359215
0.589568 0.951984 0.359215
0.777670 0.951984 0.359215
0.923126 0.951984 0.359215
0.996411 0.951984 0.359215
1.000000 0.951984 0.359215
0.001184 0.999702 0.359215
0.064627 0.999702 0.359215
0.203522 0.999702 0.359215
0.388344 0.999702 0.359215
0.589568 0.999702 0.359215
0.777670 0.999702 0.359215
0.923126 0.999702 0.359215
0.996411 0.999702 0.359215
1.000000 0.999702 0.359215
0.001184 0.000298 0.516872
0.064627 0.000298 0.516872
0.203522 0.000298 0.516872
0.388344 0.000298 0.516872
0.589568 0.000298 0.516872
0.777670 0.000298 0.516872
0.923126 0.000298 0.516872
0.996411 0.000298 0.516872
1.000000 0.000298 0.516872
0.001184 0.048016 0.516872
0.064627 0.048016 0.516872
0.203522 0.048016 0.516872
0.388344 0.048016 0.516872
0.589568 0.048016 0.516872
0.777670 0.048016 0.516872
0.923126 0.048016 0.516872
0.996411 0.048016 0.516872
1.000000 0.048016 0.516872
0.001184 0.161912 0.516872
0.064627 0.161912 0.516872
0.203522 0.161912 0.516872
0.388344 0.161912 0.516872
0.589568 0.161912 0.516872
0.777670 0.161912 0.516872
0.923126 0.161912 0.516872
0.996411 0.161912 0.516872
1.000000 0.161912 0.516872
0.001184 0.319927 0.516872
0.064627 0.319927 0.516872
0.203522 0.319927 0.516872
0.388344 0.319927 0.516872
0.589568 0.319927 0.516872
0.777670 0.319927 0.516872
0.923126 0.319927 0.516872
0.996411 0.319927 0.516872
1.000000 0.319927 0.516872
0.001184 0.500000 0.516872
0.064627 0.500000 0.516872
0.203522 0.500000 0.516872
0.388344 0.500000 0.516872
0.589568 0.500000 0.516872
0.777670 0.500000 0.516872
0.923126 0.500000 0.516872
0.996411 0.500000 0.516872
1.000000 0.500000 0.516872
0.001184 0.680073 0.516872
0.064627 0.680073 0.516872
0.203522 0.680073 0.516872
0.388344 0.680073 0.516872
0.589568 0.680073 0.516872
0.777670 0.680073 0.516872
0.923126 0.680073 0.516872
0.996411 0.680073 0.516872
1.000000 0.680073 0.516872
0.001184 0.838088 0.516872
0.064627 0.838088 0.516872
0.203522 0.838088 0.516872
0.388344 0.838088 0.516872
0.589568 0.838088 0.516872
0.777670 0.838088 0.516872
0.923126 0.838088 0.516872
0.996411 0.838088 0.516872
1.000000 0.838088 0.516872
0.001184 0.951984 0.516872
0.064627 0.951984 0.516872
0.203522 0.951984 0.516872
0.388344 0.951984 0.516872
0.589568 0.951984 0.516872
0.777670 0.951984 0.516872
0.923126 0.951984 0.516872
0.996411 0.951984 0.516872
1.000000 0.951984 0.516872
0.001184 0.999702 0.516872
0.064627 0.999702 0.516872
0.203522 0.999702 0.516872
0.388344 0.999702 0.516872
0.589568 0.999702 0.516872
0.777670 0.999702 0.516872
0.923126 0.999702 0.516872
0.996411 0.999702 0.516872
1.000000 0.999702 0.516872
0.001184 0.000298 0.673006
0.064627 0.000298 0.673006
0.203522 0.000298 0.673006
0.388344 0.000298 0.673006
0.589568 0.000298 0.673006
0.777670 0.000298 0.673006
0.923126 0.000298 0.673006
0.996411 0.000298 0.673006
1.000000 0.000298 0.673006
0.001184 0.048016 0.673006
0.064627 0.048016 0.673006
0.203522 0.048016 0.673006
0.388344 0.048016 0.673006
0.589568 0.048016 0.673006
0.777670 0.048016 0.673006
0.923126 0.048016 0.673006
0.996411 0.048016 0.673006
1.000000 0.048016 0.673006
0.001184 0.161912 0.673006
0.064627 0.161912 0.673006
0.203522 0.161912 0.673006
0.388344 0.161912 0.673006
0.589568 0.161912 0.673006
0.777670 0.161912 0.673006
0.923126 0.161912 0.673006
0.996411 0.161912 0.673006
1.000000 0.161912 0.673006
0.001184 0.319927 0.673006
0.064627 0.319927 0.673006
0.203522 0.319927 0.673006
0.388344 0.319927 0.673006
0.589568 0.319927 0.673006
0.777670 0.319927 0.673006
0.923126 0.319927 0.673006
0.996411 0.319927 0.673006
1.000000 0.319927 0.673006
0.001184 0.500000 0.673006
0.064627 0.500000 0.673006
0.203522 0.500000 0.673006
0.388344 0.500000 0.673006
0.589568 0.500000 0.673006
0.777670 0.500000 0.673006
0.923126 0.500000 0.673006
0.996411 0.500000 0.673006
1.000000 0.500000 0.673006
0.001184 0.680073 0.673006
0.064627 0.680073 0.673006
0.203522 0.680073 0.673006
0.388344 0.680073 0.673006
0.589568 0.680073 0.673006
0.777670 0.680073 0.673006
0.923126 0.680073 0.673006
0.996411 0.680073 0.673006
1.000000 0.680073 0.673006
0.001184 0.838088 0.673006
0.064627 0.838088 0.673006
0.203522 0.838088 0.673006
0.388344 0.838088 0.673006
0.589568 0.838088 0.673006
0.777670 0.838088 0.673006
0.923126 0.838088 0.673006
0.996411 0.838088 0.673006
1.000000 0.838088 0.673006
0.001184 0.951984 0.673006
0.064627 0.951984 0.673006
0.203522 0.951984 0.673006
0.388344 0.951984 0.673006
0.589568 0.951984 0.673006
0.777670 0.951984 0.673006
0.923126 0.951984 0.673006
0.996411 0.951984 0.673006
1.000000 0.951984 0.673006
0.001184 0.999702 0.673006
0.064627 0.999702 0.673006
0.203522 0.999702 0.673006
0.388344 0.999702 0.673006
0.589568 0.999702 0.673006
0.777670 0.999702 0.673006
0.923126 0.999702 0.673006
0.996411 0.999702 0.673006
1.000000 0.999702 0.673006
0.001184 0.000298 0.813221
0.064627 0.000298 0.813221
0.203522 0.000298 0.813221
0.388344 0.000298 0.813221
0.589568 0.000298 0.813221
0.777670 0.000298 0.813221
0.923126 0.000298 0.813221
0.996411 0.000298 0.813221
1.000000 0.000298 0.813221
0.001184 0.048016 0.813221
0.064627 0.048016 0.813221
0.203522 0.048016 0.813221
0.388344 0.048016 0.813221
0.589568 0.048016 0.813221
0.777670 0.048016 0.813221
0.923126 0.048016 0.813221
0.996411 0.048016 0.813221
1.000000 0.048016 0.813221
0.001184 0.161912 0.813221
0.064627 0.161912 0.813221
0.203522 0.161912 0.813221
0.388344 0.161912 0.813221
0.589568 0.161912 0.813221
0.777670 0.161912 0.813221
0.923126 0.161912 0.813221
0.996411 0.161912 0.813221
1.000000 0.161912 0.813221
0.001184 0.319927 0.813221
0.064627 0.319927 0.813221
0.203522 0.319927 0.813221
0.388344 0.319927 0.813221
0.589568 0.319927 0.813221
0.777670 0.319927 0.813221
0.923126 0.319927 0.813221
0.996411 0.319927 0.813221
1.000000 0.319927 0.813221
0.001184 0.500000 0.813221
0.064627 0.500000 0.813221
0.203522 0.500000 0.813221
0.388344 0.500000 0.813221
0.589568 0.500000 0.813221
0.777670 0.500000 0.813221
0.923126 0.500000 0.813221
0.996411 0.500000 0.813221
1.000000 0.500000 0.813221
0.001184 0.680073 0.813221
0.064627 0.680073 0.813221
0.203522 0.680073 0.813221
0.388344 0.680073 0.813221
0.589568 0.680073 0.813221
0.777670 0.680073 0.813221
0.923126 0.680073 0.813221
0.996411 0.680073 0.813221
1.000000 0.680073 0.813221
0.001184 0.838088 0.813221
0.064627 0.838088 0.813221
0.203522 0.838088 0.813221
0.388344 0.838088 0.813221
0.589568 0.838088 0.813221
0.777670 0.838088 0.813221
0.923126 0.838088 0.813221
0.996411 0.838088 0.813221
1.000000 0.838088 0.813221
0.001184 0.951984 0.813221
0.064627 0.951984 0.813221
0.203522 0.951984 0.813221
0.388344 0.951984 0.813221
0.589568 0.951984 0.813221
0.777670 0.951984 0.813221
0.923126 0.951984 0.813221
0.996411 0.951984 0.813221
1.000000 0.951984 0.813221
0.001184 0.999702 0.813221
0.064627 0.999702 0.813221
0.203522 0.999702 0.813221
0.388344 0.999702 0.813221
0.589568 0.999702 0.813221
0.777670 0.999702 0.813221
0.923126 0.999702 0.813221
0.996411 0.999702 0.813221
1.000000 0.999702 0.813221
0.001184 0.000298 0.923126
0.064627 0.000298 0.923126
0.203522 0.000298 0.923126
0.388344 0.000298 0.923126
0.589568 0.000298 0.923126
0.777670 0.000298 0.923126
0.923126 0.000298 0.923126
0.996411 0.000298 0.923126
1.000000 0.000298 0.923126
0.001184 0.048016 0.923126
0.064627 0.048016 0.923126
0.203522 0.048016 0.923126
0.388344 0.048016 0.923126
0.589568 0.048016 0.923126
0.777670 0.048016 0.923126
0.923126 0.048016 0.923126
0.996411 0.048016 0.923126
1.000000 0.048016 0.923126
0.001184 0.161912 0.923126
0.064627 0.161912 0.923126
0.203522 0.161912 0.923126
0.388344 0.161912 0.923126
0.589568 0.161912 0.923126
0.777670 0.161912 0.923126
0.923126 0.161912 0.923126
0.996411 0.161912 0.923126
1.000000 0.161912 0.923126
0.001184 0.319927 0.923126
0.064627 0.319927 0.923126
0.203522 0.319927 0.923126
0.388344 0.319927 0.923126
0.589568 0.319927 0.923126
0.777670 0.319927 0.923126
0.923126 0.319927 0.923126
0.996411 0.319927 0.923126
1.000000 0.319927 0.923126
0.001184 0.500000 0.923126
0.064627 0.500000 0.923126
0.203522 0.500000 0.923126
0.388344 0.500000 0.923126
0.589568 0.500000 0.923126
0.777670 0.500000 0.923126
0.923126 0.500000 0.923126
0.996411 0.500000 0.923126
1.000000 0.500000 0.923126
0.001184 0.680073 0.923126
0.064627 0.680073 0.923126
0.203522 0.680073 0.923126
0.388344 0.680073 0.923126
0.589568 0.680073 0.923126
0.777670 0.680073 0.923126
0.923126 0.680073 0.923126
0.996411 0.680073 0.923126
1.000000 0.680073 0.923126
0.001184 0.838088 0.923126
0.064627 0.838088 0.923126
0.203522 0.838088 0.923126
0.388344 0.838088 0.923126
0.589568 0.838088 0.923126
0.777670 0.838088 0.923126
0.923126 0.838088 0.923126
0.996411 0.838088 0.923126
1.000000 0.838088 0.923126
0.001184 0.951984 0.923126
0.064627 0.951984 0.923126
0.203522 0.951984 0.923126
0.388344 0.951984 0.923126
0.589568 0.951984 0.923126
0.777670 0.951984 0.923126
0.923126 0.951984 0.923126
0.996411 0.951984 0.923126
1.000000 0.951984 0.923126
0.001184 0.999702 0.923126
0.064627 0.999702 0.923126
0.203522 0.999702 0.923126
0.388344 0.999702 0.923126
0.589568 0.999702 0.923126
0.777670 0.999702 0.923126
0.923126 0.999702 0.923126
0.996411 0.999702 0.923126
1.000000 0.999702 0.923126
