apps/capacitor-film-lab-ios/ios/App/App/Resources/CreativeLuts/filmtone-creative-pack-01-urban-density.cube
TITLE "Filmtone Urban Density"
# pack=creative-pack-01
# slug=filmtone-creative-pack-01-urban-density
# bakerVersion=1.2.0-filmtone-urban-density
# generator=filmtone-urban-density-v1
LUT_3D_SIZE 9
DOMAIN_MIN 0.0 0.0 0.0
DOMAIN_MAX 1.0 1.0 1.0
0.021754 0.023211 0.022629
0.059664 0.026965 0.023020
0.132871 0.031274 0.023426
0.213626 0.023766 0.012085
0.303415 0.019945 0.007598
0.423104 0.015521 0.008793
0.513341 0.014375 0.009869
0.585448 0.016274 0.011257
0.653071 0.018809 0.013323
0.036361 0.069752 0.044726
0.079646 0.074791 0.044273
0.156898 0.073763 0.042551
0.298713 0.048673 0.018714
0.418974 0.026630 0.009366
0.558833 0.019297 0.010964
0.665279 0.019405 0.013829
0.747889 0.024525 0.018286
0.823564 0.029926 0.022939
0.031397 0.124332 0.057117
0.030330 0.135360 0.056287
0.147758 0.131423 0.055519
0.278857 0.125146 0.043184
0.436196 0.098148 0.022036
0.647373 0.050555 0.020550
0.797178 0.038917 0.026925
0.892040 0.045572 0.033962
0.946975 0.053377 0.040848
0.031803 0.190791 0.059193
0.032979 0.207842 0.061760
0.064968 0.217688 0.062156
0.220962 0.208691 0.065147
0.426260 0.203414 0.045425
0.570918 0.189375 0.049638
0.737611 0.144055 0.056435
0.919857 0.094301 0.060068
0.983955 0.100147 0.067830
0.043861 0.277639 0.069326
0.046273 0.294775 0.073711
0.047161 0.314121 0.069494
0.111196 0.300701 0.077059
0.302282 0.304119 0.073745
0.568767 0.313556 0.074843
0.681138 0.312240 0.096408
0.776445 0.287593 0.113681
0.937741 0.224615 0.113597
0.057663 0.377040 0.081069
0.060179 0.394942 0.085344
0.054953 0.416731 0.083369
0.092238 0.428399 0.077884
0.155621 0.394778 0.091601
0.409501 0.414735 0.067949
0.706677 0.437189 0.119984
0.794287 0.449084 0.155673
0.858992 0.440040 0.172645
0.072612 0.485137 0.089367
0.075304 0.504347 0.093432
0.075437 0.525503 0.095173
0.078605 0.548272 0.083223
0.152418 0.550457 0.083384
0.201545 0.507849 0.104068
0.533533 0.538451 0.081942
0.833699 0.569216 0.172662
0.920974 0.586124 0.212046
0.088281 0.594218 0.091758
0.092287 0.614385 0.096680
0.096768 0.634869 0.102053
0.091887 0.660098 0.094879
0.136697 0.672600 0.089944
0.217160 0.657005 0.098538
0.250078 0.633139 0.112128
0.659204 0.670878 0.110059
0.937640 0.702243 0.213249
0.116997 0.698761 0.112159
0.123839 0.719000 0.118878
0.131022 0.739134 0.125940
0.132337 0.762659 0.127642
0.151076 0.783320 0.121865
0.222661 0.791284 0.121013
0.286188 0.754271 0.130104
0.315424 0.759418 0.139562
0.768215 0.799772 0.161040
0.022740 0.026438 0.037411
0.049302 0.030180 0.040360
0.110580 0.034913 0.037549
0.220594 0.026079 0.019720
0.319323 0.020095 0.007411
0.438447 0.015660 0.008997
0.526491 0.014681 0.010081
0.598378 0.016690 0.011582
0.668522 0.019529 0.013937
0.033346 0.071964 0.071280
0.074580 0.079418 0.072881
0.190563 0.072021 0.054750
0.332677 0.049347 0.026828
0.440563 0.026747 0.009842
0.582334 0.019145 0.011422
0.685115 0.020380 0.014673
0.767361 0.025356 0.019075
0.845896 0.029978 0.023115
0.027912 0.127603 0.068589
0.044314 0.138597 0.079811
0.144729 0.137912 0.059573
0.302652 0.129085 0.047112
0.522657 0.089822 0.015425
0.700523 0.044666 0.020501
0.847816 0.036447 0.028004
0.931121 0.044043 0.034243
0.974214 0.050390 0.039197
0.032888 0.198331 0.062835
0.035687 0.217441 0.075594
0.041438 0.239571 0.070856
0.236114 0.219156 0.064321
0.435168 0.218644 0.048113
0.604125 0.192803 0.046593
0.781127 0.143468 0.057766
0.965694 0.084817 0.059910
1.000000 0.094145 0.068899
0.045142 0.286815 0.070926
0.047922 0.306428 0.077327
0.048697 0.325002 0.078509
0.090253 0.313392 0.077105
0.313349 0.313494 0.072722
0.576843 0.328623 0.080908
0.689541 0.326034 0.099327
0.796755 0.292690 0.115577
0.949148 0.228565 0.115941
0.059097 0.387388 0.082089
0.061863 0.407098 0.086458
0.064141 0.423264 0.090794
0.064675 0.444075 0.081715
0.146869 0.405134 0.092235
0.421917 0.423174 0.068027
0.716334 0.450398 0.128630
0.802131 0.463312 0.160611
0.872086 0.451046 0.175614
0.074104 0.495952 0.089943
0.077000 0.516681 0.093719
0.079462 0.534153 0.098323
0.071622 0.555426 0.093952
0.119561 0.564807 0.084615
0.200709 0.516616 0.104978
0.546313 0.547862 0.083399
0.845444 0.582253 0.181927
0.926796 0.600556 0.216949
0.090308 0.604921 0.092383
0.094857 0.626115 0.097258
0.099415 0.644749 0.103434
0.101755 0.664168 0.107880
0.111148 0.685542 0.096829
0.192695 0.671267 0.100528
0.253623 0.641408 0.113794
0.671715 0.680491 0.113295
0.941863 0.713523 0.220977
0.120878 0.709046 0.115967
0.128310 0.730067 0.123286
0.135129 0.749198 0.130008
0.141939 0.768274 0.136735
0.140009 0.792018 0.131624
0.193653 0.806298 0.126192
0.271339 0.767861 0.132961
0.320126 0.767673 0.142492
0.777069 0.808948 0.165176
0.020745 0.030242 0.062620
0.043862 0.032968 0.077708
0.107810 0.036668 0.083262
0.212336 0.027369 0.058715
0.341455 0.011900 0.027091
0.462944 0.005697 0.003918
0.541194 0.010485 0.007213
0.613019 0.014835 0.010366
0.685701 0.019402 0.013999
0.027309 0.074470 0.122462
0.064350 0.081042 0.129590
0.149688 0.074714 0.116916
0.293358 0.051962 0.080909
0.465924 0.021268 0.033995
0.614494 0.016359 0.011418
0.705316 0.021463 0.015623
0.786671 0.026423 0.020039
0.866572 0.030816 0.023889
0.016321 0.126342 0.139765
0.050166 0.139450 0.139238
0.137195 0.153895 0.144021
0.363234 0.132846 0.102599
0.578575 0.097574 0.055304
0.727817 0.047056 0.020481
0.891136 0.033059 0.025758
0.967970 0.038511 0.030473
1.000000 0.043060 0.034265
0.017694 0.201758 0.108190
0.032919 0.228579 0.106916
0.064562 0.257053 0.143779
0.255055 0.244744 0.090431
0.465864 0.234389 0.073903
0.703865 0.194869 0.058848
0.831433 0.152438 0.063862
1.000000 0.079242 0.058415
1.000000 0.082737 0.062843
0.037984 0.293902 0.084975
0.049868 0.319244 0.090854
0.055826 0.349080 0.128679
0.075246 0.376270 0.120095
0.372357 0.338082 0.063297
0.599057 0.360136 0.091976
0.711994 0.344398 0.103655
0.822168 0.308131 0.120696
0.938710 0.249740 0.123612
0.058382 0.396201 0.085530
0.063701 0.419907 0.092280
0.067473 0.445144 0.114583
0.068061 0.468051 0.111841
0.122089 0.433784 0.089337
0.460593 0.434988 0.067878
0.738937 0.479785 0.143151
0.816959 0.488923 0.168030
0.891506 0.469059 0.179593
0.075437 0.505597 0.090674
0.078716 0.529097 0.094545
0.081648 0.549475 0.104402
0.084186 0.568006 0.103038
0.085499 0.593628 0.086884
0.188693 0.528039 0.105424
0.568966 0.555609 0.085016
0.865784 0.605146 0.196239
0.935344 0.624642 0.223698
0.092311 0.614706 0.093384
0.097617 0.637790 0.098167
0.102930 0.658041 0.105026
0.107743 0.674728 0.111565
0.104882 0.698936 0.109286
0.156162 0.687368 0.104277
0.252528 0.650372 0.115410
0.688067 0.689653 0.116635
0.948010 0.727111 0.230874
0.124590 0.718727 0.119624
0.132916 0.741206 0.127844
0.140528 0.761609 0.135353
0.147017 0.779520 0.141739
0.150825 0.798354 0.145642
0.166405 0.824192 0.135985
0.244707 0.782696 0.136390
0.324616 0.775744 0.145482
0.786315 0.818365 0.169432
0.016656 0.029119 0.109318
0.031125 0.033769 0.159424
0.089700 0.033621 0.183481
0.211877 0.021795 0.162858
0.343329 0.008357 0.119271
0.462724 0.000000 0.071293
0.551161 0.001452 0.028603
0.630779 0.006192 0.006069
0.705163 0.012474 0.009374
0.020162 0.069029 0.215631
0.040936 0.077521 0.238773
0.127223 0.066657 0.249816
0.280153 0.047158 0.211030
0.464045 0.011129 0.160221
0.613165 0.002214 0.097366
0.717828 0.011323 0.042884
0.808317 0.020853 0.018866
0.888280 0.028548 0.022476
0.014416 0.122191 0.228825
0.025760 0.137315 0.254899
0.113681 0.153342 0.255635
0.284623 0.138708 0.235628
0.487543 0.101370 0.186831
0.770509 0.030203 0.135012
0.904398 0.032835 0.079436
0.983512 0.038669 0.040069
1.000000 0.042599 0.034216
0.014127 0.201940 0.217016
0.016808 0.225296 0.246741
0.066763 0.260606 0.257414
0.244312 0.282023 0.279311
0.538462 0.254238 0.208986
0.777556 0.207353 0.163539
0.899977 0.129106 0.103908
1.000000 0.060800 0.053568
1.000000 0.057795 0.047789
0.018936 0.297690 0.172653
0.026009 0.323853 0.179286
0.063057 0.367170 0.193473
0.146117 0.401896 0.264191
0.404936 0.380565 0.155599
0.629301 0.380621 0.145855
0.777497 0.345290 0.129575
0.872052 0.295865 0.129494
0.984031 0.225552 0.121129
0.038382 0.403620 0.130421
0.053582 0.430592 0.125805
0.071223 0.467514 0.157141
0.092993 0.505632 0.229335
0.127832 0.537070 0.211162
0.538707 0.477716 0.086521
0.766325 0.516134 0.163318
0.841400 0.503026 0.177443
0.921700 0.471432 0.185694
0.062548 0.513394 0.107380
0.077589 0.539402 0.103091
0.085392 0.572797 0.139837
0.090548 0.598834 0.197835
0.096702 0.623671 0.184097
0.163959 0.572159 0.095428
0.624328 0.576074 0.092676
0.887809 0.639704 0.215077
0.947698 0.648341 0.231227
0.088693 0.622999 0.101115
0.100177 0.647885 0.100261
0.107938 0.674079 0.131962
0.117292 0.698805 0.177835
0.122031 0.716188 0.163141
0.127379 0.740020 0.131241
0.237183 0.660412 0.116884
0.730070 0.698757 0.128613
0.957970 0.752055 0.245852
0.126372 0.727585 0.124030
0.137092 0.751289 0.131966
0.145841 0.774017 0.141453
0.154749 0.797291 0.165066
0.161935 0.816528 0.159402
0.159493 0.841001 0.154163
0.218257 0.825228 0.135160
0.322578 0.782667 0.148393
0.814992 0.825360 0.173292
0.011096 0.019373 0.205845
0.016768 0.020845 0.320957
0.081994 0.011457 0.379269
0.204569 0.000040 0.349053
0.336969 0.000000 0.281639
0.446722 0.000000 0.223215
0.538277 0.000113 0.172413
0.624968 0.000950 0.122970
0.710289 0.004548 0.076608
0.013947 0.049334 0.405829
0.021962 0.055336 0.454474
0.105232 0.046685 0.462906
0.281353 0.013571 0.452245
0.454532 0.000000 0.374027
0.589618 0.000677 0.295038
0.697224 0.003242 0.227783
0.794987 0.008312 0.164175
0.889612 0.016481 0.103013
0.011990 0.105762 0.397152
0.016566 0.119073 0.438994
0.076829 0.143305 0.409781
0.266027 0.121666 0.415244
0.470035 0.091114 0.395876
0.750544 0.010481 0.386707
0.871645 0.012585 0.312302
0.971555 0.025488 0.240000
1.000000 0.036207 0.157250
0.014342 0.191639 0.369722
0.015308 0.211367 0.403754
0.039391 0.249631 0.420451
0.224527 0.277951 0.398987
0.420085 0.264430 0.382109
0.649771 0.207139 0.362267
0.873376 0.132292 0.335840
1.000000 0.063674 0.305944
1.000000 0.061520 0.238050
0.018650 0.298857 0.332284
0.019747 0.321627 0.367542
0.035315 0.360316 0.420543
0.192817 0.398728 0.412628
0.368416 0.437159 0.452091
0.656639 0.402723 0.362703
0.854949 0.354345 0.311003
0.934294 0.285252 0.271011
1.000000 0.178019 0.230309
0.021931 0.406610 0.269423
0.025844 0.432267 0.283000
0.037846 0.472818 0.317977
0.104844 0.531571 0.336807
0.305213 0.559059 0.402509
0.565546 0.536283 0.283679
0.800791 0.542877 0.263233
0.889576 0.507844 0.244751
0.952322 0.452863 0.205063
0.038794 0.520891 0.195618
0.050943 0.547227 0.191783
0.072834 0.584954 0.220599
0.107795 0.629094 0.283817
0.142005 0.671546 0.381734
0.261526 0.694685 0.343641
0.716138 0.627736 0.134946
0.906565 0.668617 0.236898
0.959899 0.655004 0.237331
0.069614 0.628937 0.148453
0.087755 0.655385 0.146982
0.112268 0.689678 0.179335
0.128633 0.721998 0.264803
0.142474 0.749075 0.353255
0.160856 0.776978 0.320377
0.231521 0.716564 0.121522
0.791376 0.722746 0.151962
0.968741 0.779083 0.265570
0.114624 0.733486 0.146534
0.133893 0.759568 0.141811
0.152294 0.788967 0.162011
0.168097 0.818826 0.257338
0.179108 0.842416 0.325457
0.183360 0.858524 0.288488
0.192241 0.884904 0.236888
0.310076 0.796179 0.148346
0.856136 0.838625 0.185222
0.006732 0.013672 0.323796
0.005875 0.013566 0.477271
0.048608 0.005478 0.570155
0.157019 0.000002 0.530696
0.298884 0.000000 0.430041
0.430468 0.000000 0.373153
0.525341 0.000094 0.331296
0.612467 0.001072 0.292846
0.695729 0.003341 0.254893
0.008631 0.023328 0.677975
0.009212 0.025835 0.768383
0.079589 0.019692 0.769827
0.231261 0.002549 0.712136
0.408212 0.000253 0.568155
0.567788 0.000579 0.486251
0.675836 0.003522 0.426348
0.769245 0.007430 0.372284
0.861593 0.010031 0.321264
0.010900 0.058177 0.782952
0.011955 0.064666 0.883829
0.065395 0.111064 0.650850
0.237978 0.085439 0.681424
0.522662 0.020144 0.716311
0.722156 0.007490 0.622138
0.836349 0.011868 0.544060
0.939903 0.015189 0.482529
1.000000 0.021110 0.416196
0.014948 0.162222 0.599431
0.017143 0.177309 0.646565
0.033991 0.220059 0.610257
0.169926 0.258532 0.555225
0.419242 0.233552 0.552749
0.630260 0.199976 0.555527
0.853711 0.112482 0.580664
1.000000 0.045061 0.593159
1.000000 0.048995 0.535365
0.018897 0.287813 0.499675
0.020408 0.307573 0.535326
0.028634 0.345344 0.568936
0.076872 0.397034 0.587698
0.360575 0.422885 0.558863
0.567536 0.411045 0.532459
0.753963 0.358017 0.524426
0.927247 0.284109 0.523033
1.000000 0.182789 0.530539
0.023817 0.408610 0.473530
0.024909 0.431352 0.507006
0.029282 0.465761 0.557732
0.066535 0.518356 0.608118
0.334772 0.555608 0.575945
0.504539 0.592789 0.621349
0.750017 0.561698 0.518687
0.913248 0.517206 0.471373
1.000000 0.442320 0.440698
0.026359 0.523080 0.403948
0.029927 0.547366 0.424029
0.039891 0.583038 0.475747
0.071741 0.630512 0.511638
0.185311 0.695516 0.488700
0.459950 0.704791 0.548102
0.717672 0.683853 0.425959
0.918413 0.687145 0.379844
0.974338 0.657288 0.373991
0.053703 0.632928 0.308984
0.066581 0.658448 0.314693
0.088685 0.693584 0.348954
0.120656 0.732728 0.391596
0.173956 0.783850 0.460902
0.217287 0.825214 0.540721
0.440501 0.833149 0.481362
0.855906 0.770902 0.226067
0.975401 0.800641 0.325060
0.099144 0.737537 0.231855
0.117549 0.764035 0.232937
0.143603 0.797171 0.264806
0.174635 0.834521 0.331118
0.196147 0.867860 0.446271
0.213408 0.894982 0.534261
0.235452 0.923672 0.497265
0.321265 0.861712 0.187728
0.901588 0.863163 0.206385
0.007143 0.015765 0.400628
0.006712 0.016362 0.537599
0.019354 0.009664 0.684134
0.109263 0.001709 0.696673
0.257397 0.000063 0.572999
0.396440 0.000007 0.495654
0.514882 0.000071 0.465377
0.604800 0.001229 0.444593
0.684552 0.003857 0.418954
0.008990 0.025068 0.741027
0.009528 0.027522 0.828586
0.034848 0.024224 0.913397
0.157684 0.009882 0.904537
0.355443 0.001505 0.751809
0.526092 0.001760 0.640490
0.659684 0.003706 0.591640
0.750923 0.008453 0.552314
0.838417 0.011589 0.516174
0.011159 0.034224 1.000000
0.012235 0.038097 1.000000
0.063765 0.043800 1.000000
0.221988 0.034555 1.000000
0.477018 0.008783 0.957710
0.671668 0.009071 0.797341
0.812213 0.013347 0.726760
0.913446 0.016992 0.683446
1.000000 0.020480 0.637689
0.016148 0.091459 1.000000
0.018047 0.101844 1.000000
0.032350 0.164471 0.949579
0.151735 0.218159 0.736671
0.387390 0.191363 0.754054
0.666748 0.134745 0.776547
0.896668 0.074260 0.817669
1.000000 0.042113 0.821506
1.000000 0.036247 0.782003
0.027006 0.258821 0.683360
0.032229 0.276612 0.716912
0.038384 0.312988 0.721314
0.072464 0.367494 0.712658
0.287410 0.397121 0.704830
0.575956 0.372471 0.675264
0.744273 0.351181 0.686760
0.913698 0.274962 0.726399
1.000000 0.169776 0.792496
0.034249 0.395282 0.628704
0.040872 0.414624 0.657995
0.049440 0.447255 0.688743
0.074211 0.496853 0.719091
0.184956 0.550530 0.745705
0.493651 0.573170 0.703321
0.684144 0.564548 0.670257
0.842439 0.517786 0.666202
0.998437 0.440144 0.687510
0.040141 0.522874 0.616364
0.047343 0.543846 0.646251
0.060667 0.574340 0.692135
0.082055 0.613259 0.740029
0.131154 0.671933 0.767364
0.476493 0.694214 0.708851
0.616388 0.724810 0.774067
0.841217 0.695078 0.662499
0.968195 0.661241 0.619916
0.048873 0.633936 0.566528
0.056078 0.657144 0.591281
0.068571 0.688836 0.631442
0.085791 0.724331 0.666270
0.135739 0.777998 0.679900
0.340925 0.835542 0.616614
0.598220 0.835992 0.673283
0.826723 0.814307 0.558513
0.974716 0.816593 0.484717
0.088475 0.739027 0.451935
0.101017 0.764391 0.462813
0.119734 0.796861 0.496401
0.146935 0.835489 0.536534
0.187628 0.877936 0.571803
0.246817 0.927993 0.624981
0.305738 0.966830 0.682019
0.568590 0.958706 0.612890
0.935028 0.903988 0.349124
0.007518 0.017678 0.470824
0.007333 0.018627 0.590705
0.006982 0.013343 0.757404
0.070566 0.005445 0.818107
0.213592 0.000324 0.712146
0.354806 0.000399 0.615716
0.492057 0.000428 0.566581
0.599525 0.001346 0.557926
0.679995 0.004459 0.548720
0.009332 0.026643 0.797368
0.009883 0.029081 0.883571
0.014257 0.027566 1.000000
0.104054 0.016604 1.000000
0.296202 0.004486 0.929555
0.474144 0.003767 0.793383
0.629606 0.005576 0.712947
0.739560 0.009255 0.684668
0.825843 0.013071 0.666247
0.011706 0.036239 1.000000
0.012859 0.040188 1.000000
0.025540 0.044623 1.000000
0.166454 0.041381 1.000000
0.403344 0.020356 1.000000
0.628037 0.009538 0.966817
0.783668 0.014087 0.864650
0.898463 0.018505 0.827399
0.988537 0.022276 0.802748
0.016427 0.058127 1.000000
0.018323 0.064666 1.000000
0.021439 0.079144 1.000000
0.158229 0.140135 1.000000
0.434486 0.092854 1.000000
0.763803 0.027213 1.000000
0.949955 0.024699 1.000000
1.000000 0.035957 0.987251
1.000000 0.035770 0.960110
0.027878 0.195736 1.000000
0.031266 0.213448 1.000000
0.037023 0.255424 1.000000
0.074826 0.321836 0.874223
0.282614 0.352717 0.823305
0.539331 0.326575 0.839964
0.791976 0.279817 0.862666
0.939901 0.243584 0.891518
1.000000 0.130412 1.000000
0.050836 0.370527 0.754277
0.055983 0.389671 0.787092
0.060923 0.422210 0.810232
0.074492 0.464787 0.828696
0.133946 0.523601 0.830703
0.417652 0.545835 0.840689
0.701135 0.524614 0.785649
0.844127 0.505304 0.804308
1.000000 0.433756 0.854828
0.064895 0.508157 0.739115
0.071407 0.528775 0.768116
0.078800 0.560618 0.801334
0.085871 0.596918 0.838834
0.125600 0.652177 0.858251
0.335275 0.689346 0.849735
0.614157 0.700770 0.820759
0.800949 0.694341 0.804955
0.939673 0.660598 0.795357
0.080753 0.629759 0.752661
0.087395 0.651158 0.775750
0.095963 0.680558 0.806285
0.103694 0.713029 0.838064
0.129011 0.756948 0.863963
0.215398 0.810743 0.868167
0.596182 0.822257 0.824231
0.778045 0.840246 0.855699
0.945108 0.817266 0.784982
0.086458 0.738695 0.698164
0.094485 0.761770 0.717954
0.105321 0.790941 0.750882
0.118929 0.825812 0.788069
0.138518 0.864742 0.813440
0.196465 0.918804 0.817348
0.466675 0.961024 0.733684
0.702550 0.951424 0.792579
0.933433 0.939764 0.667257
0.007841 0.019326 0.531319
0.007820 0.020533 0.639138
0.005977 0.016542 0.800996
0.036364 0.009246 0.917097
0.166257 0.002451 0.835150
0.319819 0.000896 0.716884
0.469623 0.001356 0.645830
0.589700 0.002031 0.626112
0.681774 0.005045 0.620659
0.009644 0.028036 0.846793
0.010212 0.030470 0.932086
0.009952 0.030285 1.000000
0.059114 0.021968 1.000000
0.235914 0.010405 1.000000
0.434911 0.003978 0.926421
0.603988 0.007058 0.805509
0.728009 0.010297 0.761053
0.825607 0.014139 0.744834
0.012271 0.038218 1.000000
0.013498 0.042233 1.000000
0.015040 0.046545 1.000000
0.111880 0.045903 1.000000
0.340699 0.030705 1.000000
0.575443 0.013816 1.000000
0.761742 0.014646 0.969027
0.886002 0.019259 0.912947
0.985656 0.023570 0.892506
0.017144 0.052526 1.000000
0.019106 0.057407 1.000000
0.021367 0.062661 1.000000
0.129037 0.069714 1.000000
0.409588 0.067212 1.000000
0.676962 0.038365 1.000000
0.917331 0.024518 1.000000
1.000000 0.029621 1.000000
1.000000 0.033796 1.000000
0.025758 0.114794 1.000000
0.028704 0.124437 1.000000
0.032167 0.141500 1.000000
0.068301 0.238752 1.000000
0.284405 0.295659 0.959723
0.545752 0.262186 0.965641
0.869697 0.180814 1.000000
1.000000 0.109312 1.000000
1.000000 0.108323 1.000000
0.049454 0.335342 0.925294
0.053313 0.354354 0.964083
0.058163 0.383482 0.981192
0.069425 0.424898 0.976606
0.120461 0.485079 0.938012
0.417495 0.502127 0.927587
0.666732 0.482333 0.915144
0.888909 0.446762 0.929150
1.000000 0.416360 0.962937
0.070796 0.489411 0.846236
0.073842 0.510358 0.880538
0.078554 0.540889 0.910584
0.084671 0.578435 0.937848
0.108202 0.625470 0.952865
0.268337 0.672924 0.920492
0.534304 0.683978 0.903468
0.812406 0.668177 0.874594
0.943857 0.654968 0.893289
0.089785 0.622377 0.859287
0.093058 0.644286 0.882491
0.098112 0.673431 0.907387
0.104304 0.706348 0.933215
0.114089 0.740714 0.956357
0.170168 0.796937 0.955866
0.466874 0.816356 0.925125
0.729281 0.825876 0.902582
0.931604 0.818558 0.891337
0.107840 0.736070 0.846606
0.111431 0.758911 0.868966
0.116653 0.787060 0.897130
0.123884 0.820560 0.929406
0.133793 0.854999 0.958929
0.165608 0.899002 0.979395
0.333271 0.938170 0.961609
0.699120 0.945476 0.914906
0.944734 0.945864 0.892744
