apps/capacitor-film-lab-ios/ios/App/App/Resources/CreativeLuts/filmtone-creative-pack-01-noir.cube
TITLE "Filmtone Noir"
# pack=creative-pack-01
# slug=filmtone-creative-pack-01-noir
# bakerVersion=1.4.0-stone-urban-distinct
# bakeMode=real
LUT_3D_SIZE 9
DOMAIN_MIN 0.0 0.0 0.0
DOMAIN_MAX 1.0 1.0 1.0
0.078958 0.088014 0.063941
0.078958 0.088014 0.063941
0.078958 0.088014 0.063941
0.078958 0.088014 0.063941
0.078958 0.088014 0.063941
0.078958 0.088014 0.063941
0.078958 0.088014 0.063941
0.078958 0.088014 0.063941
0.078958 0.088014 0.063941
0.078958 0.088014 0.063941
0.078958 0.088014 0.063941
0.078958 0.088014 0.063941
0.078958 0.088014 0.063941
0.078958 0.088014 0.063941
0.078958 0.088014 0.063941
0.078958 0.088014 0.063941
0.091110 0.096331 0.066476
0.113950 0.118442 0.085314
0.078958 0.088014 0.063941
0.078958 0.088014 0.063941
0.078958 0.088014 0.063941
0.078958 0.088014 0.063941
0.095088 0.105365 0.073109
0.118389 0.128460 0.092673
0.144360 0.154024 0.114385
0.173214 0.182222 0.138452
0.205101 0.213162 0.165061
0.078958 0.093051 0.063941
0.099146 0.114803 0.079997
0.122916 0.138916 0.100318
0.149399 0.165573 0.122863
0.178796 0.194916 0.147836
0.211246 0.227026 0.175409
0.246798 0.261899 0.205704
0.285382 0.299429 0.238774
0.326793 0.339392 0.274583
0.154535 0.177598 0.131664
0.184480 0.208101 0.157566
0.217495 0.241381 0.186118
0.253608 0.277393 0.217422
0.292728 0.315982 0.251499
0.334619 0.356874 0.288275
0.378895 0.399674 0.327563
0.425021 0.443875 0.369051
0.472341 0.488884 0.412312
0.260519 0.293345 0.229509
0.300166 0.332944 0.264583
0.342525 0.374695 0.302301
0.387182 0.418153 0.342433
0.433578 0.462770 0.384622
0.481036 0.507928 0.428400
0.528225 0.552386 0.472674
0.574709 0.595864 0.517215
0.619614 0.637672 0.561214
0.395527 0.436839 0.357576
0.442170 0.481762 0.400404
0.489572 0.526777 0.444459
0.536683 0.570889 0.488899
0.582964 0.613740 0.533340
0.627510 0.654651 0.576939
0.669597 0.693104 0.618939
0.708729 0.728758 0.658731
0.744635 0.761445 0.695885
0.545140 0.589165 0.505123
0.591192 0.631267 0.549353
0.635353 0.671191 0.592451
0.676931 0.708494 0.633708
0.715470 0.742912 0.672580
0.750741 0.774346 0.708703
0.782709 0.802831 0.741897
0.811487 0.828505 0.772131
0.837288 0.851565 0.799502
0.684182 0.723373 0.648159
0.722108 0.756542 0.686062
0.756729 0.786733 0.721131
0.788044 0.814027 0.753244
0.816192 0.838591 0.782418
0.841411 0.860638 0.808801
0.863982 0.880404 0.832637
0.884180 0.898141 0.854145
0.902275 0.914093 0.873553
0.078958 0.088014 0.063941
0.078958 0.088014 0.063941
0.078958 0.088014 0.063941
0.078958 0.088014 0.063941
0.078958 0.088014 0.063941
0.078958 0.088014 0.063941
0.078958 0.088014 0.063941
0.078958 0.088014 0.063941
0.078958 0.088014 0.063941
0.078958 0.088014 0.063941
0.078958 0.088014 0.063941
0.078958 0.088014 0.063941
0.078958 0.088014 0.063941
0.078958 0.088014 0.063941
0.078958 0.088014 0.063941
0.078958 0.088014 0.063941
0.098176 0.103584 0.073716
0.121833 0.126485 0.093348
0.078958 0.088014 0.063941
0.078958 0.088014 0.063941
0.078958 0.088014 0.063941
0.080671 0.091374 0.063941
0.102297 0.112943 0.080628
0.126430 0.136855 0.101018
0.153307 0.163299 0.123640
0.183121 0.192419 0.148695
0.216002 0.224302 0.176355
0.084437 0.100186 0.068723
0.106501 0.122718 0.087806
0.131118 0.147675 0.108984
0.158517 0.175231 0.132470
0.188883 0.205509 0.158456
0.222330 0.238562 0.187097
0.258869 0.274355 0.218492
0.298392 0.312742 0.252659
0.340641 0.353460 0.289521
0.163826 0.187647 0.141632
0.194748 0.219092 0.168569
0.228760 0.253310 0.198205
0.265856 0.290220 0.230611
0.305899 0.329628 0.265774
0.348605 0.371218 0.303576
0.393541 0.414556 0.343781
0.440127 0.459101 0.386030
0.487674 0.504239 0.429851
0.272941 0.306529 0.243098
0.313495 0.346902 0.279241
0.356644 0.389288 0.317951
0.401928 0.433205 0.358948
0.448743 0.478078 0.401830
0.496227 0.523111 0.445934
0.543267 0.567296 0.490377
0.589339 0.610282 0.534792
0.633569 0.651380 0.578341
0.410366 0.452024 0.374366
0.457387 0.497112 0.417813
0.504727 0.541852 0.462063
0.551681 0.585620 0.506596
0.597497 0.627881 0.550789
0.641323 0.668007 0.593830
0.682504 0.705538 0.635015
0.720617 0.740195 0.673807
0.755460 0.771864 0.709850
0.560085 0.603672 0.522769
0.605620 0.645095 0.566632
0.649017 0.684170 0.609071
0.689657 0.720514 0.649438
0.727158 0.753923 0.687260
0.761358 0.784345 0.722250
0.792278 0.811857 0.754288
0.820066 0.836618 0.783394
0.844959 0.858843 0.809714
0.696718 0.734972 0.663521
0.733590 0.767127 0.700336
0.767135 0.796320 0.734257
0.797405 0.822665 0.765219
0.824574 0.846349 0.793285
0.848907 0.867593 0.818653
0.870682 0.886643 0.841554
0.890172 0.903747 0.862211
0.907645 0.919145 0.880856
0.078958 0.088014 0.063941
0.078958 0.088014 0.063941
0.078958 0.088014 0.063941
0.078958 0.088014 0.063941
0.078958 0.088014 0.063941
0.078958 0.088014 0.063941
0.078958 0.088014 0.063941
0.078958 0.088014 0.063941
0.078958 0.088014 0.063941
0.078958 0.088014 0.063941
0.078958 0.088014 0.063941
0.078958 0.088014 0.063941
0.078958 0.088014 0.063941
0.078958 0.088014 0.063941
0.078958 0.088014 0.063941
0.083536 0.089711 0.063941
0.105495 0.111098 0.081261
0.129996 0.134812 0.101721
0.078958 0.088014 0.063941
0.078958 0.088014 0.063941
0.078958 0.088014 0.063941
0.087360 0.098449 0.069316
0.109764 0.120791 0.088464
0.134755 0.145543 0.109714
0.162557 0.172882 0.133279
0.193346 0.202935 0.159349
0.227224 0.235762 0.188079
0.091262 0.107578 0.076057
0.114119 0.130912 0.095946
0.139606 0.156734 0.118014
0.167942 0.185204 0.142471
0.199289 0.216422 0.169494
0.233733 0.250415 0.199220
0.271250 0.287111 0.231717
0.311683 0.326326 0.266969
0.354729 0.367753 0.304853
0.173427 0.198014 0.152004
0.205336 0.230404 0.179998
0.240345 0.265550 0.210729
0.278409 0.303336 0.244236
0.319346 0.343527 0.280466
0.362823 0.385765 0.319256
0.408358 0.429578 0.360322
0.455333 0.474396 0.403257
0.502884 0.519444 0.447409
0.285664 0.319989 0.257117
0.327093 0.361093 0.294304
0.370985 0.404058 0.333962
0.416832 0.448368 0.375761
0.463994 0.493423 0.419255
0.511375 0.538203 0.463544
0.558209 0.582066 0.508069
0.603779 0.624482 0.552227
0.647261 0.664807 0.595209
0.425351 0.467291 0.391427
0.472676 0.512466 0.435405
0.519868 0.556840 0.479742
0.566561 0.600175 0.524232
0.611825 0.641774 0.568051
0.654862 0.681061 0.610425
0.695092 0.717639 0.650716
0.732164 0.751286 0.688457
0.765942 0.781941 0.723367
0.574896 0.617972 0.540305
0.619827 0.658652 0.583682
0.662395 0.696833 0.625364
0.702055 0.732195 0.664770
0.738501 0.764588 0.701504
0.771633 0.794008 0.735346
0.801519 0.820564 0.766235
0.828341 0.844439 0.794236
0.852355 0.865856 0.819542
0.708921 0.746227 0.678468
0.744724 0.777369 0.714166
0.777198 0.805578 0.746932
0.806441 0.830996 0.776757
0.832660 0.853826 0.803748
0.856136 0.874296 0.828131
0.877143 0.892657 0.850127
0.895954 0.909157 0.869967
0.910299 0.919434 0.887880
0.078958 0.088014 0.063941
0.078958 0.088014 0.063941
0.078958 0.088014 0.063941
0.078958 0.088014 0.063941
0.078958 0.088014 0.063941
0.078958 0.088014 0.063941
0.078958 0.088014 0.063941
0.078958 0.088014 0.063941
0.078958 0.088014 0.063941
0.078958 0.088014 0.063941
0.078958 0.088014 0.063941
0.078958 0.088014 0.063941
0.078958 0.088014 0.063941
0.078958 0.088014 0.063941
0.078958 0.088014 0.063941
0.090329 0.096726 0.069910
0.113077 0.118880 0.089124
0.138446 0.143429 0.110446
0.078958 0.088014 0.063941
0.078958 0.088014 0.063941
0.078958 0.088014 0.063941
0.094291 0.105778 0.076675
0.117499 0.128917 0.096631
0.143370 0.154530 0.118775
0.172116 0.182779 0.143312
0.203891 0.213771 0.170422
0.238766 0.247539 0.200238
0.098333 0.115235 0.083701
0.122009 0.139393 0.104428
0.148389 0.166099 0.127421
0.177678 0.195495 0.152876
0.210016 0.227657 0.180959
0.245455 0.262581 0.211780
0.283933 0.300159 0.245377
0.325246 0.340165 0.281694
0.369041 0.382253 0.320564
0.183342 0.208702 0.162788
0.216244 0.242034 0.191859
0.252246 0.278095 0.223691
0.291260 0.316731 0.258290
0.333056 0.357663 0.295562
0.377254 0.400494 0.335296
0.423324 0.444716 0.377158
0.470613 0.489734 0.420698
0.518020 0.534550 0.465025
0.298679 0.333711 0.271559
0.340946 0.375499 0.309758
0.385529 0.418983 0.350312
0.431874 0.463617 0.392843
0.479306 0.508779 0.436861
0.526492 0.553216 0.481225
0.573021 0.596668 0.525696
0.618003 0.638438 0.569470
0.660673 0.677936 0.611780
0.440459 0.482612 0.408725
0.487831 0.527614 0.452965
0.534960 0.571710 0.497444
0.581295 0.614529 0.541756
0.625922 0.655399 0.585080
0.668110 0.693802 0.626691
0.707351 0.729400 0.666019
0.743368 0.762031 0.702671
0.776085 0.791680 0.736433
0.589543 0.632040 0.557684
0.633790 0.671918 0.600461
0.675471 0.709169 0.641298
0.714119 0.743531 0.679687
0.749498 0.774909 0.715303
0.781568 0.803340 0.747992
0.810439 0.828962 0.777746
0.836322 0.851976 0.804674
0.859486 0.872613 0.828994
0.720783 0.757138 0.692986
0.755509 0.787273 0.727546
0.786923 0.814513 0.759161
0.815159 0.839028 0.787867
0.840459 0.861030 0.813818
0.863107 0.880755 0.837244
0.883376 0.898457 0.858369
0.901537 0.914378 0.877424
0.910299 0.919434 0.892995
0.078958 0.088014 0.063941
0.078958 0.088014 0.063941
0.078958 0.088014 0.063941
0.078958 0.088014 0.063941
0.078958 0.088014 0.063941
0.078958 0.088014 0.063941
0.078958 0.088014 0.063941
0.078958 0.088014 0.063941
0.078958 0.088014 0.063941
0.078958 0.088014 0.063941
0.078958 0.088014 0.063941
0.078958 0.088014 0.063941
0.078958 0.088014 0.063941
0.078958 0.088014 0.063941
0.078958 0.088014 0.063941
0.097366 0.103994 0.077295
0.120930 0.126939 0.097319
0.147189 0.152344 0.119537
0.078958 0.088014 0.063941
0.078958 0.088014 0.063941
0.079931 0.091759 0.065603
0.101470 0.113371 0.084344
0.125509 0.137329 0.105142
0.152282 0.163821 0.128212
0.181988 0.192993 0.153751
0.214756 0.224929 0.181922
0.250625 0.259630 0.212834
0.105658 0.123164 0.091666
0.130178 0.148169 0.113267
0.157473 0.175775 0.137215
0.187729 0.206105 0.163695
0.221063 0.239211 0.192855
0.257492 0.275054 0.224778
0.296909 0.313488 0.259467
0.339066 0.354246 0.296823
0.383559 0.396940 0.336632
0.193574 0.219711 0.173995
0.227473 0.253980 0.204155
0.264459 0.290939 0.237089
0.304399 0.330391 0.272767
0.347016 0.372019 0.311047
0.391879 0.415385 0.351672
0.438417 0.459947 0.394260
0.485943 0.505090 0.438318
0.533110 0.549585 0.482708
0.311977 0.347682 0.286413
0.355040 0.390102 0.325583
0.400256 0.434042 0.366973
0.447028 0.478927 0.410159
0.494485 0.523949 0.454445
0.541545 0.568118 0.498924
0.587674 0.611075 0.543207
0.631988 0.652131 0.586478
0.673789 0.690754 0.628019
0.455666 0.497963 0.426226
0.502987 0.542685 0.470607
0.549971 0.586431 0.515113
0.595852 0.628657 0.559118
0.639767 0.668738 0.601835
0.681052 0.706217 0.642597
0.719275 0.740818 0.680905
0.754228 0.772431 0.716439
0.785891 0.801086 0.749050
0.603997 0.645854 0.574857
0.647486 0.684880 0.616931
0.688232 0.721170 0.656849
0.725842 0.754523 0.694174
0.760150 0.784889 0.728653
0.791168 0.812347 0.760192
0.819045 0.837059 0.788831
0.844018 0.859238 0.814719
0.866361 0.879126 0.838083
0.732299 0.767703 0.707064
0.765948 0.796841 0.740475
0.796314 0.823134 0.770949
0.823568 0.846771 0.798562
0.847980 0.867971 0.823506
0.869830 0.886982 0.846006
0.889390 0.904052 0.866292
0.906927 0.919420 0.884595
0.910299 0.919434 0.892995
0.078958 0.088014 0.063941
0.078958 0.088014 0.063941
0.078958 0.088014 0.063941
0.078958 0.088014 0.063941
0.078958 0.088014 0.063941
0.078958 0.088014 0.063941
0.078958 0.088014 0.063941
0.078958 0.088014 0.063941
0.079052 0.088014 0.063941
0.078958 0.088014 0.063941
0.078958 0.088014 0.063941
0.078958 0.088014 0.063941
0.078958 0.088014 0.063941
0.078958 0.088014 0.063941
0.082785 0.090093 0.066185
0.104656 0.111522 0.084990
0.129061 0.135282 0.105859
0.156232 0.161561 0.129007
0.078958 0.088014 0.063941
0.078958 0.088014 0.063941
0.086594 0.098848 0.072806
0.108908 0.121234 0.092337
0.133801 0.146033 0.114012
0.161498 0.173422 0.138039
0.192177 0.203527 0.164605
0.225942 0.236406 0.193854
0.262796 0.272030 0.225867
0.113246 0.131374 0.099969
0.138634 0.157245 0.122476
0.166863 0.185766 0.147408
0.198099 0.217037 0.174937
0.232431 0.251081 0.205187
0.269838 0.287827 0.238212
0.310170 0.327086 0.273977
0.353128 0.368551 0.312339
0.398262 0.411794 0.353035
0.204125 0.231040 0.185630
0.239022 0.266237 0.216888
0.276978 0.304071 0.250921
0.317815 0.344304 0.287654
0.361208 0.386576 0.326903
0.406678 0.430414 0.368359
0.453613 0.475245 0.411594
0.501141 0.520282 0.455925
0.548121 0.564518 0.500402
0.325546 0.361885 0.301665
0.369357 0.404881 0.341760
0.415143 0.449211 0.383919
0.462270 0.494273 0.427675
0.509634 0.539037 0.472091
0.556502 0.582879 0.516586
0.602139 0.625261 0.560553
0.645712 0.665542 0.603209
0.686595 0.703248 0.643896
0.470948 0.513317 0.443894
0.518134 0.557667 0.488299
0.564870 0.600976 0.532697
0.610207 0.642536 0.576272
0.653339 0.681775 0.618279
0.693676 0.718299 0.658118
0.730858 0.751890 0.695361
0.764744 0.782490 0.729758
0.795367 0.810165 0.761221
0.618233 0.659394 0.591782
0.660898 0.697525 0.633061
0.700666 0.732832 0.671995
0.737221 0.765168 0.708221
0.770457 0.794534 0.741552
0.800439 0.821037 0.771952
0.827347 0.844864 0.799500
0.851439 0.866237 0.824381
0.872991 0.885404 0.846820
0.743468 0.777927 0.720696
0.776043 0.806081 0.752957
0.805378 0.831448 0.782304
0.831679 0.854232 0.808855
0.855233 0.874660 0.832821
0.876314 0.892984 0.854428
0.895193 0.909451 0.873908
0.910299 0.919434 0.891491
0.910299 0.919434 0.892995
0.078958 0.088014 0.063941
0.078958 0.088014 0.063941
0.078958 0.088014 0.063941
0.078958 0.088014 0.063941
0.078958 0.088014 0.063941
0.078958 0.088014 0.063941
0.078958 0.088014 0.063941
0.078958 0.088014 0.063941
0.085682 0.088442 0.066769
0.078958 0.088014 0.063941
0.078958 0.088014 0.063941
0.078958 0.088014 0.063941
0.078958 0.088014 0.063941
0.078958 0.088014 0.063941
0.089550 0.097122 0.073413
0.112208 0.119320 0.093010
0.137478 0.143915 0.114758
0.165580 0.171087 0.138866
0.078958 0.088014 0.063941
0.078958 0.088014 0.063941
0.093496 0.106192 0.080312
0.116613 0.129376 0.100668
0.142383 0.155037 0.123252
0.171022 0.183337 0.148266
0.202685 0.214381 0.175882
0.237448 0.248201 0.206222
0.275274 0.284731 0.239338
0.121105 0.139872 0.108621
0.147384 0.166627 0.132067
0.176564 0.196074 0.158011
0.208790 0.228289 0.186608
0.244117 0.263264 0.217957
0.282487 0.300890 0.252079
0.323703 0.340939 0.288898
0.367416 0.383062 0.328224
0.413129 0.426791 0.369746
0.214997 0.242687 0.197699
0.250888 0.278799 0.230060
0.289795 0.317481 0.265179
0.331497 0.358453 0.302939
0.375616 0.401315 0.343107
0.421629 0.445558 0.385326
0.468886 0.490585 0.429126
0.516280 0.535385 0.473577
0.563026 0.579318 0.518052
0.339371 0.376303 0.317300
0.383879 0.419814 0.358262
0.430170 0.464464 0.401117
0.477576 0.509629 0.445355
0.524758 0.554044 0.489784
0.571333 0.597472 0.534160
0.616391 0.639204 0.577687
0.659158 0.678654 0.619627
0.699080 0.715411 0.659388
0.486089 0.528450 0.461495
0.533236 0.572529 0.505988
0.579625 0.615318 0.550147
0.624334 0.656146 0.593174
0.666622 0.694498 0.634381
0.705972 0.730042 0.673234
0.742098 0.762616 0.709377
0.774920 0.792210 0.742628
0.804517 0.818925 0.772953
0.632226 0.672644 0.608419
0.674009 0.709843 0.648821
0.712766 0.744149 0.686719
0.748253 0.775471 0.721822
0.780424 0.803847 0.754005
0.809388 0.829418 0.783281
0.835353 0.852385 0.809767
0.858595 0.872980 0.833672
0.879385 0.891456 0.855219
0.754287 0.787811 0.733878
0.785799 0.814999 0.764995
0.814124 0.839464 0.793237
0.839504 0.861421 0.818758
0.862228 0.881106 0.841777
0.882569 0.898773 0.862523
0.900796 0.914662 0.881230
0.910299 0.919434 0.892995
0.910299 0.919434 0.892995
0.078958 0.088014 0.063941
0.078958 0.088014 0.063941
0.078958 0.088014 0.063941
0.078958 0.088014 0.063941
0.078958 0.088014 0.063941
0.078958 0.088014 0.063941
0.078958 0.088014 0.063941
0.078958 0.088014 0.063941
0.092552 0.095411 0.074021
0.078958 0.088014 0.063941
0.078958 0.088014 0.063941
0.078958 0.088014 0.063941
0.078958 0.088014 0.063941
0.078958 0.088014 0.063941
0.096559 0.104404 0.080944
0.120030 0.127394 0.101369
0.146188 0.152846 0.124029
0.175239 0.180926 0.149126
0.078958 0.088014 0.063941
0.079194 0.092146 0.069019
0.100648 0.113799 0.088135
0.124591 0.137804 0.109349
0.151262 0.164345 0.132874
0.180858 0.193568 0.158902
0.213514 0.225556 0.187588
0.249271 0.260309 0.219028
0.288052 0.297726 0.253240
0.129242 0.148664 0.117636
0.156433 0.176320 0.142051
0.186580 0.206702 0.169032
0.219801 0.239860 0.198712
0.256118 0.275754 0.231164
0.295431 0.314234 0.266371
0.337494 0.355033 0.304215
0.381911 0.397759 0.344456
0.428139 0.441910 0.386735
0.226190 0.254651 0.210205
0.263065 0.291659 0.243667
0.302902 0.331156 0.279854
0.345429 0.372820 0.318604
0.390220 0.416214 0.359635
0.436709 0.460793 0.402544
0.484212 0.505940 0.446817
0.531378 0.550415 0.491269
0.577790 0.593954 0.535617
0.353438 0.390916 0.333296
0.398586 0.434880 0.375064
0.445313 0.479777 0.418534
0.492742 0.524786 0.462979
0.539823 0.568940 0.507469
0.586008 0.611867 0.551596
0.630405 0.652882 0.594567
0.672308 0.691454 0.635701
0.711236 0.727234 0.674470
0.501247 0.543517 0.479166
0.548262 0.587242 0.523619
0.594206 0.629433 0.567413
0.638210 0.669468 0.609787
0.679599 0.706895 0.650112
0.717932 0.741441 0.687927
0.752993 0.772998 0.722947
0.784759 0.801597 0.755051
0.813350 0.827373 0.784255
0.645955 0.685589 0.624733
0.686805 0.721825 0.664189
0.724525 0.755121 0.701010
0.758938 0.785433 0.734974
0.790055 0.812837 0.766014
0.818021 0.837499 0.794187
0.843075 0.859633 0.819645
0.865494 0.879480 0.842603
0.885553 0.897292 0.863291
0.764759 0.797362 0.746612
0.795219 0.823603 0.776597
0.822558 0.847191 0.803759
0.847050 0.868348 0.828281
0.868975 0.887320 0.850385
0.888604 0.904356 0.870304
0.906206 0.919434 0.888271
0.910299 0.919434 0.892995
0.910299 0.919434 0.892995
0.078958 0.088014 0.063941
0.078958 0.088014 0.063941
0.078958 0.088014 0.063941
0.078958 0.088014 0.063941
0.078958 0.088014 0.063941
0.078958 0.088014 0.063941
0.078958 0.088014 0.063941
0.078958 0.088014 0.063941
0.099670 0.102631 0.081578
0.078958 0.088014 0.063941
0.078958 0.088014 0.063941
0.078958 0.088014 0.063941
0.078958 0.088014 0.063941
0.082036 0.090476 0.069613
0.103821 0.111947 0.088794
0.128130 0.135752 0.110080
0.155196 0.162081 0.133684
0.185212 0.191081 0.159797
0.078958 0.088014 0.063941
0.085830 0.099248 0.076366
0.108056 0.121678 0.096288
0.132851 0.146524 0.118394
0.160443 0.173963 0.142891
0.191011 0.204120 0.169958
0.224664 0.237051 0.199729
0.261407 0.272726 0.232271
0.301120 0.311003 0.267567
0.137665 0.157757 0.127026
0.165788 0.186328 0.152440
0.196913 0.217652 0.180478
0.231132 0.251748 0.211254
0.268430 0.288543 0.244806
0.308660 0.327847 0.281080
0.351530 0.369350 0.319910
0.396594 0.412621 0.361010
0.443267 0.457126 0.403972
0.237703 0.266925 0.223149
0.275550 0.304807 0.257704
0.316288 0.345082 0.294933
0.359596 0.387388 0.334629
0.405001 0.431250 0.376460
0.451894 0.476094 0.419977
0.499398 0.521120 0.464463
0.546399 0.565342 0.508951
0.592370 0.608404 0.553045
0.367731 0.405704 0.349632
0.413456 0.450054 0.392135
0.460547 0.495124 0.436133
0.507894 0.539871 0.480653
0.554795 0.583693 0.525093
0.600498 0.626040 0.568844
0.644162 0.666277 0.611155
0.685150 0.703931 0.651403
0.723076 0.738711 0.689106
0.516400 0.558494 0.496860
0.563178 0.601776 0.541142
0.608588 0.643297 0.584451
0.651815 0.682489 0.626074
0.692258 0.718959 0.665450
0.729551 0.752494 0.702186
0.763544 0.783037 0.736068
0.794266 0.810659 0.767031
0.821873 0.835519 0.795135
0.659400 0.698216 0.640694
0.699275 0.733468 0.679144
0.735938 0.765748 0.714858
0.769279 0.795058 0.747677
0.799356 0.821510 0.777588
0.826349 0.845288 0.804684
0.850521 0.866617 0.829144
0.872147 0.885745 0.851188
0.891503 0.902922 0.871048
0.774886 0.806584 0.758900
0.804312 0.831900 0.787771
0.830696 0.854637 0.813883
0.854328 0.875023 0.837437
0.875482 0.893310 0.858658
0.894429 0.909744 0.877783
0.910299 0.919434 0.892995
0.910299 0.919434 0.892995
0.910299 0.919434 0.892995
