apps/capacitor-film-lab-ios/ios/App/App/Resources/CreativeLuts/filmtone-creative-pack-01-noir-rec709-safe.cube
TITLE "Filmtone Noir Rec.709 Safe"
# pack=creative-pack-01
# slug=filmtone-creative-pack-01-noir
# variant=rec709-safe
# bakerVersion=1.5.0-stone-palermo-signature
# generator=filmtone-rec709-safe-color-v1
LUT_3D_SIZE 9
DOMAIN_MIN 0.0 0.0 0.0
DOMAIN_MAX 1.0 1.0 1.0
0.078958 0.088014 0.063941
0.078958 0.088014 0.063941
0.078958 0.088014 0.063941
0.078958 0.088014 0.063941
0.078958 0.088014 0.063941
0.078958 0.088014 0.063941
0.078958 0.088014 0.063941
0.078958 0.088014 0.063941
0.078958 0.088014 0.063941
0.078958 0.088014 0.063941
0.078958 0.088014 0.063941
0.078958 0.088014 0.063941
0.078958 0.088014 0.063941
0.078958 0.088014 0.063941
0.078958 0.088014 0.063941
0.078958 0.088014 0.063941
0.091110 0.096331 0.066476
0.113950 0.118442 0.085314
0.078958 0.088014 0.063941
0.078958 0.088014 0.063941
0.078958 0.088014 0.063941
0.078958 0.088014 0.063941
0.095088 0.105365 0.073109
0.118389 0.128460 0.092673
0.144360 0.154024 0.114385
0.173214 0.182222 0.138452
0.205101 0.213162 0.165061
0.078958 0.093051 0.063941
0.099146 0.114803 0.079997
0.122916 0.138916 0.100318
0.149399 0.165573 0.122863
0.178796 0.194916 0.147836
0.211246 0.227026 0.175409
0.246798 0.261899 0.205704
0.285382 0.299429 0.238774
0.326793 0.339392 0.274583
0.154535 0.177598 0.131664
0.184480 0.208101 0.157566
0.217495 0.241381 0.186118
0.253608 0.277393 0.217422
0.292728 0.315982 0.251499
0.334619 0.356874 0.288275
0.378895 0.399674 0.327563
0.425021 0.443875 0.369051
0.472341 0.488884 0.412312
0.260519 0.293345 0.229509
0.300166 0.332944 0.264583
0.342525 0.374695 0.302301
0.387182 0.418153 0.342433
0.433578 0.462770 0.384622
0.481036 0.507928 0.428400
0.528235 0.552397 0.472685
0.574898 0.596054 0.517404
0.620000 0.638058 0.561600
0.395527 0.436839 0.357576
0.442170 0.481762 0.400404
0.489572 0.526777 0.444459
0.536741 0.570947 0.488956
0.583235 0.614011 0.533611
0.627934 0.655076 0.577364
0.669983 0.693490 0.619325
0.708863 0.728892 0.658865
0.744377 0.761187 0.695627
0.545269 0.589294 0.505252
0.591536 0.631611 0.549697
0.635790 0.671628 0.592888
0.677250 0.708813 0.634027
0.715476 0.742917 0.672585
0.750334 0.773939 0.708296
0.781934 0.802057 0.741122
0.810544 0.827562 0.771188
0.836513 0.850791 0.798727
0.684409 0.723600 0.648386
0.721973 0.756407 0.685927
0.756181 0.786184 0.720583
0.787184 0.813166 0.752384
0.815273 0.837671 0.781498
0.840809 0.860036 0.808199
0.864149 0.880571 0.832804
0.885578 0.899540 0.855543
0.905303 0.917121 0.876581
0.078958 0.088014 0.063941
0.078958 0.088014 0.063941
0.078958 0.088014 0.063941
0.078958 0.088014 0.063941
0.078958 0.088014 0.063941
0.078958 0.088014 0.063941
0.078958 0.088014 0.063941
0.078958 0.088014 0.063941
0.078958 0.088014 0.063941
0.078958 0.088014 0.063941
0.078958 0.088014 0.063941
0.078958 0.088014 0.063941
0.078958 0.088014 0.063941
0.078958 0.088014 0.063941
0.078958 0.088014 0.063941
0.078958 0.088014 0.063941
0.098176 0.103584 0.073716
0.121833 0.126485 0.093348
0.078958 0.088014 0.063941
0.078958 0.088014 0.063941
0.078958 0.088014 0.063941
0.080671 0.091374 0.063941
0.102297 0.112943 0.080628
0.126430 0.136855 0.101018
0.153307 0.163299 0.123640
0.183121 0.192419 0.148695
0.216002 0.224302 0.176355
0.084437 0.100186 0.068723
0.106501 0.122718 0.087806
0.131118 0.147675 0.108984
0.158517 0.175231 0.132470
0.188883 0.205509 0.158456
0.222330 0.238562 0.187097
0.258869 0.274355 0.218492
0.298392 0.312742 0.252659
0.340641 0.353460 0.289521
0.163826 0.187647 0.141632
0.194748 0.219092 0.168569
0.228760 0.253310 0.198205
0.265856 0.290220 0.230611
0.305899 0.329628 0.265774
0.348605 0.371218 0.303576
0.393541 0.414556 0.343781
0.440127 0.459101 0.386030
0.487674 0.504239 0.429851
0.272941 0.306529 0.243098
0.313495 0.346902 0.279241
0.356644 0.389288 0.317951
0.401928 0.433205 0.358948
0.448743 0.478078 0.401830
0.496227 0.523111 0.445934
0.543320 0.567349 0.490431
0.589605 0.610548 0.535058
0.633991 0.651802 0.578763
0.410366 0.452024 0.374366
0.457387 0.497112 0.417813
0.504727 0.541852 0.462063
0.551804 0.585744 0.506719
0.597836 0.628220 0.551128
0.641759 0.668442 0.594266
0.682826 0.705860 0.635337
0.720627 0.740205 0.673818
0.755058 0.771462 0.709448
0.560290 0.603877 0.522974
0.606016 0.645491 0.567029
0.649438 0.684592 0.609493
0.689887 0.720745 0.649668
0.727027 0.753792 0.687129
0.760813 0.783800 0.721704
0.791415 0.810994 0.753425
0.819135 0.835687 0.782463
0.844335 0.858219 0.809091
0.696836 0.735089 0.663639
0.733312 0.766849 0.700058
0.766461 0.795646 0.733583
0.796489 0.821748 0.764302
0.823714 0.845489 0.792425
0.848512 0.867198 0.818258
0.871215 0.887176 0.842088
0.892083 0.905659 0.864123
0.911293 0.922792 0.884503
0.078958 0.088014 0.063941
0.078958 0.088014 0.063941
0.078958 0.088014 0.063941
0.078958 0.088014 0.063941
0.078958 0.088014 0.063941
0.078958 0.088014 0.063941
0.078958 0.088014 0.063941
0.078958 0.088014 0.063941
0.078958 0.088014 0.063941
0.078958 0.088014 0.063941
0.078958 0.088014 0.063941
0.078958 0.088014 0.063941
0.078958 0.088014 0.063941
0.078958 0.088014 0.063941
0.078958 0.088014 0.063941
0.083536 0.089711 0.063941
0.105495 0.111098 0.081261
0.129996 0.134812 0.101721
0.078958 0.088014 0.063941
0.078958 0.088014 0.063941
0.078958 0.088014 0.063941
0.087360 0.098449 0.069316
0.109764 0.120791 0.088464
0.134755 0.145543 0.109714
0.162557 0.172882 0.133279
0.193346 0.202935 0.159349
0.227224 0.235762 0.188079
0.091262 0.107578 0.076057
0.114119 0.130912 0.095946
0.139606 0.156734 0.118014
0.167942 0.185204 0.142471
0.199289 0.216422 0.169494
0.233733 0.250415 0.199220
0.271250 0.287111 0.231717
0.311683 0.326326 0.266969
0.354729 0.367753 0.304853
0.173427 0.198014 0.152004
0.205336 0.230404 0.179998
0.240345 0.265550 0.210729
0.278409 0.303336 0.244236
0.319346 0.343527 0.280466
0.362823 0.385765 0.319256
0.408358 0.429578 0.360322
0.455333 0.474396 0.403257
0.502884 0.519444 0.447409
0.285664 0.319989 0.257117
0.327093 0.361093 0.294304
0.370985 0.404058 0.333962
0.416832 0.448368 0.375761
0.463994 0.493423 0.419255
0.511375 0.538203 0.463544
0.558328 0.582184 0.508187
0.604113 0.624816 0.552561
0.647696 0.665242 0.595644
0.425351 0.467291 0.391427
0.472676 0.512466 0.435405
0.519882 0.556854 0.479757
0.566761 0.600375 0.524431
0.612217 0.642166 0.568443
0.655284 0.681483 0.610847
0.695326 0.717873 0.650950
0.732039 0.751161 0.688332
0.765401 0.781400 0.722825
0.575176 0.618253 0.540586
0.620256 0.659080 0.584110
0.662775 0.697213 0.625744
0.702177 0.732316 0.664892
0.738227 0.764314 0.701230
0.770960 0.793335 0.734673
0.800596 0.819642 0.765313
0.827466 0.843564 0.793361
0.851934 0.865435 0.819121
0.708913 0.746219 0.678460
0.744303 0.776949 0.713745
0.776416 0.804795 0.746150
0.805503 0.830057 0.775818
0.831907 0.853073 0.802995
0.856002 0.874162 0.827997
0.878095 0.893610 0.851080
0.898420 0.911622 0.872433
0.915198 0.924334 0.892779
0.078958 0.088014 0.063941
0.078958 0.088014 0.063941
0.078958 0.088014 0.063941
0.078958 0.088014 0.063941
0.078958 0.088014 0.063941
0.078958 0.088014 0.063941
0.078958 0.088014 0.063941
0.078958 0.088014 0.063941
0.078958 0.088014 0.063941
0.078958 0.088014 0.063941
0.078958 0.088014 0.063941
0.078958 0.088014 0.063941
0.078958 0.088014 0.063941
0.078958 0.088014 0.063941
0.078958 0.088014 0.063941
0.090329 0.096726 0.069910
0.113077 0.118880 0.089124
0.138446 0.143429 0.110446
0.078958 0.088014 0.063941
0.078958 0.088014 0.063941
0.078958 0.088014 0.063941
0.094291 0.105778 0.076675
0.117499 0.128917 0.096631
0.143370 0.154530 0.118775
0.172116 0.182779 0.143312
0.203891 0.213771 0.170422
0.238766 0.247539 0.200238
0.098333 0.115235 0.083701
0.122009 0.139393 0.104428
0.148389 0.166099 0.127421
0.177678 0.195495 0.152876
0.210016 0.227657 0.180959
0.245455 0.262581 0.211780
0.283933 0.300159 0.245377
0.325246 0.340165 0.281694
0.369041 0.382253 0.320564
0.183342 0.208702 0.162788
0.216244 0.242034 0.191859
0.252246 0.278095 0.223691
0.291260 0.316731 0.258290
0.333056 0.357663 0.295562
0.377254 0.400494 0.335296
0.423324 0.444716 0.377158
0.470613 0.489734 0.420698
0.518020 0.534550 0.465025
0.298679 0.333711 0.271559
0.340946 0.375499 0.309758
0.385529 0.418983 0.350312
0.431874 0.463617 0.392843
0.479306 0.508779 0.436861
0.526504 0.553228 0.481237
0.573215 0.596862 0.525890
0.618391 0.638827 0.569858
0.661095 0.678358 0.612202
0.440459 0.482612 0.408725
0.487831 0.527614 0.452965
0.535021 0.571770 0.497505
0.581570 0.614805 0.542031
0.626348 0.655824 0.585505
0.668492 0.694183 0.627073
0.707478 0.729527 0.666145
0.743100 0.761763 0.702403
0.775414 0.791010 0.735763
0.589890 0.632387 0.558031
0.634226 0.672355 0.600897
0.675784 0.709482 0.641612
0.714116 0.743528 0.679684
0.749081 0.774492 0.714886
0.780785 0.802557 0.747208
0.809492 0.828015 0.776799
0.835550 0.851204 0.803902
0.859322 0.872450 0.828831
0.720638 0.756993 0.692841
0.754952 0.786715 0.726988
0.786056 0.813647 0.758294
0.814239 0.838107 0.786947
0.839863 0.860434 0.813222
0.863289 0.880937 0.837426
0.884797 0.899879 0.859790
0.904594 0.917435 0.880481
0.916585 0.925721 0.899282
0.078958 0.088014 0.063941
0.078958 0.088014 0.063941
0.078958 0.088014 0.063941
0.078958 0.088014 0.063941
0.078958 0.088014 0.063941
0.078958 0.088014 0.063941
0.078958 0.088014 0.063941
0.078958 0.088014 0.063941
0.078958 0.088014 0.063941
0.078958 0.088014 0.063941
0.078958 0.088014 0.063941
0.078958 0.088014 0.063941
0.078958 0.088014 0.063941
0.078958 0.088014 0.063941
0.078958 0.088014 0.063941
0.097366 0.103994 0.077295
0.120930 0.126939 0.097319
0.147189 0.152344 0.119537
0.078958 0.088014 0.063941
0.078958 0.088014 0.063941
0.079931 0.091759 0.065603
0.101470 0.113371 0.084344
0.125509 0.137329 0.105142
0.152282 0.163821 0.128212
0.181988 0.192993 0.153751
0.214756 0.224929 0.181922
0.250625 0.259630 0.212834
0.105658 0.123164 0.091666
0.130178 0.148169 0.113267
0.157473 0.175775 0.137215
0.187729 0.206105 0.163695
0.221063 0.239211 0.192855
0.257492 0.275054 0.224778
0.296909 0.313488 0.259467
0.339066 0.354246 0.296823
0.383559 0.396940 0.336632
0.193574 0.219711 0.173995
0.227473 0.253980 0.204155
0.264459 0.290939 0.237089
0.304399 0.330391 0.272767
0.347016 0.372019 0.311047
0.391879 0.415385 0.351672
0.438417 0.459947 0.394260
0.485943 0.505090 0.438318
0.533120 0.549595 0.482718
0.311977 0.347682 0.286413
0.355040 0.390102 0.325583
0.400256 0.434042 0.366973
0.447028 0.478927 0.410159
0.494485 0.523949 0.454445
0.541601 0.568175 0.498981
0.587943 0.611345 0.543477
0.632411 0.652554 0.586900
0.674173 0.691138 0.628403
0.455666 0.497963 0.426226
0.502987 0.542685 0.470607
0.550099 0.586559 0.515241
0.596195 0.628999 0.559460
0.640202 0.669173 0.602270
0.681369 0.706534 0.642914
0.719277 0.740820 0.680907
0.753816 0.772019 0.716027
0.785109 0.800304 0.748268
0.604395 0.646252 0.575255
0.647906 0.685300 0.617351
0.688456 0.721394 0.657072
0.725702 0.754382 0.694034
0.759594 0.784334 0.728097
0.790298 0.811477 0.759322
0.818113 0.836126 0.787898
0.843400 0.858620 0.814101
0.866509 0.879274 0.838231
0.732012 0.767416 0.706777
0.765266 0.796158 0.739793
0.795393 0.822213 0.770027
0.822709 0.845912 0.797703
0.847594 0.867586 0.823120
0.870381 0.887533 0.846557
0.891326 0.905989 0.868228
0.910605 0.923098 0.888273
0.918029 0.927165 0.900726
0.078958 0.088014 0.063941
0.078958 0.088014 0.063941
0.078958 0.088014 0.063941
0.078958 0.088014 0.063941
0.078958 0.088014 0.063941
0.078958 0.088014 0.063941
0.078958 0.088014 0.063941
0.078958 0.088014 0.063941
0.079052 0.088014 0.063941
0.078958 0.088014 0.063941
0.078958 0.088014 0.063941
0.078958 0.088014 0.063941
0.078958 0.088014 0.063941
0.078958 0.088014 0.063941
0.082785 0.090093 0.066185
0.104656 0.111522 0.084990
0.129061 0.135282 0.105859
0.156232 0.161561 0.129007
0.078958 0.088014 0.063941
0.078958 0.088014 0.063941
0.086594 0.098848 0.072806
0.108908 0.121234 0.092337
0.133801 0.146033 0.114012
0.161498 0.173422 0.138039
0.192177 0.203527 0.164605
0.225942 0.236406 0.193854
0.262796 0.272030 0.225867
0.113246 0.131374 0.099969
0.138634 0.157245 0.122476
0.166863 0.185766 0.147408
0.198099 0.217037 0.174937
0.232431 0.251081 0.205187
0.269838 0.287827 0.238212
0.310170 0.327086 0.273977
0.353128 0.368551 0.312339
0.398262 0.411794 0.353035
0.204125 0.231040 0.185630
0.239022 0.266237 0.216888
0.276978 0.304071 0.250921
0.317815 0.344304 0.287654
0.361208 0.386576 0.326903
0.406678 0.430414 0.368359
0.453613 0.475245 0.411594
0.501141 0.520282 0.455925
0.548174 0.564571 0.500454
0.325546 0.361885 0.301665
0.369357 0.404881 0.341760
0.415143 0.449211 0.383919
0.462270 0.494273 0.427675
0.509634 0.539037 0.472091
0.556625 0.583002 0.516709
0.602476 0.625599 0.560890
0.646147 0.665977 0.603643
0.686915 0.703568 0.644216
0.470948 0.513317 0.443894
0.518150 0.557683 0.488315
0.565073 0.601180 0.532901
0.610601 0.642930 0.576666
0.653759 0.682195 0.618699
0.693904 0.718527 0.658346
0.730724 0.751756 0.695226
0.764193 0.781938 0.729207
0.794496 0.809294 0.760350
0.618662 0.659823 0.592211
0.661275 0.697901 0.633437
0.700780 0.732946 0.672109
0.736938 0.764885 0.707938
0.769775 0.793852 0.740871
0.799511 0.820110 0.771025
0.826473 0.843990 0.798626
0.851027 0.865825 0.823969
0.873505 0.885917 0.847334
0.743038 0.777497 0.720266
0.775254 0.805291 0.752167
0.804437 0.830507 0.781363
0.830930 0.853483 0.808106
0.855112 0.874539 0.832700
0.877287 0.893957 0.855401
0.897687 0.911944 0.876402
0.915237 0.924373 0.896430
0.919473 0.928609 0.902170
0.078958 0.088014 0.063941
0.078958 0.088014 0.063941
0.078958 0.088014 0.063941
0.078958 0.088014 0.063941
0.078958 0.088014 0.063941
0.078958 0.088014 0.063941
0.078958 0.088014 0.063941
0.078958 0.088014 0.063941
0.085682 0.088442 0.066769
0.078958 0.088014 0.063941
0.078958 0.088014 0.063941
0.078958 0.088014 0.063941
0.078958 0.088014 0.063941
0.078958 0.088014 0.063941
0.089550 0.097122 0.073413
0.112208 0.119320 0.093010
0.137478 0.143915 0.114758
0.165580 0.171087 0.138866
0.078958 0.088014 0.063941
0.078958 0.088014 0.063941
0.093496 0.106192 0.080312
0.116613 0.129376 0.100668
0.142383 0.155037 0.123252
0.171022 0.183337 0.148266
0.202685 0.214381 0.175882
0.237448 0.248201 0.206222
0.275274 0.284731 0.239338
0.121105 0.139872 0.108621
0.147384 0.166627 0.132067
0.176564 0.196074 0.158011
0.208790 0.228289 0.186608
0.244117 0.263264 0.217957
0.282487 0.300890 0.252079
0.323703 0.340939 0.288898
0.367416 0.383062 0.328224
0.413129 0.426791 0.369746
0.214997 0.242687 0.197699
0.250888 0.278799 0.230060
0.289795 0.317481 0.265179
0.331497 0.358453 0.302939
0.375616 0.401315 0.343107
0.421629 0.445558 0.385326
0.468886 0.490585 0.429126
0.516280 0.535385 0.473577
0.563143 0.579435 0.518170
0.339371 0.376303 0.317300
0.383879 0.419814 0.358262
0.430170 0.464464 0.401117
0.477576 0.509629 0.445355
0.524772 0.554058 0.489798
0.571531 0.597670 0.534359
0.616781 0.639595 0.578078
0.659578 0.679075 0.620048
0.699312 0.715643 0.659620
0.486089 0.528450 0.461495
0.533300 0.572593 0.506052
0.579904 0.615597 0.550426
0.624760 0.656572 0.593601
0.667000 0.694876 0.634759
0.706090 0.730161 0.673353
0.741820 0.762339 0.709099
0.774241 0.791530 0.741949
0.803586 0.817994 0.772022
0.632662 0.673080 0.608855
0.674317 0.710151 0.649130
0.712754 0.744137 0.686707
0.747826 0.775044 0.721395
0.779633 0.803056 0.753214
0.808437 0.828468 0.782330
0.834585 0.851617 0.808999
0.858443 0.872829 0.833520
0.880317 0.892388 0.856151
0.753721 0.787245 0.733312
0.784926 0.814126 0.764123
0.813203 0.838543 0.792316
0.838915 0.860833 0.818169
0.862426 0.881304 0.841975
0.884014 0.900218 0.863968
0.903883 0.917749 0.884317
0.916665 0.925801 0.899362
0.920917 0.930053 0.903614
0.078958 0.088014 0.063941
0.078958 0.088014 0.063941
0.078958 0.088014 0.063941
0.078958 0.088014 0.063941
0.078958 0.088014 0.063941
0.078958 0.088014 0.063941
0.078958 0.088014 0.063941
0.078958 0.088014 0.063941
0.092552 0.095411 0.074021
0.078958 0.088014 0.063941
0.078958 0.088014 0.063941
0.078958 0.088014 0.063941
0.078958 0.088014 0.063941
0.078958 0.088014 0.063941
0.096559 0.104404 0.080944
0.120030 0.127394 0.101369
0.146188 0.152846 0.124029
0.175239 0.180926 0.149126
0.078958 0.088014 0.063941
0.079194 0.092146 0.069019
0.100648 0.113799 0.088135
0.124591 0.137804 0.109349
0.151262 0.164345 0.132874
0.180858 0.193568 0.158902
0.213514 0.225556 0.187588
0.249271 0.260309 0.219028
0.288052 0.297726 0.253240
0.129242 0.148664 0.117636
0.156433 0.176320 0.142051
0.186580 0.206702 0.169032
0.219801 0.239860 0.198712
0.256118 0.275754 0.231164
0.295431 0.314234 0.266371
0.337494 0.355033 0.304215
0.381911 0.397759 0.344456
0.428139 0.441910 0.386735
0.226190 0.254651 0.210205
0.263065 0.291659 0.243667
0.302902 0.331156 0.279854
0.345429 0.372820 0.318604
0.390220 0.416214 0.359635
0.436709 0.460793 0.402544
0.484212 0.505940 0.446817
0.531390 0.550427 0.491281
0.577982 0.594146 0.535809
0.353438 0.390916 0.333296
0.398586 0.434880 0.375064
0.445313 0.479777 0.418534
0.492742 0.524786 0.462979
0.539882 0.568999 0.507529
0.586281 0.612140 0.551869
0.630829 0.653306 0.594991
0.672689 0.691835 0.636082
0.711361 0.727359 0.674594
0.501247 0.543517 0.479166
0.548394 0.587374 0.523751
0.594552 0.629778 0.567758
0.638645 0.669903 0.610222
0.679910 0.707207 0.650424
0.717925 0.741434 0.687920
0.752571 0.772576 0.722525
0.783969 0.800807 0.754260
0.812393 0.826416 0.783298
0.646372 0.686006 0.625151
0.687023 0.722043 0.664406
0.724375 0.754972 0.700860
0.758374 0.784868 0.734409
0.789179 0.811961 0.765138
0.817088 0.836565 0.793254
0.842463 0.859021 0.819034
0.865657 0.879643 0.842767
0.886953 0.898692 0.864691
0.764068 0.796671 0.745922
0.794294 0.822677 0.775671
0.821702 0.846335 0.802903
0.846675 0.867973 0.827906
0.869545 0.887890 0.850955
0.890567 0.906319 0.872267
0.909945 0.923174 0.892010
0.918109 0.927245 0.900806
0.922361 0.931497 0.905058
0.078958 0.088014 0.063941
0.078958 0.088014 0.063941
0.078958 0.088014 0.063941
0.078958 0.088014 0.063941
0.078958 0.088014 0.063941
0.078958 0.088014 0.063941
0.078958 0.088014 0.063941
0.078958 0.088014 0.063941
0.099670 0.102631 0.081578
0.078958 0.088014 0.063941
0.078958 0.088014 0.063941
0.078958 0.088014 0.063941
0.078958 0.088014 0.063941
0.082036 0.090476 0.069613
0.103821 0.111947 0.088794
0.128130 0.135752 0.110080
0.155196 0.162081 0.133684
0.185212 0.191081 0.159797
0.078958 0.088014 0.063941
0.085830 0.099248 0.076366
0.108056 0.121678 0.096288
0.132851 0.146524 0.118394
0.160443 0.173963 0.142891
0.191011 0.204120 0.169958
0.224664 0.237051 0.199729
0.261407 0.272726 0.232271
0.301120 0.311003 0.267567
0.137665 0.157757 0.127026
0.165788 0.186328 0.152440
0.196913 0.217652 0.180478
0.231132 0.251748 0.211254
0.268430 0.288543 0.244806
0.308660 0.327847 0.281080
0.351530 0.369350 0.319910
0.396594 0.412621 0.361010
0.443267 0.457126 0.403972
0.237703 0.266925 0.223149
0.275550 0.304807 0.257704
0.316288 0.345082 0.294933
0.359596 0.387388 0.334629
0.405001 0.431250 0.376460
0.451894 0.476094 0.419977
0.499398 0.521120 0.464463
0.546455 0.565398 0.509007
0.592638 0.608672 0.553313
0.367731 0.405704 0.349632
0.413456 0.450054 0.392135
0.460547 0.495124 0.436133
0.507894 0.539871 0.480653
0.554922 0.583819 0.525219
0.600838 0.626381 0.569185
0.644596 0.666710 0.611589
0.685465 0.704246 0.651718
0.723076 0.738710 0.689106
0.516418 0.558512 0.496878
0.563386 0.601984 0.541350
0.608985 0.643694 0.584847
0.652233 0.682906 0.626492
0.692480 0.719180 0.665671
0.729407 0.752350 0.702042
0.762983 0.782476 0.735507
0.793388 0.809781 0.766153
0.820930 0.834575 0.794192
0.659773 0.698589 0.641067
0.699382 0.733574 0.679251
0.735646 0.765456 0.714566
0.768588 0.794368 0.746987
0.798424 0.820578 0.776656
0.825477 0.844415 0.803812
0.850118 0.866214 0.828742
0.872679 0.886277 0.851719
0.893418 0.904837 0.872964
0.774089 0.805787 0.758104
0.803369 0.830957 0.786828
0.829952 0.853893 0.813139
0.854220 0.874916 0.837329
0.876477 0.894305 0.859653
0.896952 0.912267 0.880306
0.915300 0.924436 0.897997
0.919553 0.928689 0.902250
0.923805 0.932941 0.906502
