apps/capacitor-film-lab-ios/ios/App/App/Resources/CreativeLuts/filmtone-creative-pack-01-palermo-green-density.cube
TITLE "Filmtone Palermo Green Density"
# pack=creative-pack-01
# slug=filmtone-creative-pack-01-palermo-green-density
# bakerVersion=1.1.0-palermo-reference
# sourceCube=/Volumes/SamsungPortableSSDX5001/filmtone/Palermo_Powergrade & LUTs/Palermo Standalone LUTs/LUT + Extras/Palermo + Colour Density + Green Density.cube
# sourceCubeTransform=cold-green-density-v1
LUT_3D_SIZE 65
DOMAIN_MIN 0.0 0.0 0.0
DOMAIN_MAX 1.0 1.0 1.0
0.032335 0.043598 0.051703
0.035275 0.043664 0.051478
0.038214 0.043699 0.051269
0.041540 0.043718 0.051063
0.044877 0.043801 0.050790
0.048296 0.043883 0.050431
0.051851 0.043966 0.050057
0.055502 0.044003 0.049648
0.059414 0.043962 0.049137
0.063423 0.043860 0.048521
0.067437 0.043718 0.047805
0.071694 0.043486 0.047040
0.076173 0.043178 0.046226
0.081238 0.042743 0.045296
0.088131 0.042036 0.043915
0.095481 0.041222 0.042329
0.103338 0.040208 0.040557
0.112400 0.038931 0.038324
0.122630 0.037486 0.035715
0.133742 0.035868 0.032735
0.145051 0.034178 0.029531
0.156601 0.032315 0.025914
0.168191 0.030206 0.022056
0.179604 0.027935 0.018357
0.190915 0.025714 0.014811
0.202040 0.023662 0.011367
0.213078 0.022011 0.008237
0.224689 0.020942 0.005818
0.237213 0.020168 0.004512
0.250399 0.019380 0.004153
0.263880 0.018577 0.004148
0.278006 0.017806 0.004179
0.293036 0.017036 0.004212
0.308517 0.016297 0.004248
0.324082 0.015589 0.004286
0.339467 0.014558 0.004320
0.354787 0.013404 0.004354
0.369917 0.012265 0.004387
0.384633 0.010710 0.004415
0.398741 0.008646 0.004437
0.412318 0.006335 0.004455
0.425553 0.004085 0.004473
0.438043 0.002449 0.004494
0.449816 0.001691 0.004521
0.460942 0.001533 0.004552
0.471647 0.001527 0.004582
0.482129 0.001537 0.004612
0.492518 0.001547 0.004641
0.502885 0.001557 0.004670
0.513046 0.001566 0.004697
0.523071 0.001575 0.004724
0.532849 0.001583 0.004749
0.542220 0.001591 0.004773
0.551417 0.001598 0.004795
0.560352 0.001605 0.004816
0.569171 0.001612 0.004837
0.577600 0.001618 0.004855
0.585670 0.001624 0.004873
0.593437 0.001629 0.004888
0.601047 0.001634 0.004903
0.608585 0.001639 0.004918
0.615994 0.001644 0.004931
0.623317 0.001648 0.004944
0.630541 0.001652 0.004955
0.637206 0.001655 0.004966
0.031419 0.045413 0.052142
0.034068 0.045386 0.051291
0.037634 0.044955 0.051062
0.041212 0.044603 0.050903
0.044761 0.044313 0.050712
0.048349 0.044054 0.050400
0.051990 0.043966 0.050040
0.055654 0.044003 0.049632
0.059580 0.043963 0.049104
0.063616 0.043860 0.048487
0.067646 0.043718 0.047769
0.071919 0.043485 0.047002
0.076442 0.043160 0.046184
0.081640 0.042707 0.045211
0.088612 0.041998 0.043804
0.095985 0.041151 0.042212
0.103941 0.040118 0.040411
0.113089 0.038838 0.038151
0.123410 0.037375 0.035514
0.134630 0.035738 0.032510
0.145954 0.034047 0.029272
0.157562 0.032168 0.025606
0.169204 0.030013 0.021721
0.180641 0.027731 0.018036
0.191984 0.025514 0.014473
0.203078 0.023469 0.011035
0.214186 0.021887 0.007947
0.225921 0.020866 0.005660
0.238576 0.020077 0.004466
0.251790 0.019289 0.004156
0.265328 0.018502 0.004152
0.279569 0.017731 0.004182
0.294715 0.016960 0.004216
0.310135 0.016237 0.004252
0.325684 0.015499 0.004289
0.341128 0.014452 0.004324
0.356432 0.013267 0.004357
0.371560 0.012144 0.004390
0.386205 0.010527 0.004418
0.400242 0.008401 0.004439
0.413835 0.006059 0.004457
0.427010 0.003855 0.004475
0.439408 0.002312 0.004496
0.451101 0.001662 0.004524
0.462195 0.001534 0.004555
0.472871 0.001529 0.004586
0.483309 0.001538 0.004615
0.493726 0.001548 0.004645
0.504078 0.001558 0.004673
0.514252 0.001567 0.004701
0.524220 0.001576 0.004727
0.533968 0.001584 0.004752
0.543339 0.001592 0.004775
0.552521 0.001599 0.004798
0.561428 0.001606 0.004819
0.570217 0.001613 0.004839
0.578632 0.001619 0.004858
0.586659 0.001625 0.004875
0.594369 0.001630 0.004890
0.601993 0.001635 0.004905
0.609517 0.001640 0.004919
0.616940 0.001644 0.004933
0.624249 0.001648 0.004945
0.631429 0.001652 0.004957
0.637722 0.001655 0.004966
0.030432 0.047322 0.052462
0.030279 0.047493 0.051928
0.035713 0.047298 0.050902
0.040151 0.046745 0.050607
0.043934 0.046362 0.050433
0.047661 0.045995 0.050191
0.051470 0.045613 0.049862
0.055317 0.045308 0.049518
0.059427 0.044942 0.049054
0.063550 0.044529 0.048466
0.067668 0.044044 0.047758
0.072018 0.043469 0.046983
0.076514 0.043144 0.046165
0.081783 0.042690 0.045188
0.088728 0.041981 0.043781
0.096118 0.041134 0.042187
0.104091 0.040100 0.040366
0.113303 0.038803 0.038100
0.123582 0.037340 0.035466
0.134820 0.035718 0.032460
0.146146 0.034027 0.029223
0.157808 0.032116 0.025519
0.169400 0.029978 0.021658
0.180836 0.027697 0.017976
0.192175 0.025480 0.014416
0.203264 0.023436 0.010982
0.214379 0.021857 0.007899
0.226171 0.020851 0.005612
0.238840 0.020062 0.004451
0.252068 0.019274 0.004156
0.265679 0.018487 0.004152
0.280008 0.017700 0.004183
0.295167 0.016946 0.004217
0.310645 0.016207 0.004253
0.326266 0.015468 0.004291
0.341710 0.014407 0.004325
0.356999 0.013237 0.004358
0.372258 0.012098 0.004392
0.386861 0.010450 0.004419
0.400869 0.008294 0.004440
0.414505 0.005952 0.004458
0.427650 0.003748 0.004475
0.440046 0.002251 0.004498
0.451751 0.001647 0.004526
0.462816 0.001519 0.004557
0.473520 0.001529 0.004588
0.483999 0.001539 0.004617
0.494416 0.001549 0.004647
0.504797 0.001558 0.004675
0.514956 0.001567 0.004702
0.524938 0.001576 0.004729
0.534715 0.001585 0.004754
0.544071 0.001592 0.004777
0.553238 0.001600 0.004800
0.562173 0.001607 0.004821
0.570948 0.001614 0.004841
0.579292 0.001620 0.004859
0.587275 0.001625 0.004876
0.594999 0.001631 0.004892
0.602623 0.001636 0.004907
0.610133 0.001640 0.004921
0.617528 0.001645 0.004934
0.624822 0.001649 0.004946
0.632089 0.001653 0.004958
0.638052 0.001656 0.004967
0.029416 0.049387 0.052718
0.029207 0.049604 0.052202
0.030937 0.049777 0.052060
0.037588 0.049430 0.050556
0.042841 0.048754 0.050179
0.046773 0.048341 0.049955
0.050691 0.047913 0.049679
0.054677 0.047484 0.049369
0.058882 0.047010 0.048921
0.063143 0.046488 0.048386
0.067369 0.045958 0.047749
0.071826 0.045367 0.047027
0.076480 0.044731 0.046236
0.081812 0.043950 0.045232
0.088763 0.042914 0.043835
0.096265 0.041706 0.042191
0.104297 0.040267 0.040339
0.113472 0.038783 0.038053
0.123770 0.037320 0.035417
0.134996 0.035682 0.032411
0.146388 0.033990 0.029153
0.158003 0.032095 0.025454
0.169596 0.029943 0.021595
0.181014 0.027647 0.017916
0.192365 0.025447 0.014360
0.203449 0.023404 0.010930
0.214614 0.021842 0.007835
0.226376 0.020836 0.005597
0.239059 0.020062 0.004451
0.252302 0.019259 0.004157
0.265913 0.018471 0.004153
0.280256 0.017685 0.004184
0.295415 0.016930 0.004218
0.310907 0.016192 0.004254
0.326515 0.015438 0.004291
0.341958 0.014376 0.004326
0.357261 0.013206 0.004359
0.372504 0.012083 0.004393
0.387108 0.010420 0.004420
0.401103 0.008263 0.004440
0.414724 0.005906 0.004458
0.427869 0.003717 0.004476
0.440249 0.002236 0.004498
0.451939 0.001632 0.004526
0.463004 0.001519 0.004557
0.473649 0.001529 0.004588
0.484173 0.001539 0.004618
0.494588 0.001549 0.004647
0.504926 0.001558 0.004675
0.515128 0.001568 0.004703
0.525110 0.001576 0.004729
0.534858 0.001585 0.004754
0.544229 0.001593 0.004778
0.553396 0.001600 0.004800
0.562360 0.001607 0.004821
0.571134 0.001614 0.004841
0.579492 0.001620 0.004859
0.587504 0.001625 0.004876
0.595229 0.001631 0.004892
0.602838 0.001636 0.004907
0.610391 0.001640 0.004921
0.617800 0.001645 0.004934
0.625123 0.001649 0.004947
0.632389 0.001653 0.004958
0.638224 0.001656 0.004967
0.028343 0.051623 0.052910
0.028105 0.051902 0.052516
0.027841 0.052088 0.051964
0.032048 0.052219 0.051891
0.039678 0.051766 0.050186
0.045494 0.050983 0.049743
0.049770 0.050478 0.049486
0.053879 0.049972 0.049193
0.058180 0.049420 0.048798
0.062549 0.048822 0.048297
0.066910 0.048168 0.047715
0.071476 0.047470 0.047028
0.076212 0.046740 0.046235
0.081639 0.045974 0.045266
0.088625 0.045000 0.043923
0.096266 0.043837 0.042327
0.104547 0.042454 0.040459
0.113849 0.040795 0.038193
0.124242 0.038846 0.035518
0.135555 0.036724 0.032442
0.146858 0.034646 0.029147
0.158362 0.032412 0.025418
0.169777 0.029893 0.021532
0.181210 0.027613 0.017856
0.192541 0.025414 0.014304
0.203680 0.023356 0.010860
0.214791 0.021811 0.007787
0.226581 0.020821 0.005565
0.239279 0.020047 0.004435
0.252522 0.019244 0.004157
0.266148 0.018456 0.004153
0.280519 0.017670 0.004184
0.295678 0.016915 0.004219
0.311170 0.016177 0.004255
0.326718 0.015438 0.004292
0.342206 0.014361 0.004326
0.357508 0.013191 0.004359
0.372693 0.012068 0.004393
0.387355 0.010389 0.004420
0.401336 0.008233 0.004441
0.414958 0.005860 0.004458
0.428088 0.003671 0.004476
0.440451 0.002221 0.004499
0.452141 0.001632 0.004527
0.463176 0.001519 0.004558
0.473822 0.001529 0.004588
0.484346 0.001539 0.004618
0.494761 0.001549 0.004647
0.505098 0.001559 0.004676
0.515287 0.001568 0.004703
0.525268 0.001577 0.004730
0.534987 0.001585 0.004755
0.544373 0.001593 0.004778
0.553539 0.001600 0.004800
0.562503 0.001607 0.004821
0.571278 0.001614 0.004841
0.579635 0.001620 0.004860
0.587633 0.001626 0.004877
0.595358 0.001631 0.004892
0.602967 0.001636 0.004907
0.610506 0.001640 0.004921
0.617915 0.001645 0.004934
0.625238 0.001649 0.004947
0.632519 0.001653 0.004958
0.638295 0.001656 0.004967
0.027214 0.053875 0.053036
0.026976 0.054139 0.052728
0.026574 0.054340 0.051846
0.028024 0.054592 0.052104
0.033379 0.054617 0.051433
0.041802 0.054228 0.049806
0.048221 0.053416 0.049334
0.052824 0.052881 0.049046
0.057275 0.052283 0.048703
0.061780 0.051638 0.048273
0.066301 0.050909 0.047748
0.070959 0.050103 0.047081
0.075820 0.049186 0.046285
0.081345 0.048218 0.045311
0.088297 0.047151 0.043987
0.096077 0.046017 0.042421
0.104482 0.044693 0.040582
0.113975 0.043092 0.038338
0.124595 0.041168 0.035697
0.136085 0.038977 0.032637
0.147676 0.036718 0.029227
0.159460 0.034446 0.025478
0.171224 0.032028 0.021595
0.182631 0.029487 0.017877
0.193756 0.026863 0.014277
0.204558 0.024320 0.010804
0.215294 0.022257 0.007728
0.226828 0.020898 0.005518
0.239499 0.020032 0.004436
0.252741 0.019244 0.004158
0.266382 0.018441 0.004154
0.280694 0.017670 0.004185
0.295926 0.016900 0.004219
0.311432 0.016177 0.004255
0.326967 0.015408 0.004292
0.342467 0.014346 0.004327
0.357755 0.013176 0.004360
0.372941 0.012037 0.004394
0.387587 0.010374 0.004421
0.401569 0.008187 0.004441
0.415118 0.005829 0.004458
0.428306 0.003641 0.004476
0.440654 0.002206 0.004499
0.452271 0.001632 0.004527
0.463363 0.001519 0.004558
0.474010 0.001530 0.004589
0.484518 0.001540 0.004619
0.494933 0.001549 0.004648
0.505256 0.001559 0.004676
0.515459 0.001568 0.004704
0.525427 0.001577 0.004730
0.535131 0.001585 0.004755
0.544531 0.001593 0.004778
0.553683 0.001600 0.004801
0.562617 0.001607 0.004822
0.571421 0.001614 0.004842
0.579778 0.001620 0.004860
0.587733 0.001626 0.004877
0.595473 0.001631 0.004893
0.603097 0.001636 0.004907
0.610634 0.001640 0.004921
0.618043 0.001645 0.004935
0.625352 0.001649 0.004947
0.632634 0.001653 0.004959
0.638353 0.001656 0.004967
0.025987 0.056237 0.053095
0.025735 0.056548 0.052841
0.025318 0.056749 0.051975
0.025067 0.056966 0.051615
0.028717 0.057191 0.052063
0.034952 0.057125 0.050914
0.043961 0.056786 0.049417
0.050870 0.055944 0.048985
0.056075 0.055349 0.048650
0.060810 0.054736 0.048275
0.065474 0.054041 0.047795
0.070290 0.053236 0.047169
0.075268 0.052305 0.046394
0.080888 0.051165 0.045434
0.087823 0.049866 0.044127
0.095730 0.048496 0.042533
0.104341 0.047059 0.040679
0.113901 0.045455 0.038482
0.124718 0.043586 0.035843
0.136362 0.041467 0.032785
0.148197 0.039167 0.029351
0.160259 0.036779 0.025597
0.172342 0.034371 0.021749
0.184152 0.031948 0.018037
0.195428 0.029418 0.014447
0.206276 0.026758 0.010897
0.216731 0.024227 0.007731
0.227576 0.022129 0.005417
0.239474 0.020493 0.004343
0.252418 0.019336 0.004142
0.266015 0.018472 0.004153
0.280417 0.017685 0.004184
0.295883 0.016900 0.004219
0.311680 0.016162 0.004256
0.327229 0.015392 0.004293
0.342715 0.014331 0.004327
0.358017 0.013161 0.004361
0.373203 0.012022 0.004394
0.387835 0.010344 0.004421
0.401802 0.008156 0.004441
0.415336 0.005799 0.004459
0.428525 0.003610 0.004477
0.440858 0.002175 0.004499
0.452458 0.001632 0.004528
0.463536 0.001520 0.004559
0.474182 0.001530 0.004590
0.484647 0.001540 0.004619
0.495106 0.001549 0.004648
0.505429 0.001559 0.004677
0.515589 0.001568 0.004704
0.525599 0.001577 0.004730
0.535289 0.001585 0.004755
0.544689 0.001593 0.004779
0.553841 0.001600 0.004801
0.562761 0.001607 0.004822
0.571564 0.001614 0.004842
0.579908 0.001620 0.004860
0.587862 0.001626 0.004877
0.595601 0.001631 0.004893
0.603211 0.001636 0.004908
0.610735 0.001641 0.004922
0.618158 0.001645 0.004935
0.625481 0.001649 0.004947
0.632748 0.001653 0.004959
0.638424 0.001656 0.004967
0.024509 0.058724 0.053176
0.024271 0.059003 0.052921
0.023869 0.059236 0.052160
0.023466 0.059452 0.051434
0.024611 0.059673 0.051708
0.029504 0.059730 0.051801
0.036645 0.059698 0.050384
0.046112 0.059408 0.049086
0.053620 0.058538 0.048644
0.059468 0.057850 0.048261
0.064465 0.057236 0.047828
0.069448 0.056543 0.047267
0.074567 0.055692 0.046552
0.080273 0.054599 0.045633
0.087210 0.053254 0.044364
0.095181 0.051728 0.042785
0.103965 0.050023 0.040915
0.113662 0.048165 0.038683
0.124572 0.046151 0.036011
0.136552 0.043972 0.032833
0.148659 0.041741 0.029377
0.160881 0.039378 0.025679
0.173214 0.036903 0.021919
0.185267 0.034462 0.018317
0.196900 0.032008 0.014791
0.207942 0.029429 0.011223
0.218285 0.026736 0.007996
0.228615 0.024006 0.005515
0.239581 0.021447 0.004367
0.251752 0.019627 0.004142
0.265020 0.018563 0.004151
0.279088 0.017745 0.004181
0.294233 0.016975 0.004215
0.309756 0.016252 0.004251
0.325393 0.015498 0.004289
0.341318 0.014422 0.004324
0.357101 0.013222 0.004359
0.372781 0.012052 0.004393
0.387922 0.010328 0.004421
0.402021 0.008110 0.004442
0.415571 0.005753 0.004459
0.428744 0.003564 0.004477
0.441061 0.002160 0.004500
0.452647 0.001617 0.004528
0.463724 0.001520 0.004559
0.474355 0.001530 0.004590
0.484820 0.001540 0.004620
0.495278 0.001550 0.004649
0.505601 0.001559 0.004677
0.515746 0.001568 0.004705
0.525757 0.001577 0.004731
0.535447 0.001585 0.004756
0.544832 0.001593 0.004779
0.553984 0.001600 0.004801
0.562905 0.001607 0.004822
0.571722 0.001614 0.004842
0.580051 0.001620 0.004861
0.587992 0.001626 0.004877
0.595731 0.001631 0.004893
0.603340 0.001636 0.004908
0.610849 0.001641 0.004922
0.618287 0.001645 0.004935
0.625596 0.001649 0.004947
0.632877 0.001653 0.004959
0.638481 0.001656 0.004967
0.022851 0.061273 0.053155
0.022614 0.061569 0.052952
0.022280 0.061785 0.052226
0.021865 0.061955 0.051255
0.021669 0.062204 0.051190
0.024734 0.062460 0.051795
0.030440 0.062271 0.051300
0.038360 0.062304 0.049877
0.048227 0.062126 0.048746
0.056428 0.061274 0.048312
0.062819 0.060588 0.047882
0.068311 0.059946 0.047355
0.073679 0.059190 0.046703
0.079509 0.058193 0.045844
0.086441 0.056927 0.044656
0.094482 0.055417 0.043096
0.103415 0.053676 0.041236
0.113254 0.051689 0.039007
0.124377 0.049449 0.036309
0.136459 0.047015 0.033092
0.148898 0.044646 0.029494
0.161344 0.042275 0.025829
0.173949 0.039777 0.022119
0.186264 0.037241 0.018607
0.198161 0.034708 0.015194
0.209490 0.032210 0.011718
0.220017 0.029583 0.008458
0.230203 0.026638 0.005765
0.240584 0.023402 0.004418
0.251756 0.020535 0.004150
0.264308 0.018931 0.004152
0.277974 0.017898 0.004179
0.292642 0.017066 0.004212
0.307758 0.016342 0.004247
0.323092 0.015604 0.004283
0.338783 0.014604 0.004319
0.354481 0.013419 0.004353
0.370221 0.012250 0.004388
0.385607 0.010618 0.004417
0.400300 0.008401 0.004439
0.414315 0.005998 0.004458
0.427928 0.003687 0.004476
0.440728 0.002175 0.004499
0.452633 0.001617 0.004528
0.463897 0.001520 0.004560
0.474528 0.001530 0.004591
0.484993 0.001540 0.004620
0.495452 0.001550 0.004649
0.505774 0.001559 0.004678
0.515918 0.001568 0.004705
0.525915 0.001577 0.004731
0.535605 0.001585 0.004756
0.544946 0.001593 0.004779
0.554128 0.001601 0.004802
0.563048 0.001608 0.004823
0.571823 0.001614 0.004843
0.580180 0.001620 0.004861
0.588134 0.001626 0.004878
0.595859 0.001631 0.004893
0.603470 0.001636 0.004908
0.610978 0.001641 0.004922
0.618416 0.001645 0.004935
0.625711 0.001649 0.004948
0.632992 0.001653 0.004959
0.638539 0.001656 0.004968
0.021069 0.063917 0.053085
0.020831 0.064212 0.052900
0.020553 0.064429 0.052209
0.020151 0.064615 0.051307
0.019831 0.064910 0.050861
0.020658 0.065052 0.051097
0.025117 0.065203 0.051644
0.031566 0.064860 0.050719
0.040014 0.064974 0.049393
0.050307 0.064908 0.048446
0.059334 0.064106 0.048042
0.066341 0.063430 0.047520
0.072383 0.062755 0.046865
0.078486 0.061915 0.046052
0.085481 0.060776 0.044910
0.093672 0.059327 0.043423
0.102670 0.057679 0.041618
0.112625 0.055719 0.039416
0.123922 0.053455 0.036698
0.136270 0.050884 0.033429
0.148972 0.048178 0.029813
0.161721 0.045609 0.026080
0.174564 0.043073 0.022452
0.187174 0.040531 0.019025
0.199326 0.037889 0.015689
0.210888 0.035239 0.012333
0.221709 0.032694 0.009100
0.232224 0.029949 0.006232
0.242816 0.026881 0.004613
0.253888 0.023814 0.004198
0.265527 0.021225 0.004175
0.278152 0.019222 0.004191
0.291980 0.017696 0.004215
0.306439 0.016572 0.004245
0.321357 0.015710 0.004279
0.336671 0.014740 0.004314
0.352079 0.013601 0.004348
0.367575 0.012432 0.004382
0.382812 0.010939 0.004412
0.397559 0.008860 0.004436
0.411791 0.006442 0.004454
0.425701 0.004023 0.004472
0.438931 0.002312 0.004495
0.451203 0.001646 0.004524
0.462873 0.001519 0.004557
0.473966 0.001530 0.004589
0.484705 0.001540 0.004619
0.495379 0.001550 0.004649
0.505846 0.001559 0.004678
0.516076 0.001568 0.004705
0.526087 0.001577 0.004732
0.535762 0.001586 0.004757
0.545104 0.001593 0.004780
0.554286 0.001601 0.004802
0.563191 0.001608 0.004823
0.571966 0.001614 0.004843
0.580323 0.001620 0.004861
0.588264 0.001626 0.004878
0.595960 0.001631 0.004894
0.603598 0.001636 0.004908
0.611108 0.001641 0.004922
0.618531 0.001645 0.004935
0.625840 0.001649 0.004948
0.633120 0.001653 0.004959
0.638611 0.001656 0.004968
0.019176 0.066639 0.052949
0.018924 0.066919 0.052764
0.018647 0.067136 0.052142
0.018245 0.067306 0.051257
0.017843 0.067507 0.050494
0.017675 0.067740 0.050464
0.020323 0.067997 0.051085
0.025625 0.067776 0.051197
0.032674 0.067482 0.050108
0.041648 0.067678 0.048895
0.052501 0.067818 0.048190
0.062228 0.067128 0.047763
0.069970 0.066450 0.047116
0.076911 0.065722 0.046298
0.084186 0.064787 0.045222
0.092518 0.063495 0.043797
0.101797 0.061905 0.042019
0.111863 0.060049 0.039846
0.123264 0.057872 0.037134
0.135911 0.055349 0.033849
0.148931 0.052566 0.030228
0.161932 0.049707 0.026494
0.175090 0.046897 0.022884
0.187923 0.044225 0.019540
0.200389 0.041580 0.016343
0.212234 0.038885 0.013037
0.223300 0.036205 0.009875
0.234174 0.033506 0.006927
0.245151 0.030639 0.004989
0.256390 0.027664 0.004302
0.267703 0.024567 0.004210
0.279490 0.021655 0.004216
0.292498 0.019205 0.004230
0.306167 0.017295 0.004251
0.320330 0.015955 0.004278
0.335054 0.014862 0.004310
0.350157 0.013753 0.004343
0.365394 0.012599 0.004377
0.380482 0.011214 0.004408
0.395123 0.009258 0.004432
0.409342 0.006870 0.004451
0.423311 0.004421 0.004469
0.436698 0.002494 0.004490
0.449138 0.001690 0.004519
0.460884 0.001532 0.004551
0.472281 0.001528 0.004584
0.483396 0.001539 0.004616
0.494372 0.001549 0.004646
0.505242 0.001559 0.004676
0.515819 0.001568 0.004705
0.526073 0.001577 0.004732
0.535935 0.001586 0.004757
0.545320 0.001593 0.004780
0.554472 0.001601 0.004803
0.563378 0.001608 0.004823
0.572109 0.001614 0.004843
0.580467 0.001620 0.004861
0.588393 0.001626 0.004878
0.596089 0.001631 0.004894
0.603727 0.001636 0.004909
0.611222 0.001641 0.004923
0.618616 0.001645 0.004936
0.625925 0.001649 0.004948
0.633236 0.001653 0.004960
0.638668 0.001656 0.004968
0.017049 0.069454 0.052691
0.016785 0.069749 0.052503
0.016453 0.069965 0.051930
0.016025 0.070118 0.051075
0.015543 0.070240 0.050043
0.015197 0.070611 0.049905
0.015761 0.070661 0.050056
0.020276 0.070991 0.050890
0.026283 0.070258 0.050544
0.033806 0.070137 0.049465
0.043250 0.070414 0.048402
0.054850 0.070824 0.047927
0.065204 0.070271 0.047457
0.073836 0.069602 0.046665
0.082024 0.068763 0.045601
0.090739 0.067675 0.044242
0.100417 0.066252 0.042458
0.110733 0.064515 0.040292
0.122288 0.062470 0.037601
0.135206 0.060091 0.034359
0.148705 0.057458 0.030723
0.162123 0.054627 0.026994
0.175593 0.051635 0.023434
0.188690 0.048662 0.020150
0.201388 0.045782 0.017055
0.213518 0.042949 0.013814
0.224874 0.040163 0.010673
0.235978 0.037418 0.007691
0.247286 0.034551 0.005431
0.258768 0.031576 0.004440
0.270164 0.028433 0.004267
0.281653 0.025104 0.004253
0.294010 0.021885 0.004258
0.306893 0.018989 0.004268
0.320199 0.016740 0.004285
0.334288 0.015123 0.004310
0.348993 0.013845 0.004341
0.363866 0.012721 0.004373
0.378706 0.011412 0.004404
0.393170 0.009564 0.004429
0.407154 0.007253 0.004449
0.421009 0.004788 0.004466
0.434520 0.002739 0.004486
0.447084 0.001781 0.004514
0.458937 0.001546 0.004546
0.470409 0.001526 0.004579
0.481654 0.001537 0.004611
0.492791 0.001547 0.004642
0.503791 0.001557 0.004672
0.514511 0.001567 0.004701
0.524952 0.001576 0.004729
0.535131 0.001585 0.004755
0.544846 0.001593 0.004779
0.554256 0.001601 0.004802
0.563464 0.001608 0.004824
0.572353 0.001615 0.004844
0.580682 0.001621 0.004862
0.588608 0.001626 0.004879
0.596246 0.001631 0.004894
0.603885 0.001636 0.004909
0.611365 0.001641 0.004923
0.618746 0.001645 0.004936
0.626040 0.001649 0.004948
0.633321 0.001653 0.004960
0.638740 0.001656 0.004968
0.014676 0.072397 0.052270
0.014386 0.072674 0.052093
0.014001 0.072873 0.051564
0.013548 0.073008 0.050753
0.013000 0.073127 0.049766
0.012533 0.073433 0.049302
0.012355 0.073617 0.049264
0.014698 0.073871 0.049909
0.020122 0.073797 0.050460
0.026774 0.072756 0.049805
0.034796 0.072810 0.048773
0.044694 0.073214 0.047878
0.057229 0.073958 0.047638
0.068283 0.073519 0.047096
0.077961 0.072852 0.046125
0.087814 0.071920 0.044740
0.098212 0.070695 0.042968
0.109073 0.069119 0.040800
0.120875 0.067222 0.038129
0.134148 0.065014 0.034904
0.148004 0.062535 0.031313
0.161906 0.059870 0.027636
0.175761 0.057047 0.024119
0.189326 0.054059 0.020863
0.202366 0.051033 0.017847
0.214774 0.047891 0.014635
0.226411 0.044830 0.011528
0.237760 0.041932 0.008527
0.249298 0.038987 0.005944
0.261127 0.035921 0.004615
0.272794 0.032746 0.004313
0.284522 0.029449 0.004300
0.296722 0.025952 0.004303
0.309124 0.022470 0.004306
0.321733 0.019235 0.004312
0.334827 0.016570 0.004325
0.348618 0.014475 0.004346
0.363117 0.012935 0.004373
0.377657 0.011565 0.004403
0.391988 0.009763 0.004428
0.405811 0.007498 0.004447
0.419406 0.005079 0.004464
0.432761 0.002952 0.004483
0.445233 0.001871 0.004509
0.457048 0.001560 0.004541
0.468565 0.001524 0.004573
0.479826 0.001535 0.004606
0.491007 0.001546 0.004637
0.502137 0.001556 0.004668
0.513017 0.001566 0.004697
0.523617 0.001575 0.004725
0.533954 0.001584 0.004752
0.543828 0.001592 0.004777
0.553425 0.001600 0.004800
0.562761 0.001607 0.004822
0.571766 0.001614 0.004842
0.580323 0.001620 0.004861
0.588464 0.001626 0.004878
0.596217 0.001631 0.004894
0.603928 0.001636 0.004909
0.611609 0.001641 0.004923
0.619061 0.001645 0.004936
0.626312 0.001650 0.004949
0.633565 0.001653 0.004960
0.638912 0.001656 0.004968
0.012060 0.075383 0.051752
0.011786 0.075643 0.051569
0.011376 0.075824 0.051068
0.010870 0.075926 0.050301
0.010297 0.076027 0.049357
0.009764 0.076205 0.048606
0.009367 0.076602 0.048502
0.009504 0.076496 0.048543
0.013769 0.076981 0.049598
0.019811 0.076333 0.049833
0.027153 0.075254 0.049014
0.035714 0.075499 0.048117
0.046322 0.076158 0.047415
0.059515 0.077203 0.047249
0.071314 0.076916 0.046630
0.082482 0.076225 0.045395
0.094326 0.075152 0.043569
0.106371 0.073780 0.041362
0.118784 0.072133 0.038732
0.132532 0.070111 0.035538
0.146976 0.067778 0.031937
0.161333 0.065246 0.028255
0.175784 0.062554 0.024731
0.189729 0.059784 0.021559
0.203138 0.056903 0.018654
0.215970 0.053805 0.015405
0.227954 0.050623 0.012301
0.239641 0.047371 0.009327
