apps/capacitor-film-lab-ios/ios/App/App/Resources/CreativeLuts/filmtone-creative-pack-01-urban-density.cube
TITLE "Filmtone Urban Density"
# pack=creative-pack-01
# slug=filmtone-creative-pack-01-urban-density
# bakerVersion=1.2.0-filmtone-urban-density
# generator=filmtone-urban-density-v1
LUT_3D_SIZE 5
DOMAIN_MIN 0.0 0.0 0.0
DOMAIN_MAX 1.0 1.0 1.0
0.021754 0.023211 0.022629
0.132871 0.031274 0.023426
0.303415 0.019945 0.007598
0.513341 0.014375 0.009869
0.653071 0.018809 0.013323
0.031397 0.124332 0.057117
0.147758 0.131423 0.055519
0.436196 0.098148 0.022036
0.797178 0.038917 0.026925
0.946975 0.053377 0.040848
0.043861 0.277639 0.069326
0.047161 0.314121 0.069494
0.302282 0.304119 0.073745
0.681138 0.312240 0.096408
0.937741 0.224615 0.113597
0.072612 0.485137 0.089367
0.075437 0.525503 0.095173
0.152418 0.550457 0.083384
0.533533 0.538451 0.081942
0.920974 0.586124 0.212046
0.116997 0.698761 0.112159
0.131022 0.739134 0.125940
0.151076 0.783320 0.121865
0.286188 0.754271 0.130104
0.768215 0.799772 0.161040
0.020745 0.030242 0.062620
0.107810 0.036668 0.083262
0.341455 0.011900 0.027091
0.541194 0.010485 0.007213
0.685701 0.019402 0.013999
0.016321 0.126342 0.139765
0.137195 0.153895 0.144021
0.578575 0.097574 0.055304
0.891136 0.033059 0.025758
1.000000 0.043060 0.034265
0.037984 0.293902 0.084975
0.055826 0.349080 0.128679
0.372357 0.338082 0.063297
0.711994 0.344398 0.103655
0.938710 0.249740 0.123612
0.075437 0.505597 0.090674
0.081648 0.549475 0.104402
0.085499 0.593628 0.086884
0.568966 0.555609 0.085016
0.935344 0.624642 0.223698
0.124590 0.718727 0.119624
0.140528 0.761609 0.135353
0.150825 0.798354 0.145642
0.244707 0.782696 0.136390
0.786315 0.818365 0.169432
0.011096 0.019373 0.205845
0.081994 0.011457 0.379269
0.336969 0.000000 0.281639
0.538277 0.000113 0.172413
0.710289 0.004548 0.076608
0.011990 0.105762 0.397152
0.076829 0.143305 0.409781
0.470035 0.091114 0.395876
0.871645 0.012585 0.312302
1.000000 0.036207 0.157250
0.018650 0.298857 0.332284
0.035315 0.360316 0.420543
0.368416 0.437159 0.452091
0.854949 0.354345 0.311003
1.000000 0.178019 0.230309
0.038794 0.520891 0.195618
0.072834 0.584954 0.220599
0.142005 0.671546 0.381734
0.716138 0.627736 0.134946
0.959899 0.655004 0.237331
0.114624 0.733486 0.146534
0.152294 0.788967 0.162011
0.179108 0.842416 0.325457
0.192241 0.884904 0.236888
0.856136 0.838625 0.185222
0.007143 0.015765 0.400628
0.019354 0.009664 0.684134
0.257397 0.000063 0.572999
0.514882 0.000071 0.465377
0.684552 0.003857 0.418954
0.011159 0.034224 1.000000
0.063765 0.043800 1.000000
0.477018 0.008783 0.957710
0.812213 0.013347 0.726760
1.000000 0.020480 0.637689
0.027006 0.258821 0.683360
0.038384 0.312988 0.721314
0.287410 0.397121 0.704830
0.744273 0.351181 0.686760
1.000000 0.169776 0.792496
0.040141 0.522874 0.616364
0.060667 0.574340 0.692135
0.131154 0.671933 0.767364
0.616388 0.724810 0.774067
0.968195 0.661241 0.619916
0.088475 0.739027 0.451935
0.119734 0.796861 0.496401
0.187628 0.877936 0.571803
0.305738 0.966830 0.682019
0.935028 0.903988 0.349124
0.007841 0.019326 0.531319
0.005977 0.016542 0.800996
0.166257 0.002451 0.835150
0.469623 0.001356 0.645830
0.681774 0.005045 0.620659
0.012271 0.038218 1.000000
0.015040 0.046545 1.000000
0.340699 0.030705 1.000000
0.761742 0.014646 0.969027
0.985656 0.023570 0.892506
0.025758 0.114794 1.000000
0.032167 0.141500 1.000000
0.284405 0.295659 0.959723
0.869697 0.180814 1.000000
1.000000 0.108323 1.000000
0.070796 0.489411 0.846236
0.078554 0.540889 0.910584
0.108202 0.625470 0.952865
0.534304 0.683978 0.903468
0.943857 0.654968 0.893289
0.107840 0.736070 0.846606
0.116653 0.787060 0.897130
0.133793 0.854999 0.958929
0.333271 0.938170 0.961609
0.944734 0.945864 0.892744
