apps/capacitor-film-lab-ios/ios/App/App/Resources/CreativeLuts/filmtone-creative-pack-01-stone.cube
TITLE "Filmtone Stone"
# pack=creative-pack-01
# slug=filmtone-creative-pack-01-stone
# bakerVersion=1.3.0-filmtone-stone-urban
# generator=filmtone-stone-palermo-reference-v1
LUT_3D_SIZE 65
DOMAIN_MIN 0.0 0.0 0.0
DOMAIN_MAX 1.0 1.0 1.0
0.037062 0.039368 0.035905
0.040454 0.039429 0.035676
0.043864 0.039460 0.035462
0.047813 0.039475 0.035248
0.051721 0.039567 0.034958
0.055810 0.039658 0.034592
0.060123 0.039719 0.034211
0.064502 0.039750 0.033783
0.069439 0.039643 0.033219
0.074133 0.039521 0.032578
0.079025 0.039338 0.031907
0.084236 0.039048 0.031235
0.089402 0.038712 0.030594
0.097092 0.038087 0.029602
0.105164 0.037369 0.028519
0.113663 0.036469 0.027344
0.123368 0.035340 0.025864
0.134126 0.034058 0.024155
0.145677 0.032639 0.022171
0.157136 0.031159 0.019959
0.168748 0.029450 0.017243
0.180208 0.027421 0.014267
0.191561 0.025223 0.011353
0.203020 0.023117 0.008347
0.214464 0.021134 0.005234
0.226748 0.019791 0.002335
0.240344 0.018967 0.000565
0.254840 0.018128 0.000046
0.269702 0.017273 0.000000
0.285190 0.016434 0.000000
0.301899 0.015610 0.000000
0.319097 0.014817 0.000000
0.336401 0.014054 0.000000
0.353586 0.012924 0.000000
0.370620 0.011673 0.000000
0.387547 0.010468 0.000000
0.403759 0.008667 0.000000
0.419224 0.006302 0.000000
0.434217 0.003784 0.000000
0.448723 0.001526 0.000000
0.462223 0.000290 0.000000
0.475007 0.000015 0.000000
0.487166 0.000000 0.000000
0.499006 0.000000 0.000000
0.510770 0.000000 0.000000
0.522505 0.000000 0.000000
0.534027 0.000000 0.000000
0.545367 0.000000 0.000000
0.556417 0.000000 0.000000
0.567027 0.000000 0.000000
0.577408 0.000000 0.000000
0.587514 0.000000 0.000000
0.597454 0.000000 0.000000
0.606876 0.000000 0.000000
0.615841 0.000000 0.000000
0.624532 0.000000 0.000000
0.633147 0.000000 0.000000
0.641625 0.000000 0.000000
0.649982 0.000000 0.000000
0.658171 0.000000 0.000000
0.666361 0.000000 0.000000
0.670691 0.000000 0.000000
0.671512 0.000000 0.000000
0.671600 0.000000 0.000000
0.671629 0.000000 0.000000
0.036037 0.041184 0.035981
0.039112 0.041245 0.035447
0.042929 0.041184 0.035203
0.046923 0.041199 0.034989
0.050981 0.041230 0.034745
0.055160 0.041276 0.034424
0.059532 0.041276 0.034043
0.064047 0.041306 0.033677
0.069074 0.041230 0.033143
0.073828 0.041123 0.032547
0.078796 0.040971 0.031907
0.084083 0.040726 0.031281
0.089371 0.040436 0.030640
0.096940 0.039887 0.029679
0.105118 0.039231 0.028611
0.113877 0.038392 0.027421
0.123628 0.037308 0.026001
0.134538 0.035965 0.024308
0.146257 0.034379 0.022324
0.157899 0.032868 0.020066
0.169664 0.031235 0.017350
0.181444 0.029389 0.014404
0.192980 0.027375 0.011475
0.204455 0.025269 0.008423
0.215945 0.023026 0.005203
0.227694 0.021164 0.002258
0.240466 0.019684 0.000427
0.254245 0.018341 0.000031
0.268833 0.017334 0.000000
0.283850 0.016495 0.000000
0.300212 0.015686 0.000000
0.317123 0.014908 0.000000
0.333960 0.014176 0.000000
0.351164 0.013092 0.000000
0.368094 0.011856 0.000000
0.385072 0.010651 0.000000
0.401592 0.008942 0.000000
0.417198 0.006638 0.000000
0.432302 0.004135 0.000000
0.447055 0.001740 0.000000
0.460863 0.000336 0.000000
0.473789 0.000015 0.000000
0.486210 0.000000 0.000000
0.498266 0.000000 0.000000
0.510186 0.000000 0.000000
0.522122 0.000000 0.000000
0.533876 0.000000 0.000000
0.545249 0.000000 0.000000
0.556470 0.000000 0.000000
0.567219 0.000000 0.000000
0.577587 0.000000 0.000000
0.587773 0.000000 0.000000
0.597684 0.000000 0.000000
0.607093 0.000000 0.000000
0.616060 0.000000 0.000000
0.624706 0.000000 0.000000
0.633369 0.000000 0.000000
0.641926 0.000000 0.000000
0.650284 0.000000 0.000000
0.658476 0.000000 0.000000
0.666698 0.000000 0.000000
0.671303 0.000000 0.000000
0.672309 0.000000 0.000000
0.672399 0.000000 0.000000
0.672443 0.000000 0.000000
0.034908 0.043122 0.036057
0.037381 0.043336 0.035874
0.041089 0.043259 0.034974
0.045777 0.043198 0.034714
0.050075 0.043229 0.034501
0.054328 0.043275 0.034226
0.058775 0.043290 0.033875
0.063363 0.043290 0.033524
0.068435 0.043137 0.033005
0.073325 0.042985 0.032456
0.078385 0.042725 0.031861
0.083748 0.042481 0.031235
0.089112 0.042206 0.030610
0.096588 0.041733 0.029694
0.104905 0.041138 0.028656
0.113755 0.040360 0.027512
0.123612 0.039353 0.026108
0.134660 0.038056 0.024460
0.146501 0.036545 0.022522
0.158357 0.034897 0.020188
0.170335 0.033234 0.017502
0.182329 0.031510 0.014618
0.194216 0.029663 0.011704
0.205843 0.027665 0.008667
0.217364 0.025406 0.005432
0.228902 0.023133 0.002411
0.240836 0.020874 0.000443
0.253597 0.018753 0.000031
0.267762 0.017487 0.000000
0.282494 0.016587 0.000000
0.298508 0.015763 0.000000
0.315012 0.015000 0.000000
0.331638 0.014282 0.000000
0.348556 0.013260 0.000000
0.365322 0.012055 0.000000
0.382195 0.010849 0.000000
0.398659 0.009277 0.000000
0.414436 0.007095 0.000000
0.429634 0.004593 0.000000
0.444513 0.002121 0.000000
0.458630 0.000458 0.000000
0.471755 0.000015 0.000000
0.484302 0.000000 0.000000
0.496529 0.000000 0.000000
0.508666 0.000000 0.000000
0.520695 0.000000 0.000000
0.532543 0.000000 0.000000
0.544071 0.000000 0.000000
0.555371 0.000000 0.000000
0.566229 0.000000 0.000000
0.576798 0.000000 0.000000
0.587107 0.000000 0.000000
0.597113 0.000000 0.000000
0.606630 0.000000 0.000000
0.615721 0.000000 0.000000
0.624415 0.000000 0.000000
0.633079 0.000000 0.000000
0.641729 0.000000 0.000000
0.650042 0.000000 0.000000
0.658235 0.000000 0.000000
0.666473 0.000000 0.000000
0.671585 0.000000 0.000000
0.672927 0.000000 0.000000
0.673048 0.000000 0.000000
0.673094 0.000000 0.000000
0.033723 0.045243 0.036088
0.036197 0.045502 0.036149
0.038807 0.045655 0.035462
0.043514 0.045518 0.034562
0.048867 0.045411 0.034272
0.053330 0.045457 0.033997
0.057926 0.045472 0.033692
0.062559 0.045457 0.033372
0.067690 0.045319 0.032899
0.072762 0.045136 0.032395
0.077897 0.044923 0.031846
0.083305 0.044587 0.031235
0.088761 0.044251 0.030594
0.096161 0.043656 0.029694
0.104584 0.043030 0.028687
0.113526 0.042328 0.027542
0.123475 0.041413 0.026200
0.134660 0.040208 0.024567
0.146623 0.038773 0.022614
0.158647 0.037202 0.020310
0.170824 0.035477 0.017639
0.183047 0.033692 0.014817
0.195150 0.031907 0.012009
0.207100 0.030015 0.009049
0.218854 0.027863 0.005783
0.230274 0.025483 0.002686
0.241785 0.022721 0.000504
0.253756 0.019822 0.000031
0.267269 0.018021 0.000000
0.281470 0.016815 0.000000
0.297137 0.015885 0.000000
0.313308 0.015091 0.000000
0.329801 0.014359 0.000000
0.346493 0.013397 0.000000
0.363064 0.012238 0.000000
0.379773 0.011017 0.000000
0.396209 0.009552 0.000000
0.411944 0.007492 0.000000
0.427221 0.005005 0.000000
0.442210 0.002487 0.000000
0.456467 0.000610 0.000000
0.469777 0.000046 0.000000
0.482419 0.000000 0.000000
0.494678 0.000000 0.000000
0.506939 0.000000 0.000000
0.519079 0.000000 0.000000
0.531005 0.000000 0.000000
0.542718 0.000000 0.000000
0.554142 0.000000 0.000000
0.565124 0.000000 0.000000
0.575847 0.000000 0.000000
0.586265 0.000000 0.000000
0.596333 0.000000 0.000000
0.606020 0.000000 0.000000
0.615203 0.000000 0.000000
0.624037 0.000000 0.000000
0.632794 0.000000 0.000000
0.641521 0.000000 0.000000
0.649943 0.000000 0.000000
0.658198 0.000000 0.000000
0.666437 0.000000 0.000000
0.671960 0.000000 0.000000
0.673655 0.000000 0.000000
0.673822 0.000000 0.000000
0.673853 0.000000 0.000000
0.032404 0.047562 0.036042
0.034942 0.047883 0.036271
0.037449 0.048096 0.035843
0.040681 0.048218 0.034974
0.046239 0.048051 0.034150
0.051863 0.047990 0.033829
0.056805 0.048020 0.033524
0.061572 0.048020 0.033204
0.066747 0.047898 0.032807
0.071955 0.047761 0.032364
0.077226 0.047547 0.031846
0.082741 0.047257 0.031250
0.088333 0.046861 0.030625
0.095627 0.046220 0.029770
0.104035 0.045457 0.028763
0.113206 0.044556 0.027604
0.123231 0.043549 0.026291
0.134431 0.042390 0.024674
0.146624 0.041016 0.022675
0.158880 0.039521 0.020340
0.171151 0.037919 0.017746
0.183669 0.036133 0.015000
0.195973 0.034318 0.012299
0.208203 0.032425 0.009461
0.220265 0.030442 0.006302
0.232025 0.028214 0.003159
0.243647 0.025711 0.000702
0.255789 0.022858 0.000046
0.268955 0.020661 0.000000
0.282396 0.018784 0.000000
0.297273 0.017136 0.000000
0.312853 0.015702 0.000000
0.328631 0.014588 0.000000
0.344838 0.013520 0.000000
0.361214 0.012375 0.000000
0.377697 0.011185 0.000000
0.393968 0.009796 0.000000
0.409705 0.007843 0.000000
0.424939 0.005402 0.000000
0.439915 0.002853 0.000000
0.454342 0.000839 0.000000
0.467702 0.000107 0.000000
0.480406 0.000000 0.000000
0.492851 0.000000 0.000000
0.505098 0.000000 0.000000
0.517271 0.000000 0.000000
0.529382 0.000000 0.000000
0.541204 0.000000 0.000000
0.552767 0.000000 0.000000
0.563918 0.000000 0.000000
0.574734 0.000000 0.000000
0.585276 0.000000 0.000000
0.595451 0.000000 0.000000
0.605308 0.000000 0.000000
0.614615 0.000000 0.000000
0.623556 0.000000 0.000000
0.632482 0.000000 0.000000
0.641301 0.000000 0.000000
0.649846 0.000000 0.000000
0.658223 0.000000 0.000000
0.666540 0.000000 0.000000
0.672476 0.000000 0.000000
0.674506 0.000000 0.000000
0.674690 0.000000 0.000000
0.674721 0.000000 0.000000
0.031065 0.049836 0.035905
0.033606 0.050202 0.036225
0.036132 0.050431 0.035965
0.038960 0.050690 0.035355
0.043090 0.050797 0.034455
0.049049 0.050690 0.033707
0.054957 0.050675 0.033402
0.060221 0.050690 0.033097
0.065592 0.050675 0.032746
0.070980 0.050553 0.032319
0.076402 0.050400 0.031846
0.082039 0.050172 0.031281
0.087754 0.049821 0.030686
0.094971 0.049241 0.029877
0.103425 0.048493 0.028885
0.112704 0.047562 0.027771
0.122824 0.046479 0.026459
0.134181 0.045151 0.024857
0.146454 0.043687 0.022858
0.158987 0.042176 0.020462
0.171493 0.040619 0.017914
0.184181 0.038926 0.015259
0.196825 0.037125 0.012650
0.209227 0.035203 0.009918
0.221522 0.033173 0.006882
0.233605 0.031098 0.003784
0.245718 0.028885 0.001129
0.258170 0.026413 0.000137
0.271201 0.023972 0.000000
0.283974 0.021408 0.000000
0.298183 0.018997 0.000000
0.313002 0.016739 0.000000
0.328021 0.014969 0.000000
0.343849 0.013657 0.000000
0.360075 0.012467 0.000000
0.376362 0.011292 0.000000
0.392574 0.009949 0.000000
0.408299 0.008072 0.000000
0.423413 0.005676 0.000000
0.438285 0.003143 0.000000
0.452683 0.001022 0.000000
0.466029 0.000153 0.000000
0.478750 0.000000 0.000000
0.491198 0.000000 0.000000
0.503371 0.000000 0.000000
0.515575 0.000000 0.000000
0.527748 0.000000 0.000000
0.539664 0.000000 0.000000
0.551258 0.000000 0.000000
0.562594 0.000000 0.000000
0.573534 0.000000 0.000000
0.584138 0.000000 0.000000
0.594513 0.000000 0.000000
0.604493 0.000000 0.000000
0.613892 0.000000 0.000000
0.622955 0.000000 0.000000
0.631989 0.000000 0.000000
0.640916 0.000000 0.000000
0.649599 0.000000 0.000000
0.658099 0.000000 0.000000
0.666537 0.000000 0.000000
0.672931 0.000000 0.000000
0.675343 0.000000 0.000000
0.675526 0.000000 0.000000
0.675572 0.000000 0.000000
0.029577 0.052308 0.035660
0.032122 0.052689 0.036072
0.034668 0.052933 0.035950
0.037395 0.053178 0.035477
0.040835 0.053468 0.034806
0.045638 0.053544 0.033936
0.051835 0.053468 0.033295
0.058005 0.053483 0.033005
0.063919 0.053437 0.032654
0.069762 0.053376 0.032273
0.075396 0.053300 0.031815
0.081185 0.053162 0.031312
0.087054 0.052933 0.030747
0.094199 0.052430 0.030015
0.102702 0.051743 0.029038
0.112092 0.050904 0.027955
0.122262 0.049836 0.026673
0.133791 0.048554 0.025086
0.146266 0.047013 0.023072
0.159002 0.045365 0.020707
0.171754 0.043687 0.018158
0.184676 0.042008 0.015610
0.197506 0.040314 0.013108
0.210247 0.038453 0.010498
0.222790 0.036423 0.007507
0.235135 0.034333 0.004486
0.247542 0.032151 0.001740
0.260408 0.029847 0.000290
0.273488 0.027436 0.000015
0.286233 0.024750 0.000000
0.300032 0.021973 0.000000
0.314351 0.019150 0.000000
0.328884 0.016632 0.000000
0.343967 0.014664 0.000000
0.359646 0.013016 0.000000
0.375661 0.011536 0.000000
0.391646 0.010101 0.000000
0.407296 0.008240 0.000000
0.422398 0.005859 0.000000
0.437164 0.003342 0.000000
0.451427 0.001160 0.000000
0.464806 0.000168 0.000000
0.477468 0.000000 0.000000
0.489795 0.000000 0.000000
0.502015 0.000000 0.000000
0.514189 0.000000 0.000000
0.526304 0.000000 0.000000
0.538205 0.000000 0.000000
0.549923 0.000000 0.000000
0.561290 0.000000 0.000000
0.572292 0.000000 0.000000
0.583064 0.000000 0.000000
0.593517 0.000000 0.000000
0.603588 0.000000 0.000000
0.613125 0.000000 0.000000
0.622311 0.000000 0.000000
0.631360 0.000000 0.000000
0.640409 0.000000 0.000000
0.649260 0.000000 0.000000
0.657867 0.000000 0.000000
0.666383 0.000000 0.000000
0.673265 0.000000 0.000000
0.676027 0.000000 0.000000
0.676257 0.000000 0.000000
0.676287 0.000000 0.000000
0.027843 0.054841 0.035462
0.030333 0.055238 0.035905
0.032974 0.055497 0.035889
0.035691 0.055665 0.035492
0.038939 0.055985 0.034928
0.042871 0.056275 0.034226
0.048229 0.056367 0.033463
0.054635 0.056352 0.032929
0.061214 0.056397 0.032609
0.067740 0.056382 0.032227
0.073970 0.056367 0.031800
0.080068 0.056306 0.031312
0.086185 0.056153 0.030793
0.093303 0.055772 0.030091
0.101826 0.055192 0.029190
0.111356 0.054459 0.028138
0.121622 0.053513 0.026902
0.133245 0.052323 0.025315
0.146029 0.050874 0.023316
0.158998 0.049226 0.020996
0.171922 0.047456 0.018494
0.185136 0.045609 0.015991
0.198153 0.043778 0.013596
0.211110 0.041932 0.011139
0.224007 0.039979 0.008194
0.236645 0.037919 0.005203
0.249192 0.035767 0.002380
0.262366 0.033494 0.000473
0.275815 0.031067 0.000015
0.288868 0.028611 0.000000
0.302838 0.025879 0.000000
0.317082 0.022965 0.000000
0.331343 0.020050 0.000000
0.345817 0.017319 0.000000
0.360476 0.014786 0.000000
0.375623 0.012589 0.000000
0.391152 0.010666 0.000000
0.406392 0.008515 0.000000
0.421251 0.006088 0.000000
0.435974 0.003571 0.000000
0.450345 0.001297 0.000000
0.463740 0.000198 0.000000
0.476358 0.000015 0.000000
0.488685 0.000000 0.000000
0.500831 0.000000 0.000000
0.512945 0.000000 0.000000
0.525015 0.000000 0.000000
0.536917 0.000000 0.000000
0.548575 0.000000 0.000000
0.559989 0.000000 0.000000
0.571082 0.000000 0.000000
0.581946 0.000000 0.000000
0.592460 0.000000 0.000000
0.602700 0.000000 0.000000
0.612360 0.000000 0.000000
0.621577 0.000000 0.000000
0.630779 0.000000 0.000000
0.639919 0.000000 0.000000
0.648862 0.000000 0.000000
0.657575 0.000000 0.000000
0.666212 0.000000 0.000000
0.673475 0.000000 0.000000
0.676588 0.000000 0.000000
0.676862 0.000000 0.000000
0.676908 0.000000 0.000000
0.026010 0.057481 0.035203
0.028412 0.057893 0.035660
0.031089 0.058183 0.035737
0.033780 0.058259 0.035401
0.036974 0.058518 0.034897
0.040549 0.058854 0.034318
0.045007 0.059159 0.033661
0.050805 0.059297 0.032975
0.057410 0.059373 0.032578
0.064696 0.059449 0.032242
0.071689 0.059480 0.031846
0.078460 0.059510 0.031357
0.085024 0.059495 0.030839
0.092267 0.059297 0.030182
0.100794 0.058869 0.029343
0.110466 0.058213 0.028336
0.120886 0.057374 0.027130
0.132468 0.056306 0.025589
0.145483 0.055009 0.023621
0.158852 0.053513 0.021332
0.172099 0.051881 0.018891
0.185546 0.050034 0.016480
0.198825 0.048112 0.014160
0.212074 0.046189 0.011811
0.225203 0.044099 0.008911
0.238179 0.041993 0.005936
0.251003 0.039933 0.003082
0.264362 0.037659 0.000732
0.278180 0.035264 0.000046
0.291648 0.032822 0.000000
0.305802 0.030152 0.000000
0.320278 0.027359 0.000000
0.334556 0.024353 0.000000
0.348437 0.021042 0.000000
0.362167 0.017533 0.000000
0.376323 0.014374 0.000000
0.390924 0.011673 0.000000
0.405509 0.008988 0.000000
0.420217 0.006348 0.000000
0.434757 0.003845 0.000000
0.449130 0.001480 0.000000
0.462572 0.000259 0.000000
0.475205 0.000015 0.000000
0.487488 0.000000 0.000000
0.499589 0.000000 0.000000
0.511628 0.000000 0.000000
0.523729 0.000000 0.000000
0.535601 0.000000 0.000000
0.547290 0.000000 0.000000
0.558750 0.000000 0.000000
0.569829 0.000000 0.000000
0.580739 0.000000 0.000000
0.591391 0.000000 0.000000
0.601737 0.000000 0.000000
0.611503 0.000000 0.000000
0.620888 0.000000 0.000000
0.630181 0.000000 0.000000
0.639398 0.000000 0.000000
0.648462 0.000000 0.000000
0.657297 0.000000 0.000000
0.666024 0.000000 0.000000
0.673623 0.000000 0.000000
0.677086 0.000000 0.000000
0.677375 0.000000 0.000000
0.677420 0.000000 0.000000
0.023966 0.060243 0.034867
0.026358 0.060685 0.035355
0.029056 0.060960 0.035492
0.031755 0.061021 0.035248
0.034851 0.061143 0.034791
0.038284 0.061448 0.034241
0.042250 0.061830 0.033692
0.047193 0.062135 0.033082
0.053324 0.062333 0.032456
0.060492 0.062547 0.032212
0.068322 0.062715 0.031861
0.075842 0.062837 0.031418
0.083111 0.062928 0.030915
0.090633 0.062882 0.030289
0.099330 0.062592 0.029511
0.109264 0.062089 0.028519
0.119810 0.061356 0.027329
0.131517 0.060410 0.025818
0.144643 0.059266 0.023926
0.158334 0.057969 0.021714
0.171950 0.056535 0.019364
0.185735 0.054933 0.017014
0.199459 0.053193 0.014755
0.213032 0.051301 0.012482
0.226498 0.049134 0.009583
0.239766 0.046952 0.006607
0.252945 0.044785 0.003754
0.266626 0.042466 0.001129
0.280659 0.040177 0.000153
0.294586 0.037766 0.000000
0.309079 0.035126 0.000000
0.323846 0.032334 0.000000
0.338354 0.029267 0.000000
0.352283 0.025803 0.000000
0.365709 0.021973 0.000000
0.379424 0.018296 0.000000
0.393415 0.015045 0.000000
0.407255 0.011795 0.000000
0.421292 0.008652 0.000000
0.435192 0.005585 0.000000
0.448894 0.002609 0.000000
0.461834 0.000671 0.000000
0.474163 0.000061 0.000000
0.486310 0.000000 0.000000
0.498289 0.000000 0.000000
0.510298 0.000000 0.000000
0.522353 0.000000 0.000000
0.534301 0.000000 0.000000
0.545975 0.000000 0.000000
0.557450 0.000000 0.000000
0.568636 0.000000 0.000000
0.579593 0.000000 0.000000
0.590259 0.000000 0.000000
0.600711 0.000000 0.000000
0.610630 0.000000 0.000000
0.620168 0.000000 0.000000
0.629521 0.000000 0.000000
0.638874 0.000000 0.000000
0.648060 0.000000 0.000000
0.656940 0.000000 0.000000
0.665743 0.000000 0.000000
0.673737 0.000000 0.000000
0.677550 0.000000 0.000000
0.677883 0.000000 0.000000
0.677911 0.000000 0.000000
0.021626 0.063050 0.034455
0.024116 0.063508 0.034928
0.026913 0.063828 0.035126
0.029634 0.063874 0.034989
0.032662 0.063844 0.034577
0.035965 0.064042 0.034089
0.039680 0.064424 0.033555
0.044007 0.064790 0.033036
0.049387 0.065141 0.032471
0.055942 0.065507 0.032059
0.063793 0.065858 0.031830
0.072076 0.066148 0.031464
0.080141 0.066377 0.030976
0.088185 0.066499 0.030411
0.097145 0.066407 0.029663
0.107433 0.066087 0.028702
0.118424 0.065507 0.027512
0.130270 0.064729 0.026062
0.143719 0.063752 0.024216
0.157673 0.062577 0.022064
0.171612 0.061280 0.019760
0.185795 0.059876 0.017487
0.199797 0.058320 0.015320
0.213707 0.056672 0.013168
0.227664 0.054810 0.010178
0.241331 0.052720 0.007065
0.254740 0.050446 0.004227
0.268805 0.048066 0.001617
0.283221 0.045731 0.000351
0.297454 0.043305 0.000046
0.312421 0.040757 0.000000
0.327739 0.038117 0.000000
0.342844 0.035248 0.000000
0.357491 0.032090 0.000000
0.371757 0.028626 0.000000
0.385795 0.025101 0.000000
0.399726 0.021637 0.000000
0.413153 0.018051 0.000000
0.426048 0.014267 0.000000
0.438515 0.010010 0.000000
0.450950 0.005753 0.000000
0.462578 0.001968 0.000000
0.473931 0.000275 0.000000
0.485635 0.000015 0.000000
0.497446 0.000000 0.000000
0.509350 0.000000 0.000000
0.521298 0.000000 0.000000
0.533140 0.000000 0.000000
0.544874 0.000000 0.000000
0.556334 0.000000 0.000000
0.567474 0.000000 0.000000
0.578475 0.000000 0.000000
0.589203 0.000000 0.000000
0.599624 0.000000 0.000000
0.609679 0.000000 0.000000
0.619323 0.000000 0.000000
0.628844 0.000000 0.000000
0.638257 0.000000 0.000000
0.647563 0.000000 0.000000
0.656610 0.000000 0.000000
0.665504 0.000000 0.000000
0.673817 0.000000 0.000000
0.677995 0.000000 0.000000
0.678372 0.000000 0.000000
0.678399 0.000000 0.000000
0.018825 0.066026 0.033921
0.021504 0.066529 0.034424
0.024459 0.066880 0.034669
0.027338 0.066896 0.034577
0.030310 0.066728 0.034241
0.033466 0.066758 0.033814
0.037035 0.067063 0.033310
0.041017 0.067475 0.032807
0.045763 0.067857 0.032334
0.051486 0.068284 0.031830
0.058705 0.068910 0.031632
0.067176 0.069383 0.031403
0.075945 0.069795 0.031022
0.084572 0.070100 0.030472
0.093885 0.070237 0.029786
0.104588 0.070115 0.028824
0.116222 0.069749 0.027665
0.128544 0.069184 0.026261
0.142209 0.068421 0.024536
0.156745 0.067414 0.022446
0.171083 0.066285 0.020203
0.185466 0.065049 0.018006
0.199882 0.063691 0.015900
0.214160 0.062272 0.013886
0.228545 0.060624 0.010834
0.242657 0.058793 0.007523
0.256449 0.056764 0.004501
0.270866 0.054643 0.002045
0.285711 0.052247 0.000580
0.300388 0.049607 0.000092
0.315616 0.046998 0.000000
0.331347 0.044388 0.000000
0.346941 0.041611 0.000000
0.362200 0.038621 0.000000
0.377092 0.035218 0.000000
0.391619 0.031647 0.000000
0.405749 0.028031 0.000000
0.419239 0.024323 0.000000
0.431782 0.020462 0.000000
0.443608 0.015854 0.000000
0.455099 0.010803 0.000000
0.465369 0.004822 0.000000
0.475242 0.001144 0.000000
0.486061 0.000183 0.000000
0.497506 0.000031 0.000000
0.509149 0.000000 0.000000
0.520960 0.000000 0.000000
0.532710 0.000000 0.000000
0.544291 0.000000 0.000000
0.555736 0.000000 0.000000
0.566767 0.000000 0.000000
0.577616 0.000000 0.000000
0.588281 0.000000 0.000000
0.598778 0.000000 0.000000
0.608878 0.000000 0.000000
0.618551 0.000000 0.000000
0.628117 0.000000 0.000000
0.637682 0.000000 0.000000
0.647062 0.000000 0.000000
0.656245 0.000000 0.000000
0.665244 0.000000 0.000000
0.673907 0.000000 0.000000
0.678465 0.000000 0.000000
0.678871 0.000000 0.000000
0.678895 0.000000 0.000000
0.015550 0.069139 0.033356
0.018263 0.069673 0.033875
0.021313 0.070054 0.034165
0.024288 0.070085 0.034119
0.027385 0.069795 0.033799
0.030499 0.069596 0.033387
0.034026 0.069749 0.032944
0.037858 0.070130 0.032441
0.042226 0.070573 0.032029
0.047418 0.071046 0.031586
0.053695 0.071641 0.031220
0.061574 0.072465 0.031144
0.070584 0.073106 0.030884
0.079807 0.073655 0.030442
0.089291 0.074052 0.029801
0.100241 0.074205 0.028931
0.112533 0.074083 0.027802
0.125543 0.073747 0.026459
0.139638 0.073152 0.024826
0.154694 0.072389 0.022873
0.169812 0.071458 0.020722
0.184823 0.070405 0.018616
0.199622 0.069261 0.016602
0.214405 0.068055 0.014664
0.229051 0.066545 0.011582
0.243485 0.064912 0.008118
0.257811 0.063157 0.004837
0.272596 0.061356 0.002411
0.287854 0.059342 0.000824
0.303128 0.057053 0.000137
0.318829 0.054505 0.000000
0.334867 0.051682 0.000000
0.350904 0.048707 0.000000
0.366621 0.045716 0.000000
0.382094 0.042512 0.000000
0.397293 0.039063 0.000000
0.411881 0.035340 0.000000
0.425584 0.031327 0.000000
0.438387 0.027146 0.000000
0.450320 0.022797 0.000000
0.461535 0.018128 0.000000
0.471103 0.011215 0.000000
0.479756 0.005280 0.000000
0.489217 0.002335 0.000000
0.499685 0.000977 0.000000
0.510625 0.000259 0.000000
0.521765 0.000015 0.000000
0.533041 0.000000 0.000000
0.544271 0.000000 0.000000
0.555455 0.000000 0.000000
0.566394 0.000000 0.000000
0.577150 0.000000 0.000000
0.587708 0.000000 0.000000
0.598127 0.000000 0.000000
0.608211 0.000000 0.000000
0.617928 0.000000 0.000000
0.627507 0.000000 0.000000
0.637086 0.000000 0.000000
0.646618 0.000000 0.000000
0.655814 0.000000 0.000000
0.664888 0.000000 0.000000
0.673899 0.000000 0.000000
0.678852 0.000000 0.000000
0.679302 0.000000 0.000000
0.679324 0.000000 0.000000
0.012055 0.072282 0.032746
0.014619 0.072877 0.033280
0.017535 0.073259 0.033585
0.020452 0.073289 0.033600
0.023659 0.072923 0.033326
0.026806 0.072496 0.032899
0.030397 0.072450 0.032456
0.034217 0.072740 0.031983
0.038450 0.073213 0.031556
0.043354 0.073686 0.031174
0.049053 0.074220 0.030762
0.056035 0.075120 0.030655
0.064528 0.076112 0.030533
0.074028 0.076967 0.030228
0.083850 0.077668 0.029694
0.094511 0.078187 0.028962
0.107080 0.078401 0.027924
0.120871 0.078340 0.026627
0.135485 0.078035 0.025116
0.151184 0.077516 0.023285
0.167036 0.076844 0.021302
0.182858 0.076112 0.019333
0.198374 0.075242 0.017410
0.213770 0.074220 0.015595
0.229088 0.072953 0.012512
0.244026 0.071504 0.008835
0.258690 0.069932 0.005280
0.273872 0.068284 0.002777
0.289665 0.066484 0.001083
0.305366 0.064515 0.000229
0.321511 0.062272 0.000015
0.338144 0.059754 0.000000
0.354670 0.056977 0.000000
0.370936 0.053956 0.000000
0.386837 0.050553 0.000000
