apps/capacitor-film-lab-ios/ios/App/App/Resources/CreativeLuts/filmtone-creative-pack-01-noir-rec709-safe.cube
TITLE "Filmtone Noir Rec.709 Safe"
# pack=creative-pack-01
# slug=filmtone-creative-pack-01-noir
# variant=rec709-safe
# bakerVersion=1.5.0-stone-palermo-signature
# generator=filmtone-rec709-safe-color-v1
LUT_3D_SIZE 5
DOMAIN_MIN 0.0 0.0 0.0
DOMAIN_MAX 1.0 1.0 1.0
0.078958 0.088014 0.063941
0.078958 0.088014 0.063941
0.078958 0.088014 0.063941
0.078958 0.088014 0.063941
0.078958 0.088014 0.063941
0.078958 0.088014 0.063941
0.078958 0.088014 0.063941
0.095088 0.105365 0.073109
0.144360 0.154024 0.114385
0.205101 0.213162 0.165061
0.154535 0.177598 0.131664
0.217495 0.241381 0.186118
0.292728 0.315982 0.251499
0.378895 0.399674 0.327563
0.472341 0.488884 0.412312
0.395527 0.436839 0.357576
0.489572 0.526777 0.444459
0.583235 0.614011 0.533611
0.669983 0.693490 0.619325
0.744377 0.761187 0.695627
0.684409 0.723600 0.648386
0.756181 0.786184 0.720583
0.815273 0.837671 0.781498
0.864149 0.880571 0.832804
0.905303 0.917121 0.876581
0.078958 0.088014 0.063941
0.078958 0.088014 0.063941
0.078958 0.088014 0.063941
0.078958 0.088014 0.063941
0.078958 0.088014 0.063941
0.078958 0.088014 0.063941
0.078958 0.088014 0.063941
0.109764 0.120791 0.088464
0.162557 0.172882 0.133279
0.227224 0.235762 0.188079
0.173427 0.198014 0.152004
0.240345 0.265550 0.210729
0.319346 0.343527 0.280466
0.408358 0.429578 0.360322
0.502884 0.519444 0.447409
0.425351 0.467291 0.391427
0.519882 0.556854 0.479757
0.612217 0.642166 0.568443
0.695326 0.717873 0.650950
0.765401 0.781400 0.722825
0.708913 0.746219 0.678460
0.776416 0.804795 0.746150
0.831907 0.853073 0.802995
0.878095 0.893610 0.851080
0.915198 0.924334 0.892779
0.078958 0.088014 0.063941
0.078958 0.088014 0.063941
0.078958 0.088014 0.063941
0.078958 0.088014 0.063941
0.078958 0.088014 0.063941
0.078958 0.088014 0.063941
0.079931 0.091759 0.065603
0.125509 0.137329 0.105142
0.181988 0.192993 0.153751
0.250625 0.259630 0.212834
0.193574 0.219711 0.173995
0.264459 0.290939 0.237089
0.347016 0.372019 0.311047
0.438417 0.459947 0.394260
0.533120 0.549595 0.482718
0.455666 0.497963 0.426226
0.550099 0.586559 0.515241
0.640202 0.669173 0.602270
0.719277 0.740820 0.680907
0.785109 0.800304 0.748268
0.732012 0.767416 0.706777
0.795393 0.822213 0.770027
0.847594 0.867586 0.823120
0.891326 0.905989 0.868228
0.918029 0.927165 0.900726
0.078958 0.088014 0.063941
0.078958 0.088014 0.063941
0.078958 0.088014 0.063941
0.078958 0.088014 0.063941
0.085682 0.088442 0.066769
0.078958 0.088014 0.063941
0.093496 0.106192 0.080312
0.142383 0.155037 0.123252
0.202685 0.214381 0.175882
0.275274 0.284731 0.239338
0.214997 0.242687 0.197699
0.289795 0.317481 0.265179
0.375616 0.401315 0.343107
0.468886 0.490585 0.429126
0.563143 0.579435 0.518170
0.486089 0.528450 0.461495
0.579904 0.615597 0.550426
0.667000 0.694876 0.634759
0.741820 0.762339 0.709099
0.803586 0.817994 0.772022
0.753721 0.787245 0.733312
0.813203 0.838543 0.792316
0.862426 0.881304 0.841975
0.903883 0.917749 0.884317
0.920917 0.930053 0.903614
0.078958 0.088014 0.063941
0.078958 0.088014 0.063941
0.078958 0.088014 0.063941
0.078958 0.088014 0.063941
0.099670 0.102631 0.081578
0.078958 0.088014 0.063941
0.108056 0.121678 0.096288
0.160443 0.173963 0.142891
0.224664 0.237051 0.199729
0.301120 0.311003 0.267567
0.237703 0.266925 0.223149
0.316288 0.345082 0.294933
0.405001 0.431250 0.376460
0.499398 0.521120 0.464463
0.592638 0.608672 0.553313
0.516418 0.558512 0.496878
0.608985 0.643694 0.584847
0.692480 0.719180 0.665671
0.762983 0.782476 0.735507
0.820930 0.834575 0.794192
0.774089 0.805787 0.758104
0.829952 0.853893 0.813139
0.876477 0.894305 0.859653
0.915300 0.924436 0.897997
0.923805 0.932941 0.906502
