apps/capacitor-film-lab-ios/ios/App/App/Resources/CreativeLuts/filmtone-creative-pack-01-palermo-reference.cube
TITLE "Generated by Resolve"
LUT_3D_SIZE 65
0.0395361 0.0393683 0.0359045
0.0429694 0.0394293 0.0356756
0.0464179 0.0394598 0.035462
0.0503853 0.0394751 0.0352483
0.0542763 0.0395666 0.0349584
0.05832 0.0396582 0.0345922
0.062562 0.0397192 0.0342107
0.0668498 0.0397498 0.0337835
0.0716869 0.0396429 0.0332189
0.0762798 0.0395209 0.032578
0.0810864 0.0393378 0.0319066
0.086244 0.0390478 0.0312352
0.0914015 0.0387121 0.0305943
0.0990921 0.0380865 0.0296025
0.107164 0.0373693 0.0285191
0.115663 0.0364691 0.0273442
0.125368 0.0353399 0.025864
0.136126 0.0340581 0.024155
0.147677 0.032639 0.0221714
0.159136 0.0311589 0.0199588
0.170748 0.0294499 0.0172427
0.182208 0.0274205 0.0142672
0.193561 0.0252232 0.0113527
0.20502 0.0231174 0.00834669
0.216464 0.0211337 0.00523384
0.228748 0.019791 0.00233463
0.242344 0.018967 0.000564584
0.25684 0.0181277 4.57771e-05
0.271702 0.0172732 0
0.28719 0.016434 0
0.303899 0.01561 0
0.321096 0.0148165 0
0.338399 0.0140536 0
0.355581 0.0129244 0
0.37261 0.0116732 0
0.389532 0.0104677 0
0.405737 0.00866712 0
0.421195 0.00630198 0
0.436179 0.00378424 0
0.450675 0.0015259 0
0.464164 0.000289921 0
0.476936 1.5259e-05 0
0.489082 0 0
0.500908 0 0
0.512657 0 0
0.524376 0 0
0.535882 0 0
0.547204 0 0
0.558236 0 0
0.568826 0 0
0.579187 0 0
0.589273 0 0
0.599191 0 0
0.608591 0 0
0.617533 0 0
0.6262 0 0
0.634791 0 0
0.643244 0 0
0.651576 0 0
0.659739 0 0
0.667903 0 0
0.672206 0 0
0.672999 0 0
0.67306 0 0
0.67306 0 0
0.0384985 0.0411841 0.0359808
0.0416114 0.0412451 0.0354467
0.0454719 0.0411841 0.0352026
0.049485 0.0411994 0.0349889
0.0535286 0.0412299 0.0347448
0.0576638 0.0412757 0.0344244
0.0619669 0.0412757 0.0340429
0.066392 0.0413062 0.0336767
0.0713207 0.0412299 0.0331426
0.0759747 0.0411231 0.0325475
0.0808576 0.0409705 0.0319066
0.0860914 0.0407263 0.031281
0.091371 0.0404364 0.0306401
0.0989395 0.0398871 0.0296788
0.107118 0.0392309 0.0286107
0.115877 0.0383917 0.0274205
0.125628 0.0373083 0.0260014
0.136538 0.0359655 0.0243076
0.148257 0.0343786 0.0223239
0.159899 0.0328679 0.0200656
0.171664 0.0312352 0.0173495
0.183444 0.0293889 0.0144045
0.19498 0.0273747 0.0114748
0.206455 0.0252689 0.00842298
0.217945 0.0230259 0.00520333
0.229694 0.0211643 0.00225834
0.242466 0.0196841 0.000427253
0.256245 0.0183413 3.0518e-05
0.270832 0.0173342 0
0.285847 0.016495 0
0.302205 0.0156863 0
0.319112 0.0149081 0
0.335943 0.0141756 0
0.35314 0.0130922 0
0.370062 0.0118563 0
0.38703 0.0106508 0
0.40354 0.00894179 0
0.419135 0.00663767 0
0.434226 0.0041352 0
0.448966 0.00173953 0
0.46276 0.000335698 0
0.47567 1.5259e-05 0
0.488075 0 0
0.500114 0 0
0.512016 0 0
0.523934 0 0
0.535668 0 0
0.547021 0 0
0.558221 0 0
0.568948 0 0
0.579293 0 0
0.589456 0 0
0.599344 0 0
0.608728 0 0
0.61767 0 0
0.626291 0 0
0.634928 0 0
0.643458 0 0
0.651789 0 0
0.659953 0 0
0.668147 0 0
0.672724 0 0
0.673701 0 0
0.673762 0 0
0.673777 0 0
0.0373541 0.043122 0.0360571
0.0398566 0.0433356 0.035874
0.0436103 0.0432593 0.0349737
0.0483253 0.0431983 0.0347143
0.0526131 0.0432288 0.0345006
0.0568246 0.0432746 0.034226
0.0612039 0.0432898 0.033875
0.0657054 0.0432898 0.0335241
0.0706798 0.0431373 0.0330053
0.0754711 0.0429847 0.0324559
0.0804456 0.0427253 0.0318608
0.0857557 0.0424811 0.0312352
0.0911116 0.0422065 0.0306096
0.0985885 0.0417334 0.0296941
0.106905 0.0411383 0.0286564
0.115755 0.0403601 0.027512
0.125612 0.039353 0.0261082
0.13666 0.038056 0.0244602
0.148501 0.0365454 0.0225223
0.160357 0.0348974 0.0201877
0.172335 0.0332341 0.0175021
0.184329 0.0315099 0.0146181
0.196216 0.0296635 0.0117037
0.207843 0.0276646 0.00866712
0.219364 0.0254063 0.00543221
0.2309 0.0231327 0.00241093
0.242832 0.0208743 0.000442512
0.255589 0.0187533 3.0518e-05
0.269749 0.0174868 0
0.284474 0.0165866 0
0.300481 0.0157626 0
0.316976 0.0149996 0
0.333593 0.0142824 0
0.3505 0.0132601 0
0.367254 0.0120546 0
0.384115 0.0108492 0
0.400565 0.00927749 0
0.416327 0.00709544 0
0.43151 0.00459297 0
0.446372 0.002121 0
0.460472 0.000457771 0
0.473579 1.5259e-05 0
0.486107 0 0
0.498314 0 0
0.51043 0 0
0.522438 0 0
0.534264 0 0
0.545769 0 0
0.557046 0 0
0.56788 0 0
0.578424 0 0
0.588708 0 0
0.598688 0 0
0.608179 0 0
0.617243 0 0
0.62591 0 0
0.634546 0 0
0.643168 0 0
0.651453 0 0
0.659617 0 0
0.667826 0 0
0.672908 0 0
0.67422 0 0
0.674311 0 0
0.674327 0 0
0.0361334 0.045243 0.0360876
0.0386358 0.0455024 0.0361486
0.0412757 0.045655 0.035462
0.0460365 0.0455177 0.0345617
0.0513924 0.0454108 0.0342718
0.0558175 0.0454566 0.0339971
0.0603494 0.0454719 0.0336919
0.0648966 0.0454566 0.0333715
0.0699321 0.0453193 0.0328985
0.0749065 0.0451362 0.0323949
0.0799573 0.0449226 0.0318456
0.0853132 0.0445869 0.0312352
0.0907607 0.0442512 0.0305943
0.0981613 0.0436561 0.0296941
0.106584 0.0430304 0.028687
0.115526 0.0423285 0.0275425
0.125475 0.041413 0.0261997
0.13666 0.0402075 0.024567
0.148623 0.0387732 0.0226139
0.160647 0.0372015 0.0203098
0.172824 0.0354772 0.0176394
0.185046 0.0336919 0.0148165
0.197147 0.0319066 0.0120089
0.209094 0.0300145 0.0090486
0.220844 0.027863 0.00578317
0.232258 0.0254826 0.00268559
0.243763 0.0227207 0.000503548
0.255726 0.0198215 3.0518e-05
0.26923 0.0180209 0
0.283421 0.0168154 0
0.299077 0.0158846 0
0.315236 0.0150912 0
0.331716 0.0143587 0
0.348394 0.0133974 0
0.36495 0.0122377 0
0.381643 0.011017 0
0.398062 0.00955215 0
0.413779 0.00749218 0
0.429038 0.00500496 0
0.444007 0.00248722 0
0.458244 0.000610361 0
0.471534 4.57771e-05 0
0.484154 0 0
0.496391 0 0
0.508629 0 0
0.520745 0 0
0.532647 0 0
0.544335 0 0
0.555734 0 0
0.56669 0 0
0.577386 0 0
0.587777 0 0
0.597818 0 0
0.607477 0 0
0.616632 0 0
0.625437 0 0
0.634165 0 0
0.642863 0 0
0.651255 0 0
0.65948 0 0
0.667689 0 0
0.673182 0 0
0.674846 0 0
0.674983 0 0
0.674983 0 0
0.0347601 0.0475624 0.0360418
0.0373236 0.0478828 0.0362707
0.0398566 0.0480964 0.0358434
0.043122 0.0482185 0.0349737
0.0487373 0.0480507 0.0341497
0.0543374 0.0479896 0.0338293
0.0592203 0.0480201 0.0335241
0.0639048 0.0480201 0.0332036
0.068986 0.0478981 0.0328069
0.0740978 0.0477607 0.0323644
0.0792859 0.0475471 0.0318456
0.0847486 0.0472572 0.0312505
0.0903334 0.0468605 0.0306249
0.0976272 0.0462196 0.0297704
0.106035 0.0454566 0.0287633
0.115206 0.0445563 0.0276036
0.125231 0.0435492 0.0262913
0.136431 0.0423896 0.0246738
0.148623 0.0410163 0.0226749
0.160876 0.0395209 0.0203403
0.173144 0.0379187 0.0177462
0.185657 0.0361334 0.0149996
0.197955 0.0343175 0.0122988
0.210178 0.0324254 0.00946059
0.222232 0.0304417 0.00630198
0.233982 0.0282139 0.00315862
0.245594 0.0257115 0.000701915
0.257725 0.022858 4.57771e-05
0.270878 0.0206607 0
0.284306 0.0187839 0
0.299168 0.0171359 0
0.314733 0.0157015 0
0.330495 0.0145876 0
0.346685 0.0135195 0
0.363043 0.0123751 0
0.379507 0.0111849 0
0.395758 0.00979629 0
0.411475 0.00784314 0
0.426688 0.00540169 0
0.441642 0.00285344 0
0.456046 0.000839246 0
0.469383 0.000106813 0
0.482063 0 0
0.494484 0 0
0.506706 0 0
0.518853 0 0
0.530938 0 0
0.542733 0 0
0.554269 0 0
0.565393 0 0
0.576181 0 0
0.586694 0 0
0.596841 0 0
0.606668 0 0
0.615946 0 0
0.624857 0 0
0.633753 0 0
0.642542 0 0
0.651057 0 0
0.659403 0 0
0.667689 0 0
0.673594 0 0
0.675593 0 0
0.675746 0 0
0.675746 0 0
0.0333562 0.049836 0.0359045
0.0359197 0.0502022 0.0362249
0.038468 0.0504311 0.0359655
0.0413214 0.0506905 0.0353552
0.0454871 0.0507973 0.0344549
0.0514992 0.0506905 0.0337072
0.0573587 0.0506752 0.033402
0.0625467 0.0506905 0.0330968
0.0678264 0.0506752 0.0327459
0.0731212 0.0505531 0.0323186
0.0784619 0.0504005 0.0318456
0.0840467 0.0501717 0.031281
0.0897536 0.0498207 0.0306859
0.0969711 0.0492409 0.0298772
0.105425 0.0484932 0.0288853
0.114702 0.0475624 0.0277714
0.124819 0.046479 0.0264591
0.136172 0.0451514 0.0248569
0.14844 0.0436866 0.022858
0.160967 0.0421759 0.0204623
0.173465 0.0406195 0.0179141
0.186145 0.0389258 0.015259
0.198779 0.0371252 0.0126497
0.21117 0.0352026 0.00991836
0.223453 0.0331731 0.00688182
0.235523 0.0310979 0.00378424
0.247623 0.0288853 0.00112917
0.26006 0.0264134 0.000137331
0.273075 0.0239719 0
0.285832 0.0214084 0
0.300023 0.0189975 0
0.314824 0.0167391 0
0.329824 0.0149691 0
0.345632 0.0136568 0
0.361837 0.0124666 0
0.378103 0.0112917 0
0.394293 0.00994888 0
0.409995 0.00807202 0
0.425086 0.00567636 0
0.439933 0.00314336 0
0.454307 0.00102235 0
0.467628 0.00015259 0
0.480323 0 0
0.492744 0 0
0.504891 0 0
0.517067 0 0
0.529213 0 0
0.5411 0 0
0.552666 0 0
0.563973 0 0
0.574884 0 0
0.585458 0 0
0.595804 0 0
0.605753 0 0
0.615122 0 0
0.624155 0 0
0.633158 0 0
0.642054 0 0
0.650706 0 0
0.659175 0 0
0.667582 0 0
0.673945 0 0
0.676326 0 0
0.676478 0 0
0.676493 0 0
0.0317998 0.0523079 0.0356603
0.0343633 0.0526894 0.0360723
0.0369268 0.0529335 0.0359503
0.0396735 0.0531777 0.0354772
0.0431373 0.0534676 0.0348058
0.0479744 0.0535439 0.0339361
0.0542153 0.0534676 0.0332952
0.0603189 0.0534829 0.0330053
0.0661479 0.0534371 0.0326543
0.0719005 0.0533761 0.0322728
0.0774548 0.0532998 0.0318151
0.0831922 0.0531624 0.0313115
0.0890516 0.0529335 0.0307469
0.0961929 0.05243 0.0300145
0.104692 0.0517433 0.0290379
0.114076 0.0509041 0.0279545
0.124239 0.049836 0.0266728
0.13576 0.0485542 0.0250858
0.148226 0.047013 0.0230716
0.160952 0.0453651 0.0207065
0.173693 0.0436866 0.0181582
0.186603 0.0420081 0.01561
0.19942 0.0403143 0.0131075
0.212146 0.0384527 0.0104982
0.224674 0.0364233 0.00750744
0.237003 0.0343328 0.00448615
0.249393 0.0321508 0.00173953
0.262242 0.0298466 0.000289921
0.275303 0.0274357 1.5259e-05
0.288029 0.0247501 0
0.301808 0.021973 0
0.316106 0.0191501 0
0.330617 0.0166323 0
0.345678 0.0146639 0
0.361334 0.0130159 0
0.377325 0.0115358 0
0.393286 0.0101015 0
0.408911 0.00823987 0
0.423987 0.00585946 0
0.438727 0.00334173 0
0.452964 0.00115969 0
0.466316 0.000167849 0
0.47895 0 0
0.491249 0 0
0.503441 0 0
0.515587 0 0
0.527672 0 0
0.539544 0 0
0.551232 0 0
0.56257 0 0
0.573541 0 0
0.584283 0 0
0.594705 0 0
0.604746 0 0
0.614252 0 0
0.623407 0 0
0.632425 0 0
0.641443 0 0
0.650263 0 0
0.658839 0 0
0.667323 0 0
0.674174 0 0
0.676905 0 0
0.677104 0 0
0.677104 0 0
0.0299992 0.0548409 0.035462
0.0325017 0.0552377 0.0359045
0.0351568 0.0554971 0.0358892
0.0378882 0.0556649 0.0354925
0.0411536 0.0559854 0.0349279
0.0451057 0.0562753 0.034226
0.0504921 0.0563668 0.033463
0.0569314 0.0563516 0.032929
0.0634318 0.0563973 0.0326085
0.0698711 0.0563821 0.0322271
0.0760204 0.0563668 0.0317998
0.082063 0.0563058 0.0313115
0.0881666 0.0561532 0.0307927
0.0952773 0.0557717 0.0300908
0.103792 0.0551919 0.0291905
0.113313 0.0544594 0.0281376
0.123568 0.0535134 0.0269017
0.13518 0.0523232 0.0253147
0.147951 0.0508736 0.0233158
0.160906 0.0492256 0.0209964
0.173816 0.0474556 0.0184939
0.187015 0.0456092 0.0159915
0.200015 0.0437781 0.0135958
0.212955 0.0419318 0.0111391
0.225834 0.0399786 0.00819409
0.238453 0.0379187 0.00520333
0.25098 0.0357671 0.00238041
0.264134 0.0334936 0.00047303
0.277562 0.0310674 1.5259e-05
0.290593 0.0286107 0
0.30454 0.0258793 0
0.318761 0.0229648 0
0.332998 0.0200504 0
0.347448 0.017319 0
0.362081 0.014786 0
0.377203 0.0125887 0
0.392706 0.0106661 0
0.407919 0.00851453 0
0.422751 0.00608835 0
0.437446 0.00357061 0
0.451789 0.00129702 0
0.465156 0.000198367 0
0.477745 1.5259e-05 0
0.490043 0 0
0.502159 0 0
0.514244 0 0
0.526284 0 0
0.538155 0 0
0.549783 0 0
0.561166 0 0
0.572229 0 0
0.583062 0 0
0.593545 0 0
0.603754 0 0
0.613382 0 0
0.622568 0 0
0.631739 0 0
0.640848 0 0
0.64976 0 0
0.658442 0 0
0.667048 0 0
0.674281 0 0
0.677363 0 0
0.677607 0 0
0.677623 0 0
0.0281071 0.0574807 0.0352026
0.030518 0.0578927 0.0356603
0.0332036 0.0581826 0.0357366
0.0359045 0.0582589 0.0354009
0.0391089 0.0585184 0.0348974
0.0426947 0.058854 0.0343175
0.0471656 0.0591592 0.0336614
0.0529793 0.0592966 0.0329747
0.0596017 0.0593729 0.032578
0.066804 0.0594492 0.0322423
0.0737163 0.0594797 0.0318456
0.0804303 0.0595102 0.0313573
0.0869764 0.0594949 0.0308385
0.0942092 0.0592966 0.0301823
0.102724 0.0588693 0.0293431
0.112383 0.0582132 0.028336
0.122789 0.0573739 0.0271305
0.134356 0.0563058 0.0255894
0.147356 0.0550088 0.023621
0.160708 0.0535134 0.0213321
0.173938 0.0518807 0.0188907
0.187366 0.0500343 0.0164797
0.200626 0.0481117 0.0141604
0.213855 0.0461891 0.0118105
0.226963 0.0440986 0.00891127
0.239918 0.0419928 0.00593576
0.25272 0.0399329 0.00308232
0.266056 0.0376593 0.000732433
0.27985 0.0352636 4.57771e-05
0.293294 0.0328222 0
0.307424 0.0301518 0
0.321874 0.0273594 0
0.336126 0.0243534 0
0.349981 0.0210422 0
0.363684 0.0175326 0
0.377813 0.014374 0
0.392386 0.0116732 0
0.406943 0.00898756 0
0.421622 0.00634775 0
0.436133 0.00384527 0
0.450477 0.00148013 0
0.46389 0.000259403 0
0.476493 1.5259e-05 0
0.488746 0 0
0.500816 0 0
0.512825 0 0
0.524895 0 0
0.536736 0 0
0.548394 0 0
0.559823 0 0
0.570871 0 0
0.58175 0 0
0.592371 0 0
0.602686 0 0
0.612421 0 0
0.621775 0 0
0.631037 0 0
0.640223 0 0
0.649256 0 0
0.658061 0 0
0.666758 0 0
0.674327 0 0
0.67776 0 0
0.678019 0 0
0.678035 0 0
0.0260166 0.0602426 0.0348669
0.0284123 0.0606851 0.0353552
0.0311131 0.0609598 0.0354925
0.033814 0.0610208 0.0352483
0.0369116 0.0611429 0.0347906
0.0403449 0.0614481 0.0342412
0.0443122 0.0618296 0.0336919
0.0492561 0.0621347 0.0330816
0.0553902 0.0623331 0.0324559
0.062562 0.0625467 0.0322118
0.0703136 0.0627146 0.0318608
0.0777752 0.0628367 0.0314183
0.0850233 0.0629282 0.0309148
0.0925307 0.0628824 0.0302892
0.101213 0.0625925 0.0295109
0.111131 0.062089 0.0285191
0.12166 0.0613565 0.0273289
0.133349 0.0604105 0.0258183
0.146456 0.059266 0.0239261
0.160128 0.057969 0.0217136
0.173724 0.0565347 0.0193637
0.187488 0.0549325 0.0170138
0.20119 0.053193 0.0147555
0.21474 0.0513008 0.0124819
0.228183 0.049134 0.00958267
0.241428 0.046952 0.00660716
0.254582 0.0447852 0.00375372
0.268238 0.0424659 0.00112917
0.282246 0.040177 0.00015259
0.296147 0.0377661 0
0.310613 0.0351263 0
0.325353 0.0323339 0
0.339834 0.0292668 0
0.353735 0.025803 0
0.367132 0.021973 0
0.380819 0.0182956 0
0.394781 0.0150454 0
0.408591 0.0117952 0
0.422599 0.00865187 0
0.436469 0.0055848 0
0.450141 0.00260929 0
0.46305 0.000671397 0
0.475349 6.10361e-05 0
0.487465 0 0
0.499413 0 0
0.511391 0 0
0.523415 0 0
0.535332 0 0
0.546975 0 0
0.558419 0 0
0.569574 0 0
0.580499 0 0
0.591134 0 0
0.601556 0 0
0.611444 0 0
0.620951 0 0
0.630274 0 0
0.639597 0 0
0.648753 0 0
0.657603 0 0
0.666377 0 0
0.674342 0 0
0.678126 0 0
0.678431 0 0
0.678431 0 0
0.0236362 0.0630503 0.0344549
0.0261234 0.063508 0.0349279
0.0289158 0.0638285 0.0351263
0.031632 0.0638743 0.0349889
0.0346532 0.0638437 0.0345769
0.0379492 0.0640421 0.0340887
0.0416571 0.0644236 0.0335546
0.0459754 0.0647898 0.0330358
0.0513466 0.0651408 0.0324712
0.0578927 0.065507 0.0320592
0.0657359 0.0658579 0.0318303
0.0739605 0.0661479 0.0314641
0.082002 0.0663767 0.0309758
0.0900282 0.0664988 0.0304112
0.09897 0.0664073 0.0296635
0.109239 0.0660868 0.0287022
0.120211 0.065507 0.027512
0.132036 0.0647288 0.0260624
0.145464 0.0637522 0.0242161
0.159396 0.0625772 0.0220645
0.173312 0.0612802 0.0197604
0.187472 0.0598764 0.0174868
0.20145 0.05832 0.0153201
0.215335 0.056672 0.0131685
0.229267 0.0548104 0.0101778
0.242908 0.0527199 0.00706493
0.256291 0.0504463 0.00422675
0.270329 0.0480659 0.00161746
0.284718 0.0457313 0.000350958
0.298924 0.0433051 4.57771e-05
0.313863 0.0407568 0
0.329152 0.038117 0
0.344228 0.0352483 0
0.358846 0.0320897 0
0.373083 0.0286259 0
0.387091 0.0251011 0
0.400992 0.0216373 0
0.414389 0.0180514 0
0.427253 0.0142672 0
0.439689 0.0100099 0
0.452094 0.00575265 0
0.463691 0.00196841 0
0.475013 0.000274662 0
0.486686 1.5259e-05 0
0.498466 0 0
0.510338 0 0
0.522255 0 0
0.534066 0 0
0.545769 0 0
0.557198 0 0
0.568307 0 0
0.579278 0 0
0.589975 0 0
0.600366 0 0
0.610391 0 0
0.620005 0 0
0.629496 0 0
0.63888 0 0
0.648157 0 0
0.657176 0 0
0.666041 0 0
0.674327 0 0
0.678477 0 0
0.678828 0 0
0.678828 0 0
0.020798 0.0660258 0.0339208
0.0234684 0.0665293 0.0344244
0.0264134 0.0668803 0.0346685
0.0292821 0.0668956 0.0345769
0.0322423 0.0667277 0.0342412
0.0353857 0.0667582 0.033814
0.038941 0.0670634 0.0333104
0.0429084 0.0674754 0.0328069
0.0476387 0.0678569 0.0323339
0.0533455 0.0682841 0.0318303
0.0605478 0.0689097 0.031632
0.0690013 0.0693828 0.0314031
0.0777447 0.0697948 0.0310216
0.0863508 0.0700999 0.0304723
0.0956436 0.0702373 0.0297856
0.106325 0.0701152 0.0288243
0.117937 0.069749 0.0276646
0.130236 0.0691844 0.0262608
0.143877 0.0684215 0.0245365
0.158389 0.0674144 0.022446
0.172702 0.0662852 0.0202029
0.18706 0.0650492 0.0180056
0.20145 0.0636912 0.0158999
0.215702 0.0622721 0.0138857
0.23006 0.0606241 0.0108339
0.244144 0.058793 0.0075227
0.257908 0.0567636 0.00450141
0.272297 0.0546426 0.00204471
0.287114 0.0522469 0.000579843
0.301762 0.0496071 9.15541e-05
0.31696 0.0469978 0
0.332662 0.0443885 0
0.348226 0.0416114 0
0.363455 0.0386206 0
0.378317 0.0352178 0
0.392813 0.0316472 0
0.406912 0.0280308 0
0.420371 0.0243229 0
0.432883 0.0204623 0
0.444678 0.0158541 0
0.456138 0.0108034 0
0.466377 0.00482185 0
0.476219 0.00114443 0
0.487007 0.000183108 0
0.498421 3.0518e-05 0
0.510033 0 0
0.521813 0 0
0.533532 0 0
0.545083 0 0
0.556497 0 0
0.567498 0 0
0.578317 0 0
0.588952 0 0
0.59942 0 0
0.609491 0 0
0.619135 0 0
0.628672 0 0
0.638209 0 0
0.647562 0 0
0.656718 0 0
0.66569 0 0
0.674327 0 0
0.678859 0 0
0.67924 0 0
0.67924 0 0
0.0174868 0.0691386 0.0333562
0.0201877 0.0696727 0.033875
0.0232242 0.0700542 0.034165
0.0261845 0.0700847 0.0341192
0.0292668 0.0697948 0.0337987
0.0323644 0.0695964 0.0333867
0.035874 0.069749 0.0329442
0.0396887 0.0701305 0.0324407
0.0440375 0.070573 0.0320287
0.0492103 0.071046 0.0315862
0.0554665 0.0716411 0.03122
0.0633249 0.0724651 0.0311437
0.0723125 0.073106 0.0308843
0.0815137 0.0736553 0.0304417
0.0909743 0.074052 0.0298009
0.1019 0.0742046 0.0289311
0.114168 0.0740826 0.0278019
0.127153 0.0737469 0.0264591
0.141222 0.0731518 0.0248264
0.156252 0.0723888 0.0228733
0.171344 0.071458 0.0207218
0.186328 0.0704051 0.018616
0.201099 0.0692607 0.0166018
0.215854 0.0680552 0.0146639
0.230472 0.0665446 0.0115816
0.244877 0.0649119 0.0081178
0.259174 0.0631571 0.00483711
0.27393 0.0613565 0.00241093
0.289158 0.0593423 0.000823987
0.304402 0.0570535 0.000137331
0.320073 0.0545052 0
0.33608 0.0516823 0
0.352087 0.0487068 0
0.367773 0.045716 0
0.383215 0.0425116 0
0.398383 0.0390631 0
0.41294 0.0353399 0
0.426612 0.0313268 0
0.439384 0.0271458 0
0.451286 0.022797 0
0.46247 0.0181277 0
0.472007 0.0112154 0
0.480629 0.00527962 0
0.490059 0.00233463 0
0.500496 0.000976577 0
0.511406 0.000259403 0
0.522515 1.5259e-05 0
0.533761 0 0
0.544961 0 0
0.556115 0 0
0.567025 0 0
0.577752 0 0
0.588281 0 0
0.598672 0 0
0.608728 0 0
0.618418 0 0
0.62797 0 0
0.637522 0 0
0.647028 0 0
0.656199 0 0
0.665248 0 0
0.674235 0 0
0.679164 0 0
0.679591 0 0
0.679591 0 0
0.0139467 0.072282 0.0327459
0.016495 0.0728771 0.0332799
0.0193942 0.0732586 0.0335851
0.0222934 0.0732891 0.0336004
0.0254826 0.0729229 0.0333257
0.0286107 0.0724956 0.0328985
0.0321813 0.0724498 0.0324559
0.0359808 0.0727398 0.0319829
0.0401923 0.0732128 0.0315557
0.0450752 0.0736858 0.0311742
0.0507515 0.0742199 0.0307622
0.0577096 0.0751202 0.0306554
0.0661784 0.076112 0.0305333
0.0756542 0.0769665 0.0302281
0.0854505 0.0776684 0.0296941
0.0960861 0.0781872 0.0289616
0.108629 0.0784009 0.027924
0.122393 0.0783398 0.026627
0.13698 0.0780346 0.0251164
0.152651 0.0775158 0.0232853
0.168475 0.0768444 0.0213016
0.184268 0.076112 0.0193332
0.199756 0.0752422 0.0174105
0.215122 0.0742199 0.0155947
0.230411 0.0729534 0.0125124
0.245319 0.0715038 0.00883497
0.259953 0.0699321 0.00527962
0.275105 0.0682841 0.00277714
0.290867 0.0664836 0.00108339
0.306538 0.0645151 0.000228885
0.322652 0.0622721 1.5259e-05
0.339254 0.0597543 0
0.355749 0.0569772 0
0.371984 0.0539559 0
0.387854 0.0505531 0
0.403433 0.047013 0
0.418631 0.0435035 0
0.433051 0.0398413 0
0.446464 0.0356451 0
0.459037 0.0310826 0
0.471015 0.0268406 0
0.481819 0.0222629 0
0.491783 0.0174105 0
0.501335 0.0121462 0
0.510491 0.00650034 0
0.519188 0.00213626 0
0.527657 0.00030518 0
0.536645 1.5259e-05 0
0.54641 0 0
0.556664 0 0
0.567102 0 0
0.57763 0 0
0.588006 0 0
0.598215 0 0
0.608179 0 0
