apps/capacitor-film-lab-ios/ios/App/App/Resources/CreativeLuts/filmtone-creative-pack-01-stone.cube
TITLE "Filmtone Stone"
# pack=creative-pack-01
# slug=filmtone-creative-pack-01-stone
# bakerVersion=1.3.0-filmtone-stone-urban
# generator=filmtone-stone-palermo-reference-v1
LUT_3D_SIZE 9
DOMAIN_MIN 0.0 0.0 0.0
DOMAIN_MAX 1.0 1.0 1.0
0.037062 0.039368 0.035905
0.069439 0.039643 0.033219
0.123368 0.035340 0.025864
0.214464 0.021134 0.005234
0.336401 0.014054 0.000000
0.462223 0.000290 0.000000
0.556417 0.000000 0.000000
0.633147 0.000000 0.000000
0.671629 0.000000 0.000000
0.026010 0.057481 0.035203
0.057410 0.059373 0.032578
0.120886 0.057374 0.027130
0.225203 0.044099 0.008911
0.334556 0.024353 0.000000
0.449130 0.001480 0.000000
0.547290 0.000000 0.000000
0.630181 0.000000 0.000000
0.677420 0.000000 0.000000
0.002806 0.082567 0.030289
0.024738 0.080598 0.029282
0.084877 0.089387 0.027817
0.224072 0.092851 0.015686
0.363329 0.084520 0.000015
0.492792 0.059602 0.000015
0.569050 0.011032 0.000000
0.630619 0.000000 0.000000
0.682110 0.000000 0.000000
0.000000 0.131151 0.024353
0.000000 0.115785 0.024414
0.016469 0.110460 0.025238
0.121935 0.142733 0.025650
0.343065 0.169284 0.001251
0.526462 0.170047 0.003326
0.637781 0.147677 0.006516
0.710765 0.114321 0.009720
0.749249 0.069886 0.008423
0.000000 0.209964 0.027100
0.000000 0.192325 0.026459
0.000000 0.143267 0.024491
0.010101 0.160418 0.025116
0.184924 0.227405 0.009522
0.477699 0.287800 0.004242
0.656733 0.302617 0.009934
0.752178 0.290684 0.015473
0.810620 0.266789 0.021088
0.000000 0.306279 0.024826
0.000000 0.297292 0.025238
0.000000 0.216938 0.027161
0.000000 0.203189 0.026886
0.012146 0.242115 0.024201
0.281285 0.345235 0.003235
0.599771 0.422080 0.008621
0.755917 0.445869 0.015915
0.839765 0.443763 0.022858
0.000000 0.404700 0.015503
0.000000 0.404395 0.015518
0.000000 0.330983 0.023209
0.000000 0.276249 0.025879
0.000000 0.285466 0.025437
0.018280 0.345510 0.005066
0.383139 0.479088 0.006699
0.698039 0.559884 0.013809
0.832547 0.578592 0.020371
0.000000 0.492622 0.000381
0.000061 0.497307 0.000229
0.000000 0.446342 0.007340
0.000000 0.370901 0.019699
0.000000 0.356588 0.021225
0.000000 0.374624 0.018967
0.029099 0.458289 0.001129
0.493050 0.598978 0.011856
0.768063 0.661524 0.018357
0.004898 0.573999 0.004913
0.005661 0.583047 0.005661
0.003037 0.549859 0.003052
0.000000 0.469200 0.003525
0.000000 0.432776 0.009949
0.000000 0.436988 0.009125
0.000061 0.460090 0.002762
0.052430 0.565927 0.008545
0.591531 0.693767 0.016998
0.035483 0.039887 0.056443
0.068450 0.040574 0.054643
0.127961 0.037034 0.044358
0.226580 0.022675 0.022797
0.349794 0.007767 0.000000
0.470498 0.000000 0.000000
0.561416 0.000000 0.000000
0.635749 0.000000 0.000000
0.674164 0.000000 0.000000
0.024231 0.060365 0.053636
0.064052 0.066377 0.056962
0.130464 0.064759 0.048051
0.240781 0.051453 0.027619
0.351764 0.026657 0.000076
0.462318 0.001007 0.000000
0.557964 0.000000 0.000000
0.639847 0.000000 0.000000
0.688132 0.000000 0.000000
0.002672 0.087190 0.041962
0.049008 0.099307 0.054723
0.103395 0.103812 0.045466
0.244314 0.105501 0.032517
0.381416 0.092760 0.003998
0.511360 0.070573 0.000366
0.591757 0.025330 0.000000
0.644687 0.000000 0.000000
0.694097 0.000000 0.000000
0.000000 0.136568 0.027939
0.006404 0.159823 0.042344
0.041061 0.144656 0.037446
0.160353 0.168093 0.029831
0.379069 0.193591 0.003937
0.547381 0.189151 0.005478
0.654932 0.167010 0.008148
0.729183 0.134661 0.011398
0.770413 0.094621 0.012467
0.000000 0.214023 0.027130
0.000000 0.236408 0.034440
0.003861 0.203433 0.029328
0.023087 0.185031 0.025330
0.225177 0.246098 0.003616
0.517784 0.312795 0.005310
0.677241 0.326955 0.011200
0.768002 0.314214 0.017075
0.827131 0.291325 0.023224
0.000000 0.310353 0.024613
0.000000 0.330694 0.023667
0.000000 0.301411 0.025986
0.000198 0.215442 0.026825
0.018448 0.237232 0.023697
0.307668 0.348943 0.003433
0.632471 0.446113 0.009964
0.776043 0.474281 0.017212
0.853391 0.467674 0.024491
0.000000 0.408118 0.014939
0.000000 0.426764 0.011154
0.000000 0.414069 0.013733
0.000000 0.306630 0.024811
0.000092 0.279454 0.025177
0.021591 0.334737 0.004685
0.408850 0.480446 0.006836
0.721630 0.575204 0.014939
0.851698 0.598962 0.021988
0.000031 0.495521 0.000168
0.000732 0.515221 0.000748
0.000671 0.514244 0.000687
0.000000 0.429053 0.010697
0.000000 0.357061 0.021225
0.000122 0.365774 0.019013
0.033448 0.451392 0.001266
0.516976 0.598703 0.011871
0.785336 0.668864 0.019120
0.005127 0.576822 0.005142
0.006897 0.597040 0.007034
0.007797 0.604166 0.007965
0.002594 0.543664 0.002609
0.000000 0.451286 0.006470
0.000000 0.428885 0.010727
0.000809 0.452613 0.001297
0.066316 0.562219 0.008865
0.613199 0.693324 0.016968
0.026138 0.037369 0.100191
0.061935 0.038819 0.099550
0.126176 0.036240 0.088853
0.231127 0.022538 0.065232
0.358512 0.001129 0.038987
0.478444 0.000000 0.007935
0.571027 0.000000 0.000076
0.642901 0.000000 0.000000
0.679433 0.000000 0.000000
0.012682 0.060243 0.097139
0.061108 0.069337 0.102129
0.129327 0.067918 0.097215
0.245163 0.054383 0.076615
0.364611 0.026261 0.045106
0.479063 0.000000 0.007462
0.576726 0.000000 0.001022
0.654608 0.000000 0.000015
0.698110 0.000000 0.000000
0.001887 0.090852 0.083619
0.047460 0.107777 0.097424
0.121594 0.128370 0.111192
0.260367 0.126129 0.095737
0.399944 0.107149 0.069307
0.524568 0.069932 0.027222
0.610826 0.017853 0.003479
0.675335 0.000000 0.000000
0.716451 0.000000 0.000000
0.000000 0.145327 0.058610
0.008739 0.172763 0.076814
0.087879 0.207958 0.112335
0.215487 0.211499 0.086256
0.406840 0.219898 0.061860
0.560357 0.200687 0.031708
0.665873 0.166644 0.021637
0.739193 0.123217 0.020737
0.779721 0.079484 0.017350
0.000000 0.223865 0.040955
0.000272 0.250889 0.058839
0.024842 0.299474 0.099428
0.074098 0.262074 0.071428
0.297627 0.299199 0.028565
0.559640 0.348119 0.019531
0.694682 0.344396 0.022812
0.783261 0.321859 0.027054
0.838941 0.289769 0.031510
0.000000 0.317082 0.026780
0.000000 0.342626 0.039780
0.010544 0.390921 0.076081
0.018952 0.332723 0.053147
0.050050 0.293965 0.025956
0.367987 0.389456 0.006806
0.672007 0.485695 0.016129
0.800198 0.503822 0.023865
0.868193 0.481498 0.030610
0.000000 0.413077 0.013931
0.000000 0.432563 0.013855
0.000366 0.462898 0.045319
0.007279 0.437736 0.038636
0.005997 0.311421 0.021424
0.031708 0.344396 0.000610
0.453422 0.498238 0.007599
0.754955 0.604242 0.017350
0.874784 0.623789 0.026444
0.000107 0.499962 0.000137
0.001022 0.519966 0.001038
0.002609 0.541863 0.006500
0.002106 0.527260 0.010590
0.000000 0.400000 0.016190
0.003830 0.375509 0.012039
0.048585 0.454200 0.002426
0.562234 0.613657 0.012741
0.816938 0.691569 0.021042
0.005325 0.579110 0.005325
0.007401 0.601434 0.007584
0.010666 0.624323 0.011215
0.010483 0.622034 0.011643
0.001083 0.520912 0.001099
0.000000 0.439490 0.008530
0.005188 0.456535 0.000061
0.110430 0.564248 0.009873
0.647654 0.702586 0.017639
0.012206 0.027161 0.194766
0.049987 0.028336 0.192981
0.112809 0.027130 0.186603
0.230032 0.016068 0.165179
0.360051 0.000031 0.136889
0.481941 0.000000 0.109590
0.574266 0.000000 0.082048
0.646517 0.000000 0.056764
0.684840 0.000000 0.040635
0.003325 0.051514 0.194766
0.043250 0.061753 0.203647
0.119613 0.062242 0.199130
0.241953 0.050324 0.178332
0.367071 0.022400 0.145251
0.487723 0.000000 0.115343
0.584867 0.000000 0.096849
0.661402 0.000000 0.074540
0.705154 0.000000 0.057877
0.000000 0.088685 0.175616
0.020504 0.108949 0.193515
0.122192 0.139508 0.209395
0.260860 0.136417 0.207538
0.407376 0.114321 0.183200
0.534004 0.071977 0.143816
0.624153 0.013474 0.106279
0.700666 0.004028 0.089204
0.747845 0.004837 0.077913
0.000000 0.153872 0.141192
0.008004 0.182437 0.168734
0.084610 0.225394 0.203030
0.256288 0.269917 0.243368
0.435517 0.271562 0.220637
0.589929 0.240513 0.181674
0.685863 0.178943 0.133364
0.750164 0.101381 0.085924
0.790936 0.050965 0.064698
0.000000 0.237613 0.107027
0.000331 0.265003 0.131579
0.028122 0.319982 0.176440
0.243102 0.373405 0.245689
0.378118 0.369765 0.183464
0.592721 0.385946 0.152636
0.710002 0.357809 0.099184
0.790890 0.312078 0.059892
0.840024 0.251820 0.047654
0.000000 0.333333 0.070909
0.000000 0.358404 0.093156
0.014221 0.410666 0.141497
0.084657 0.486854 0.221942
0.218158 0.417136 0.140673
0.462791 0.460426 0.059754
0.712001 0.527077 0.042603
0.814954 0.514809 0.042695
0.877668 0.474601 0.044907
0.000000 0.424643 0.035996
0.000000 0.449454 0.058228
0.002869 0.481086 0.101564
0.035981 0.556848 0.179995
0.049622 0.488380 0.113085
0.146151 0.432593 0.024582
0.533288 0.547662 0.020249
0.792706 0.638575 0.031800
0.893294 0.642069 0.037644
0.000214 0.504280 0.000702
0.002121 0.528847 0.016831
0.005310 0.557000 0.063233
0.017044 0.600916 0.129366
0.031174 0.579293 0.099092
0.018814 0.423011 0.006119
0.113939 0.472343 0.005478
0.609934 0.631922 0.015427
0.853025 0.719158 0.027115
0.005432 0.580423 0.005432
0.007782 0.604303 0.008591
0.012360 0.632303 0.023102
0.019547 0.662120 0.077821
0.021530 0.651179 0.078126
0.004273 0.498482 0.001495
0.015930 0.475242 0.000534
0.208957 0.575570 0.011322
0.687694 0.718914 0.019074
0.000000 0.000351 0.304280
0.037033 0.000305 0.303944
0.094544 0.000015 0.299138
0.218659 0.000000 0.291844
0.363458 0.000000 0.280430
0.485887 0.000000 0.257191
0.577905 0.000000 0.232074
0.650624 0.000000 0.206744
0.690585 0.000000 0.188159
0.000000 0.022934 0.310307
0.032490 0.041260 0.322667
0.103850 0.040558 0.322042
0.228171 0.027069 0.308110
0.361537 0.000443 0.284184
0.493286 0.000000 0.266804
0.590046 0.000000 0.250324
0.666713 0.000000 0.230671
0.711614 0.000000 0.210819
0.000000 0.069825 0.305364
0.010561 0.093599 0.327504
0.097588 0.127794 0.349065
0.257304 0.127230 0.347555
0.405222 0.109209 0.332830
0.535026 0.059190 0.303258
0.629507 0.010834 0.276616
0.706717 0.004395 0.260594
0.754131 0.005219 0.244205
0.000000 0.152026 0.287160
0.003939 0.180194 0.313802
0.036712 0.234028 0.347875
0.274722 0.290140 0.370621
0.433068 0.288606 0.376536
0.596139 0.252232 0.362814
0.694209 0.186831 0.327031
0.760113 0.109972 0.285557
0.803067 0.065385 0.263355
0.000000 0.254459 0.257465
0.000244 0.279515 0.286122
0.026627 0.332891 0.329885
0.255510 0.392699 0.365690
0.429799 0.453493 0.419594
0.618421 0.448317 0.392255
0.735119 0.409689 0.353933
0.812650 0.351766 0.308446
0.856107 0.270558 0.255314
0.000000 0.354421 0.202045
0.000000 0.379583 0.235309
0.013520 0.429160 0.286732
0.078355 0.507851 0.344259
0.424740 0.566516 0.416836
0.561824 0.555741 0.349724
0.735149 0.572519 0.319493
0.824475 0.538949 0.266529
0.884703 0.480323 0.210681
0.000153 0.446937 0.140047
0.001205 0.471550 0.174258
0.004028 0.501915 0.218723
0.040803 0.579904 0.299947
0.285389 0.657801 0.389242
0.384085 0.583246 0.268925
0.632639 0.621225 0.180865
0.814450 0.662943 0.148470
0.898451 0.644297 0.084016
0.003388 0.524163 0.082078
0.005280 0.549584 0.116808
0.007401 0.576196 0.161700
0.022492 0.624659 0.237278
0.074983 0.706111 0.348333
0.185687 0.638148 0.222919
0.326329 0.572854 0.055390
0.678599 0.675212 0.038560
0.884047 0.744717 0.050843
0.006897 0.588144 0.030579
0.010681 0.615885 0.063264
0.016342 0.647959 0.110811
0.023468 0.680919 0.176822
0.042542 0.727367 0.270954
0.062623 0.709163 0.223285
0.045274 0.545388 0.024552
0.306310 0.600290 0.018051
0.726741 0.738308 0.026551
0.000000 0.000000 0.419394
0.017730 0.000000 0.420294
0.082581 0.000000 0.421210
0.205175 0.000000 0.417456
0.353688 0.000000 0.412482
0.491257 0.000000 0.402991
0.582769 0.000000 0.381353
0.654900 0.000000 0.358923
0.695477 0.000000 0.345434
0.000000 0.000046 0.423682
0.019859 0.001419 0.434241
0.085650 0.000488 0.434409
0.205526 0.000000 0.423163
0.352174 0.000000 0.417502
0.498222 0.000000 0.413382
0.595896 0.000000 0.399680
0.671243 0.000000 0.382727
0.716986 0.000000 0.367849
0.000000 0.025727 0.424445
0.006968 0.058717 0.449073
0.087036 0.102419 0.476280
0.247068 0.100511 0.479805
0.395054 0.078172 0.471305
0.532413 0.031372 0.451835
0.633329 0.003723 0.435828
0.710378 0.003311 0.423056
0.757748 0.004181 0.407523
0.000000 0.122393 0.429374
0.000419 0.154070 0.454582
0.030766 0.216815 0.493599
0.257761 0.269795 0.521309
0.441291 0.269718 0.523781
0.594049 0.247486 0.518288
0.694072 0.177081 0.497063
0.761242 0.097246 0.466148
0.805081 0.058702 0.443076
0.000000 0.249363 0.420005
0.000000 0.274159 0.444373
0.019974 0.331731 0.486137
0.145495 0.405158 0.521324
0.453374 0.462440 0.546980
0.612704 0.459839 0.552049
0.735607 0.418631 0.541192
0.814328 0.357931 0.513268
0.859037 0.272923 0.468208
0.000000 0.372656 0.392004
0.000000 0.395819 0.418509
0.011643 0.440635 0.459251
0.060182 0.518013 0.507073
0.423113 0.580265 0.538964
0.612278 0.627053 0.579776
0.741912 0.613348 0.553657
0.834195 0.574578 0.515389
0.894850 0.512383 0.470893
0.001785 0.473808 0.336828
0.002945 0.497185 0.372808
0.004852 0.523339 0.411032
0.039139 0.595071 0.472007
0.255787 0.670710 0.513466
0.589666 0.705394 0.567676
0.695472 0.693528 0.503970
0.827054 0.697276 0.474876
0.902541 0.668360 0.427115
0.005951 0.553368 0.266148
0.007813 0.577813 0.309911
0.009796 0.601968 0.351034
0.023819 0.644862 0.402548
0.078920 0.723064 0.473350
0.452461 0.775189 0.535485
0.540505 0.708385 0.412772
0.737041 0.734798 0.340581
0.895247 0.769329 0.343404
0.010559 0.612924 0.189197
0.014328 0.641260 0.225055
0.019608 0.672267 0.271687
0.025940 0.701717 0.326970
0.046586 0.746654 0.406989
0.111482 0.816419 0.497948
0.358068 0.753292 0.364660
0.473762 0.688701 0.139025
0.768734 0.768460 0.067384
0.000000 0.000000 0.519051
0.007812 0.000000 0.520882
0.066394 0.000000 0.523262
0.189670 0.000000 0.520409
0.332512 0.000000 0.516320
0.478763 0.000000 0.514778
0.585378 0.000000 0.508553
0.658035 0.000000 0.493355
0.699666 0.000000 0.483986
0.000000 0.000000 0.516014
0.012742 0.000000 0.524010
0.073726 0.000000 0.527138
0.195580 0.000000 0.524834
0.340646 0.000000 0.522988
0.491287 0.000000 0.524727
0.599973 0.000000 0.523064
0.674838 0.000000 0.513298
0.721743 0.000000 0.503548
0.000000 0.005234 0.524224
0.002276 0.012650 0.542214
0.084327 0.046555 0.568292
0.221083 0.033326 0.571237
0.367287 0.010193 0.563729
0.520729 0.000946 0.560922
0.636763 0.001740 0.562539
0.712398 0.001816 0.553063
0.758419 0.002136 0.539742
0.000000 0.066957 0.537041
0.000236 0.103609 0.559503
0.027559 0.173129 0.601114
0.243791 0.223621 0.631601
0.429557 0.220462 0.638468
0.588342 0.195041 0.635645
0.691920 0.149554 0.625849
0.760174 0.072267 0.605997
0.804059 0.044175 0.584466
0.000000 0.228458 0.555352
0.000000 0.255207 0.574792
0.013428 0.304707 0.610544
0.081102 0.379004 0.647684
0.428077 0.428183 0.670954
0.617334 0.427909 0.674540
0.733669 0.411231 0.672999
0.812360 0.348745 0.659602
0.859098 0.261921 0.630549
0.000000 0.365499 0.549477
0.000519 0.391791 0.569787
0.004288 0.427405 0.597025
0.045640 0.508736 0.645975
0.327276 0.581796 0.672587
0.612826 0.620694 0.690286
0.734035 0.614310 0.686946
0.830213 0.574411 0.674113
0.893141 0.510979 0.652293
0.003296 0.489326 0.527047
0.004517 0.511086 0.552453
0.006119 0.534463 0.578973
0.035416 0.598856 0.627543
0.175341 0.674800 0.659236
0.574932 0.710051 0.672650
0.722634 0.736303 0.690193
0.829180 0.719784 0.671316
0.906508 0.685618 0.639994
0.008103 0.576928 0.479942
0.009857 0.598199 0.514122
0.011734 0.619074 0.545678
0.023484 0.656291 0.583627
0.073777 0.729351 0.630930
0.435599 0.782330 0.643763
0.689399 0.805541 0.676299
0.786005 0.793671 0.623168
0.901656 0.793820 0.598886
0.013321 0.640940 0.418219
0.016617 0.666010 0.451743
0.021317 0.693797 0.489021
0.026688 0.719188 0.521813
0.044541 0.756802 0.561578
0.115801 0.828061 0.611902
0.547845 0.859709 0.645563
0.649744 0.802686 0.537179
0.816419 0.825452 0.470283
0.000000 0.000000 0.596719
0.002730 0.000000 0.597864
0.055496 0.000000 0.601190
0.168053 0.000000 0.602396
0.304964 0.000000 0.601617
0.458919 0.000000 0.600763
0.575111 0.000000 0.599161
0.660378 0.000000 0.595895
0.704480 0.000000 0.592126
0.000000 0.000000 0.594995
0.003937 0.000000 0.603693
0.073081 0.000000 0.608316
0.191373 0.000000 0.610239
0.329271 0.000000 0.611429
0.483070 0.000000 0.612955
0.595916 0.000000 0.613428
0.678979 0.000000 0.611917
0.726250 0.000000 0.607187
0.000000 0.000000 0.597314
0.000000 0.000031 0.614649
0.065014 0.000427 0.629175
0.202312 0.000000 0.628443
0.338876 0.000000 0.628397
0.496802 0.000000 0.630167
0.617224 0.000000 0.636759
0.709224 0.000183 0.645304
0.757198 0.000702 0.636316
0.000000 0.020874 0.612985
0.000000 0.028748 0.629923
0.025735 0.111772 0.672633
0.234053 0.157977 0.705242
0.414694 0.146639 0.712779
0.568689 0.110994 0.712581
0.673014 0.055680 0.704204
0.755749 0.044022 0.701961
0.803540 0.033753 0.687861
0.000000 0.187762 0.645716
0.000000 0.215442 0.664576
0.011658 0.259678 0.695521
0.069474 0.335027 0.732891
0.421546 0.375601 0.757473
0.609751 0.373281 0.764828
0.728801 0.354620 0.767010
0.809216 0.317220 0.762600
0.858701 0.239826 0.744747
0.000961 0.347143 0.661677
0.001862 0.375357 0.680064
0.002930 0.402930 0.698634
0.034058 0.475074 0.740978
0.250156 0.553597 0.770611
0.598184 0.585092 0.786572
0.733639 0.578103 0.786831
0.827573 0.558190 0.784680
0.892668 0.497871 0.775921
0.004623 0.483970 0.657588
0.006012 0.508492 0.678141
0.007553 0.532448 0.698924
0.022171 0.577249 0.731594
0.085344 0.658289 0.771481
0.501945 0.701854 0.782788
0.716942 0.721107 0.794268
0.823189 0.714614 0.791137
0.903288 0.681865 0.779553
0.010132 0.587594 0.642695
0.011765 0.606043 0.663691
0.013611 0.625788 0.685588
0.020050 0.652979 0.710933
0.064851 0.724025 0.755764
0.356069 0.783734 0.770886
0.669959 0.807434 0.777748
0.813144 0.822367 0.782687
0.902243 0.804830 0.768349
0.015335 0.655406 0.607309
0.018174 0.678035 0.631418
0.022476 0.704402 0.658778
0.027222 0.727459 0.682643
0.040955 0.759930 0.711986
0.102419 0.830076 0.749264
0.530159 0.864088 0.747311
0.752736 0.879637 0.771359
0.860304 0.871321 0.714473
0.000000 0.000000 0.618662
0.000090 0.000000 0.621241
0.047780 0.000000 0.623178
0.160894 0.000000 0.624628
0.298340 0.000000 0.623774
0.453422 0.000000 0.622278
0.571881 0.000000 0.620600
0.658966 0.000000 0.617777
0.705785 0.000000 0.613779
0.000000 0.000000 0.622827
0.001424 0.000000 0.632227
0.065132 0.000000 0.636545
0.192127 0.000000 0.638941
0.325022 0.000000 0.640635
0.480084 0.000000 0.641611
0.593991 0.000000 0.641459
0.676858 0.000000 0.640925
0.727744 0.000000 0.637613
0.000000 0.000000 0.621942
0.000000 0.000000 0.638895
0.056045 0.000000 0.650813
0.196812 0.000000 0.652842
0.329197 0.000000 0.656123
0.488386 0.000000 0.660334
0.608922 0.000000 0.664729
0.699580 0.000000 0.671153
0.755657 0.000000 0.670008
0.000000 0.013443 0.644297
0.000000 0.017227 0.660990
0.023292 0.073655 0.696986
0.225193 0.115221 0.730877
0.407843 0.088304 0.735180
0.550134 0.045335 0.731075
0.659373 0.019379 0.726101
0.746105 0.025300 0.730678
0.803784 0.031556 0.728054
0.000000 0.153826 0.680186
0.000000 0.181628 0.698940
0.011902 0.226825 0.729809
0.069535 0.303059 0.768002
0.414862 0.338384 0.793606
0.607736 0.331029 0.801465
0.723354 0.308049 0.803952
0.802472 0.268132 0.800916
0.858930 0.226810 0.793591
0.001572 0.327779 0.708370
0.002411 0.353124 0.726238
0.003571 0.381384 0.745037
0.031601 0.446952 0.782712
0.239612 0.525734 0.813062
0.596643 0.550347 0.829236
0.732280 0.542016 0.831968
0.824430 0.521981 0.833326
0.892927 0.480995 0.832212
0.005463 0.476890 0.717723
0.006897 0.501122 0.738140
0.008362 0.524330 0.757412
0.015183 0.555611 0.780758
0.070253 0.635019 0.822919
0.465751 0.684932 0.835767
0.711879 0.700206 0.844739
0.822385 0.694209 0.844862
0.902693 0.674128 0.843549
0.011032 0.585138 0.715023
0.012650 0.602838 0.735149
0.014527 0.622644 0.756130
0.016632 0.641382 0.775067
0.047547 0.699626 0.813703
0.190295 0.775738 0.840848
0.631525 0.799786 0.843671
0.798772 0.811288 0.849030
0.898816 0.801783 0.844375
0.016632 0.659480 0.699718
0.019410 0.681636 0.722789
0.023758 0.707759 0.749645
0.028534 0.731228 0.773251
0.040024 0.760449 0.799558
0.093584 0.825788 0.836011
0.482811 0.864408 0.834958
0.740849 0.880430 0.835019
0.880629 0.881682 0.832166
