apps/capacitor-film-lab-ios/ios/App/App/Resources/CreativeLuts/filmtone-creative-pack-01-palermo-reference.cube
TITLE "Generated by Resolve"
LUT_3D_SIZE 5
0.0395361 0.0393683 0.0359045
0.125368 0.0353399 0.025864
0.338399 0.0140536 0
0.558236 0 0
0.67306 0 0
0.00450141 0.0825666 0.0302892
0.0861372 0.0893873 0.0278172
0.364096 0.0845197 1.5259e-05
0.569375 0.0110323 0
0.682155 0 0
0 0.209964 0.0271
0 0.143267 0.0244907
0.184924 0.227405 0.00952163
0.656733 0.302617 0.00993362
0.81062 0.266789 0.021088
0 0.4047 0.0155032
0 0.330983 0.023209
0 0.285466 0.0254368
0.383139 0.479088 0.00669871
0.832547 0.578592 0.0203708
0.00489815 0.573999 0.00491341
0.00303655 0.549859 0.0030518
0 0.432776 0.00994888
6.10361e-05 0.46009 0.00276188
0.591531 0.693767 0.0169985
0.0281376 0.0373693 0.100191
0.128176 0.0362402 0.0888533
0.360479 0.00112917 0.0389868
0.572732 0 7.62951e-05
0.680705 0 0
0.00344854 0.0908522 0.0836194
0.124178 0.128344 0.111086
0.400549 0.107149 0.0693065
0.611032 0.0178531 0.00347906
0.716457 0 0
0 0.223865 0.0409552
0.0248417 0.299474 0.0994278
0.297627 0.299199 0.0285649
0.694682 0.344396 0.0228122
0.838941 0.289769 0.0315099
0 0.413077 0.0139315
0.000366217 0.462898 0.0453193
0.0059968 0.311421 0.0214237
0.453422 0.498238 0.00759899
0.874784 0.623789 0.0264439
0.0053254 0.57911 0.0053254
0.0106661 0.624323 0.0112154
0.00108339 0.520912 0.00109865
0.00518807 0.456535 6.10361e-05
0.647654 0.702586 0.0176394
0.00166323 0.000350958 0.30428
0.0965438 1.5259e-05 0.299138
0.365362 0 0.28043
0.579477 0 0.232074
0.691691 0 0.188159
0 0.0698253 0.305364
0.0985122 0.127794 0.349065
0.405676 0.109209 0.33283
0.629618 0.0108339 0.276616
0.754131 0.00521859 0.244205
0 0.254459 0.257465
0.026627 0.332891 0.329885
0.435019 0.452384 0.414847
0.735119 0.409689 0.353933
0.856107 0.270558 0.255314
0.00015259 0.446937 0.140047
0.00402838 0.501915 0.218723
0.285389 0.657801 0.389242
0.632639 0.621225 0.180865
0.898451 0.644297 0.0840162
0.00689708 0.588144 0.0305791
0.0163424 0.647959 0.110811
0.0425422 0.727367 0.270954
0.0452735 0.545388 0.0245518
0.726741 0.738308 0.0265507
0 0 0.519051
0.0683909 0 0.523262
0.334325 0 0.51632
0.586801 0 0.508553
0.700603 0 0.483986
0 0.00523384 0.524224
0.0850843 0.0465553 0.568292
0.367605 0.010193 0.563729
0.636805 0.00173953 0.562539
0.758419 0.00213626 0.539742
0 0.228458 0.555352
0.0134279 0.304707 0.610544
0.428077 0.428183 0.670954
0.733669 0.411231 0.672999
0.859098 0.261921 0.630549
0.00329595 0.489326 0.527047
0.00611887 0.534463 0.578973
0.175341 0.6748 0.659236
0.731411 0.734203 0.681102
0.906508 0.685618 0.639994
0.0133211 0.64094 0.418219
0.0213169 0.693797 0.489021
0.0445411 0.756802 0.561578
0.547845 0.859709 0.645563
0.816419 0.825452 0.470283
0 0 0.618662
0.0497444 0 0.623178
0.300038 0 0.623774
0.573144 0 0.6206
0.706554 0 0.613779
0 0 0.621942
0.0566415 0 0.650813
0.329397 0 0.656123
0.608927 0 0.664729
0.755657 0 0.670008
0 0.153826 0.680186
0.011902 0.226825 0.729809
0.414862 0.338384 0.793606
0.723354 0.308049 0.803952
0.85893 0.22681 0.793591
0.00546273 0.47689 0.717723
0.00836194 0.52433 0.757412
0.0702525 0.635019 0.822919
0.711879 0.700206 0.844739
0.902693 0.674128 0.843549
0.0166323 0.65948 0.699718
0.0237583 0.707759 0.749645
0.0400244 0.760449 0.799558
0.482811 0.864408 0.834958
0.880629 0.881682 0.832166
