apps/capacitor-film-lab-ios/ios/App/App/Resources/CreativeLuts/filmtone-creative-pack-01-stone-rec709-safe.cube
TITLE "Filmtone Stone Rec.709 Safe"
# pack=creative-pack-01
# slug=filmtone-creative-pack-01-stone
# variant=rec709-safe
# bakerVersion=1.5.0-stone-palermo-signature
# generator=filmtone-rec709-safe-color-v1
LUT_3D_SIZE 65
DOMAIN_MIN 0.0 0.0 0.0
DOMAIN_MAX 1.0 1.0 1.0
0.000000 0.000000 0.000000
0.015625 0.000000 0.000000
0.031250 0.000000 0.000000
0.046875 0.000000 0.000000
0.062500 0.000000 0.000000
0.078125 0.000000 0.000000
0.093750 0.000000 0.000000
0.109375 0.000000 0.000000
0.124938 0.000023 0.000019
0.139969 0.000235 0.000195
0.154270 0.000698 0.000572
0.167745 0.001442 0.001165
0.180339 0.002480 0.001976
0.192017 0.003825 0.003001
0.202708 0.005373 0.004143
0.212076 0.006940 0.005254
0.220371 0.008626 0.006405
0.227652 0.010391 0.007549
0.234165 0.012171 0.008624
0.240033 0.013932 0.009600
0.245331 0.015637 0.010452
0.250053 0.017275 0.011151
0.254261 0.018830 0.011650
0.258051 0.020268 0.011861
0.261494 0.021577 0.011792
0.264570 0.022755 0.011482
0.267454 0.023762 0.010885
0.270765 0.024540 0.009795
0.274248 0.025171 0.008240
0.278151 0.025600 0.006173
0.282835 0.025763 0.003664
0.288572 0.025728 0.001725
0.295307 0.025580 0.000724
0.303489 0.025232 0.000393
0.313646 0.024862 0.000331
0.325312 0.024458 0.000387
0.338541 0.023893 0.000507
0.352523 0.022750 0.000717
0.366075 0.021100 0.001042
0.379762 0.019932 0.001486
0.393423 0.019441 0.002054
0.406607 0.019254 0.002755
0.418884 0.018755 0.003596
0.430154 0.017753 0.004571
0.440465 0.016225 0.005657
0.450031 0.014675 0.006800
0.458666 0.012974 0.007940
0.466945 0.012555 0.009008
0.476363 0.013917 0.010142
0.485201 0.014190 0.011362
0.493163 0.014372 0.012541
0.500308 0.014924 0.013628
0.506882 0.015244 0.014680
0.514351 0.016280 0.015789
0.522761 0.017149 0.017004
0.531154 0.018219 0.018163
0.539696 0.019414 0.019271
0.548123 0.020341 0.020303
0.556856 0.021364 0.021265
0.565281 0.022265 0.022219
0.573953 0.023326 0.023210
0.582794 0.024320 0.024244
0.591854 0.025625 0.025313
0.600963 0.026782 0.026423
0.609906 0.028421 0.027573
0.000000 0.015625 0.000000
0.015625 0.015625 0.000000
0.031250 0.015625 0.000000
0.046875 0.015625 0.000000
0.062500 0.015625 0.000000
0.078036 0.015664 0.000065
0.093230 0.015839 0.000325
0.107934 0.016193 0.000804
0.122004 0.016767 0.001523
0.135349 0.017587 0.002486
0.147843 0.018632 0.003657
0.158961 0.019654 0.004829
0.168894 0.020788 0.006099
0.177601 0.022017 0.007436
0.185404 0.023293 0.008780
0.192281 0.024600 0.010112
0.198278 0.025916 0.011394
0.203531 0.027215 0.012583
0.208296 0.028479 0.013654
0.212923 0.029592 0.014527
0.217312 0.030592 0.015233
0.221442 0.031470 0.015724
0.225397 0.032212 0.015936
0.229287 0.032845 0.015837
0.233204 0.033346 0.015451
0.237182 0.033693 0.014799
0.241330 0.033886 0.013794
0.246410 0.033894 0.012325
0.252206 0.033782 0.010395
0.258857 0.033474 0.007839
0.266746 0.032945 0.005068
0.276251 0.032383 0.002701
0.287304 0.031776 0.001143
0.300187 0.031121 0.000575
0.314204 0.030084 0.000498
0.328336 0.028904 0.000533
0.342478 0.027689 0.000675
0.356403 0.026169 0.000936
0.370433 0.024900 0.001317
0.384516 0.024109 0.001830
0.398180 0.023731 0.002476
0.411205 0.023430 0.003264
0.423089 0.022739 0.004186
0.434013 0.021599 0.005236
0.444188 0.020186 0.006390
0.453673 0.018637 0.007602
0.463130 0.018237 0.008797
0.472323 0.018630 0.009962
0.481208 0.018180 0.011234
0.489304 0.018068 0.012453
0.496594 0.017781 0.013628
0.503136 0.017081 0.014766
0.511032 0.018295 0.015945
0.518825 0.018552 0.017187
0.526789 0.019092 0.018411
0.535040 0.020260 0.019585
0.542978 0.020959 0.020695
0.551632 0.022241 0.021746
0.559958 0.022962 0.022733
0.568511 0.024155 0.023739
0.577147 0.025095 0.024794
0.585783 0.026354 0.025867
0.594689 0.027804 0.026982
0.603519 0.029293 0.028144
0.612134 0.031201 0.029347
0.000000 0.031250 0.000000
0.015627 0.031250 0.000004
0.031272 0.031268 0.000144
0.046797 0.031355 0.000502
0.062030 0.031560 0.001097
0.076838 0.031923 0.001938
0.091129 0.032469 0.003024
0.104416 0.033035 0.004214
0.116542 0.033619 0.005493
0.127524 0.034276 0.006879
0.137330 0.034985 0.008338
0.145925 0.035749 0.009849
0.153306 0.036556 0.011387
0.159499 0.037384 0.012926
0.165161 0.038166 0.014372
0.170125 0.038909 0.015723
0.174512 0.039620 0.016948
0.178546 0.040261 0.018017
0.182520 0.040795 0.018931
0.186733 0.041170 0.019598
0.191247 0.041379 0.020024
0.195858 0.041467 0.020188
0.200683 0.041544 0.020049
0.205846 0.041490 0.019600
0.211423 0.041311 0.018839
0.217484 0.041062 0.017793
0.224167 0.040739 0.016413
0.232385 0.040314 0.014580
0.241782 0.039794 0.012295
0.252537 0.039190 0.009509
0.264782 0.038301 0.006530
0.277458 0.037027 0.003748
0.290384 0.035800 0.001745
0.303623 0.034577 0.000933
0.317675 0.033358 0.000709
0.332047 0.032372 0.000707
0.346497 0.031280 0.000876
0.360885 0.030106 0.001169
0.375239 0.029088 0.001613
0.389157 0.028305 0.002196
0.402615 0.027799 0.002923
0.415398 0.027368 0.003794
0.427068 0.026620 0.004796
0.437975 0.025587 0.005926
0.448598 0.024913 0.007152
0.458758 0.024591 0.008422
0.468371 0.024747 0.009665
0.477216 0.024125 0.010933
0.485531 0.023471 0.012215
0.493214 0.022677 0.013493
0.500689 0.022097 0.014773
0.508424 0.022414 0.016048
0.515902 0.022079 0.017357
0.523496 0.022207 0.018643
0.531159 0.022436 0.019904
0.538556 0.022276 0.021116
0.547032 0.024045 0.022240
0.555075 0.024355 0.023313
0.563399 0.025526 0.024335
0.571911 0.026509 0.025413
0.580176 0.027418 0.026509
0.588802 0.029186 0.027633
0.597248 0.030378 0.028795
0.606087 0.032981 0.030031
0.614154 0.034424 0.031308
0.000765 0.046753 0.000741
0.016607 0.046782 0.001487
0.032148 0.046932 0.002476
0.047226 0.047050 0.003574
0.061589 0.047139 0.004804
0.075065 0.047263 0.006158
0.087566 0.047404 0.007613
0.098630 0.047571 0.009179
0.108491 0.047766 0.010806
0.117126 0.047992 0.012472
0.124547 0.048251 0.014144
0.130815 0.048524 0.015798
0.135985 0.048810 0.017418
0.140285 0.049090 0.018961
0.144251 0.049325 0.020343
0.148045 0.049502 0.021524
0.151694 0.049613 0.022571
0.155468 0.049633 0.023406
0.159666 0.049536 0.023980
0.164577 0.049312 0.024268
0.170318 0.048946 0.024281
0.176530 0.048586 0.024046
0.183359 0.048171 0.023508
0.190959 0.047698 0.022624
0.199435 0.047177 0.021440
0.208879 0.046721 0.020043
0.219419 0.045813 0.018262
0.231281 0.044820 0.016069
0.243203 0.043790 0.013566
0.255251 0.042679 0.010737
0.267671 0.041475 0.007679
0.280499 0.040271 0.004734
0.293585 0.039147 0.002659
0.307056 0.038028 0.001429
0.321341 0.036976 0.000953
0.335949 0.036026 0.000962
0.350606 0.035017 0.001100
0.365177 0.034051 0.001422
0.379451 0.033098 0.001924
0.393296 0.032311 0.002578
0.406718 0.031690 0.003390
0.419513 0.031389 0.004343
0.431352 0.030894 0.005429
0.442548 0.030296 0.006643
0.453354 0.030085 0.007941
0.463492 0.030062 0.009270
0.472779 0.029659 0.010600
0.481475 0.029126 0.011922
0.489801 0.028819 0.013259
0.498054 0.028585 0.014646
0.506009 0.028370 0.016041
0.513544 0.027802 0.017440
0.520990 0.027912 0.018782
0.528267 0.027251 0.020154
0.535411 0.026338 0.021492
0.543367 0.027601 0.022708
0.550979 0.027320 0.023905
0.559020 0.028134 0.024983
0.567197 0.028989 0.026081
0.575159 0.029443 0.027219
0.583486 0.031178 0.028359
0.591466 0.032098 0.029536
0.600291 0.035222 0.030801
0.608343 0.036731 0.032071
0.616696 0.039788 0.033669
0.004268 0.061221 0.004227
0.019430 0.060874 0.005622
0.033783 0.060512 0.007065
0.047430 0.060121 0.008523
0.060355 0.059709 0.010057
0.072307 0.059306 0.011694
0.082743 0.058909 0.013414
0.091575 0.058530 0.015188
0.099176 0.058178 0.016958
0.105609 0.057863 0.018701
0.110937 0.057588 0.020396
0.115309 0.057346 0.022008
0.118834 0.057143 0.023511
0.121952 0.056954 0.024867
0.125087 0.056751 0.026027
0.128523 0.056517 0.026949
0.132439 0.056228 0.027628
0.136988 0.055891 0.028027
0.142505 0.055521 0.028124
0.149229 0.055066 0.027923
0.157311 0.054290 0.027437
0.166380 0.053481 0.026700
0.176419 0.052637 0.025600
0.187623 0.051816 0.024164
0.199080 0.050986 0.022608
0.210430 0.050109 0.021007
0.221765 0.049138 0.019233
0.233743 0.048125 0.017058
0.245781 0.047148 0.014682
0.257985 0.046093 0.011944
0.270565 0.044944 0.008860
0.283513 0.043775 0.005971
0.296771 0.042620 0.003628
0.310472 0.041565 0.002009
0.324901 0.040630 0.001342
0.339644 0.039777 0.001244
0.354426 0.038894 0.001348
0.369105 0.037941 0.001706
0.383370 0.037055 0.002250
0.397301 0.036436 0.002972
0.410831 0.036053 0.003859
0.423768 0.035838 0.004901
0.435681 0.035314 0.006086
0.446948 0.035013 0.007383
0.457701 0.034901 0.008770
0.467673 0.034732 0.010195
0.476974 0.034442 0.011613
0.486098 0.034641 0.013018
0.494850 0.034892 0.014455
0.503245 0.034974 0.015925
0.511138 0.034792 0.017398
0.518661 0.034581 0.018848
0.525939 0.034129 0.020291
0.533112 0.033160 0.021745
0.540608 0.033254 0.023106
0.547962 0.032733 0.024424
0.555529 0.032821 0.025626
0.563250 0.033076 0.026771
0.570870 0.033061 0.027963
0.578951 0.034543 0.029154
0.586457 0.034944 0.030348
0.594940 0.038016 0.031690
0.603036 0.040056 0.032949
0.611235 0.042803 0.034585
0.618983 0.045134 0.036178
0.009412 0.072264 0.009546
0.023160 0.071307 0.011405
0.035762 0.070337 0.013190
0.047356 0.069373 0.014860
0.058337 0.068372 0.016410
0.068704 0.067356 0.018000
0.076788 0.066373 0.019783
0.083613 0.065450 0.021543
0.089366 0.064602 0.023263
0.094051 0.063845 0.024882
0.097878 0.063165 0.026403
0.101057 0.062481 0.027814
0.103808 0.061853 0.029043
0.106709 0.061234 0.030037
0.110096 0.060620 0.030765
0.114284 0.060009 0.031215
0.119552 0.059385 0.031340
0.126046 0.058762 0.031123
0.134085 0.058171 0.030588
0.143874 0.057617 0.029786
0.155127 0.057081 0.028736
0.166600 0.056500 0.027598
0.178064 0.055835 0.026312
0.189652 0.055126 0.024882
0.201171 0.054376 0.023413
0.212611 0.053590 0.021857
0.224059 0.052761 0.020107
0.236173 0.051803 0.018074
0.248341 0.050777 0.015845
0.260686 0.049647 0.013156
0.273399 0.048584 0.010091
0.286479 0.047491 0.007170
0.299868 0.046388 0.004591
0.313760 0.045347 0.002789
0.328327 0.044377 0.001861
0.343201 0.043562 0.001542
0.358098 0.042793 0.001651
0.372690 0.041958 0.001997
0.387091 0.041242 0.002585
0.401195 0.040736 0.003378
0.414858 0.040456 0.004352
0.427868 0.040352 0.005488
0.439897 0.040112 0.006768
0.451196 0.039836 0.008174
0.461892 0.039658 0.009673
0.472244 0.040007 0.011206
0.481929 0.040306 0.012725
0.491026 0.040533 0.014222
0.499806 0.041005 0.015738
0.508180 0.041327 0.017278
0.516102 0.041404 0.018821
0.523636 0.041292 0.020350
0.531001 0.040920 0.021882
0.538339 0.040486 0.023385
0.545626 0.040029 0.024824
0.553039 0.039950 0.026177
0.560221 0.039261 0.027434
0.567405 0.038636 0.028707
0.575172 0.039578 0.029986
0.582408 0.039535 0.031226
0.590276 0.041725 0.032656
0.598213 0.044052 0.033998
0.606190 0.046557 0.035534
0.614106 0.049317 0.037315
0.621598 0.051584 0.039151
0.015599 0.078773 0.016096
0.027515 0.077120 0.018205
0.038114 0.075456 0.020105
0.047659 0.073847 0.021779
0.056581 0.072267 0.023207
0.064681 0.070681 0.024585
0.070643 0.069142 0.026148
0.075861 0.067729 0.027683
0.080408 0.066455 0.029140
0.084179 0.065341 0.030477
0.087441 0.064382 0.031637
0.090383 0.063590 0.032597
0.093291 0.062949 0.033320
0.096981 0.062384 0.033724
0.101751 0.061932 0.033825
0.107908 0.061598 0.033594
0.115614 0.061404 0.033000
0.124604 0.061219 0.032211
0.134512 0.060940 0.031345
0.145308 0.060557 0.030374
0.156707 0.060097 0.029315
0.168293 0.059602 0.028204
0.179913 0.059052 0.026973
0.191590 0.058443 0.025607
0.203197 0.057799 0.024214
0.214759 0.057132 0.022688
0.226320 0.056413 0.020997
0.238558 0.055573 0.019101
0.250854 0.054707 0.016985
0.263351 0.053720 0.014303
0.276256 0.052627 0.011334
0.289451 0.051434 0.008353
0.302951 0.050341 0.005628
0.316995 0.049400 0.003666
0.331666 0.048535 0.002408
0.346687 0.047720 0.001914
0.361483 0.046834 0.001959
0.376227 0.046044 0.002313
0.390824 0.045611 0.002947
0.405064 0.045286 0.003813
0.418839 0.045114 0.004879
0.431946 0.045088 0.006119
0.444183 0.045069 0.007510
0.455785 0.045179 0.009030
0.466851 0.045507 0.010642
0.477274 0.045877 0.012295
0.486928 0.046219 0.013912
0.495938 0.046600 0.015481
0.504691 0.047147 0.017085
0.513123 0.047698 0.018706
0.521157 0.048179 0.020325
0.528819 0.048490 0.021922
0.536235 0.048183 0.023545
0.543586 0.048046 0.025119
0.550951 0.048227 0.026584
0.558142 0.047537 0.028006
0.564966 0.046435 0.029437
0.572170 0.046399 0.030816
0.579254 0.046032 0.032151
0.586644 0.047237 0.033712
0.594142 0.049063 0.035150
0.601770 0.051237 0.036692
0.609709 0.054306 0.038512
0.616984 0.056102 0.040292
0.624800 0.059426 0.042715
0.022512 0.080333 0.023266
0.032334 0.078109 0.025366
0.040828 0.075930 0.027134
0.048351 0.073944 0.028585
0.055352 0.072078 0.029638
0.060932 0.070260 0.030781
0.065108 0.068602 0.031900
0.069310 0.067177 0.032985
0.073183 0.066009 0.033913
0.076933 0.065128 0.034706
0.080551 0.064530 0.035257
0.084409 0.064222 0.035551
0.088793 0.064206 0.035560
0.094400 0.064387 0.035235
0.101062 0.064512 0.034779
0.108570 0.064554 0.034237
0.116890 0.064512 0.033584
0.125883 0.064403 0.032838
0.135941 0.064174 0.031972
0.146942 0.063854 0.030997
0.158448 0.063492 0.029962
0.170145 0.063103 0.028885
0.181858 0.062678 0.027762
0.193609 0.062177 0.026455
0.205316 0.061660 0.025104
0.217035 0.061099 0.023615
0.228727 0.060486 0.022003
0.241105 0.059776 0.020162
0.253525 0.059078 0.018152
0.266180 0.058188 0.015630
0.279248 0.057160 0.012727
0.292570 0.056104 0.009544
0.306258 0.055102 0.006730
0.320470 0.054139 0.004550
0.335317 0.053296 0.003135
0.350317 0.052563 0.002412
0.365317 0.051899 0.002331
0.380272 0.051288 0.002673
0.394976 0.050733 0.003343
0.409371 0.050421 0.004292
0.423489 0.050683 0.005454
0.436908 0.051023 0.006796
0.449410 0.051151 0.008306
0.461176 0.051368 0.009947
0.472374 0.051917 0.011679
0.482747 0.052474 0.013427
0.492322 0.052833 0.015134
0.501329 0.053197 0.016797
0.510213 0.054066 0.018506
0.518804 0.055116 0.020211
0.526831 0.055735 0.021903
0.534513 0.056070 0.023603
0.541993 0.056401 0.025343
0.549399 0.056789 0.026952
0.556764 0.056966 0.028451
0.563737 0.056340 0.030175
0.570502 0.055595 0.031696
0.577279 0.054779 0.033113
0.584428 0.055455 0.034923
0.591443 0.056222 0.036462
0.598655 0.057884 0.038103
0.606328 0.060741 0.039971
0.613515 0.062549 0.041728
0.621051 0.065271 0.044194
0.628314 0.067741 0.046553
0.029253 0.078076 0.030205
0.037070 0.075682 0.032104
0.043637 0.073424 0.033496
0.049404 0.071503 0.034483
0.054469 0.069873 0.035116
0.057715 0.068405 0.035786
0.060938 0.067242 0.036299
0.064590 0.066441 0.036584
0.068778 0.066059 0.036779
0.073458 0.066112 0.036750
0.078538 0.066504 0.036559
0.083677 0.066905 0.036356
0.089097 0.067287 0.036120
0.094942 0.067623 0.035826
0.101840 0.067827 0.035389
0.109600 0.067946 0.034851
0.118103 0.067983 0.034215
0.127310 0.067932 0.033482
0.137442 0.067778 0.032640
0.148698 0.067531 0.031706
0.160305 0.067270 0.030751
0.172080 0.066977 0.029731
0.183913 0.066645 0.028614
0.195771 0.066279 0.027367
0.207610 0.065889 0.026069
0.219424 0.065439 0.024652
0.231177 0.064922 0.023098
0.243651 0.064319 0.021283
0.256267 0.063693 0.019365
0.269110 0.063000 0.017133
0.282374 0.062131 0.014041
0.295894 0.061218 0.010790
0.309784 0.060339 0.007876
0.324264 0.059576 0.005672
0.339108 0.058849 0.003987
0.354301 0.058227 0.003052
0.369563 0.057697 0.002787
0.384795 0.057267 0.003107
0.399863 0.057079 0.003816
0.414706 0.057174 0.004844
0.429021 0.057398 0.006084
0.442526 0.057663 0.007535
0.455133 0.058002 0.009145
0.467077 0.058594 0.010905
0.478347 0.059210 0.012750
0.488703 0.059590 0.014606
0.498365 0.060274 0.016431
0.507610 0.061189 0.018206
0.516514 0.062173 0.019996
0.525052 0.063090 0.021783
0.532993 0.064000 0.023646
0.540691 0.064686 0.025518
0.548215 0.065367 0.027272
0.555606 0.066145 0.029054
0.562852 0.066543 0.030969
0.569786 0.066213 0.032667
0.576358 0.065514 0.034324
0.583189 0.065630 0.036256
0.590065 0.065889 0.037970
0.596877 0.066711 0.039782
0.604093 0.068822 0.041703
0.611167 0.070705 0.043508
0.618330 0.072795 0.045970
0.625381 0.074788 0.048318
0.632769 0.077590 0.051168
0.035210 0.074052 0.036213
0.041215 0.072058 0.037603
0.046189 0.070329 0.038360
0.050575 0.069156 0.038671
0.053650 0.068400 0.038804
0.055921 0.068075 0.038781
0.058949 0.068203 0.038426
0.062554 0.068549 0.037975
0.067300 0.068900 0.037627
0.072439 0.069319 0.037356
0.077911 0.069786 0.037143
0.083407 0.070260 0.036951
0.089206 0.070711 0.036709
0.095462 0.071119 0.036403
0.102429 0.071443 0.036000
0.110536 0.071645 0.035462
0.119309 0.071764 0.034841
0.128764 0.071800 0.034182
0.138979 0.071752 0.033435
0.150411 0.071615 0.032555
0.162193 0.071425 0.031630
0.174108 0.071210 0.030629
0.186087 0.070998 0.029527
0.198059 0.070803 0.028374
0.209986 0.070584 0.027200
0.221910 0.070262 0.025816
0.233798 0.069889 0.024272
0.246436 0.069454 0.022526
0.259261 0.068977 0.020700
0.272254 0.068403 0.018440
0.285707 0.067656 0.015430
0.299453 0.066825 0.012134
0.313561 0.066128 0.009202
0.328093 0.065455 0.006666
0.343187 0.064907 0.004941
0.358641 0.064492 0.003914
0.374269 0.064195 0.003445
0.389878 0.064040 0.003680
0.405302 0.064075 0.004502
0.420352 0.064264 0.005589
0.434833 0.064619 0.006901
0.448549 0.065104 0.008383
0.461396 0.065682 0.010073
0.473521 0.066441 0.012028
0.484885 0.067260 0.014023
0.495366 0.068049 0.015983
0.505152 0.068911 0.017853
0.514417 0.069826 0.019794
0.523181 0.070824 0.021792
0.531621 0.071910 0.023750
0.539599 0.072884 0.025685
0.547262 0.073882 0.027723
0.554717 0.075002 0.029799
0.562098 0.076109 0.031785
0.569302 0.076716 0.033741
0.576020 0.076660 0.035769
0.582640 0.076696 0.037691
0.589420 0.077008 0.039621
0.596116 0.077413 0.041695
0.602966 0.078623 0.043667
0.609775 0.080125 0.045641
0.616588 0.081788 0.047967
0.623435 0.083364 0.050399
0.630436 0.085429 0.052993
0.637687 0.088035 0.056068
0.039544 0.071211 0.040400
0.044154 0.070417 0.041019
0.048033 0.070063 0.040919
0.051365 0.070368 0.040430
0.053483 0.070747 0.040124
0.055852 0.071122 0.039759
0.058339 0.071506 0.039360
0.061818 0.071918 0.038914
0.065769 0.072363 0.038428
0.071089 0.072823 0.038078
0.076741 0.073331 0.037765
0.082728 0.073896 0.037515
0.088880 0.074437 0.037266
0.095577 0.074925 0.036971
0.102931 0.075356 0.036623
0.111229 0.075703 0.036179
0.120314 0.075937 0.035622
0.130007 0.076107 0.034988
0.140530 0.076201 0.034256
0.152067 0.076195 0.033400
0.163983 0.076133 0.032521
0.176014 0.076079 0.031642
0.188150 0.076023 0.030643
0.200313 0.075957 0.029550
0.212445 0.075861 0.028409
0.224567 0.075679 0.027054
0.236638 0.075433 0.025561
0.249450 0.075138 0.023942
0.262476 0.074802 0.022083
0.275746 0.074377 0.019779
0.289431 0.073818 0.016951
0.303265 0.073058 0.013502
0.317454 0.072354 0.010257
0.332286 0.071811 0.007758
0.347667 0.071443 0.006050
0.363386 0.071214 0.004994
0.379293 0.071116 0.004531
0.395218 0.071162 0.004756
0.410937 0.071335 0.005513
0.426303 0.071737 0.006624
0.441058 0.072357 0.008015
0.454979 0.073102 0.009639
0.468031 0.073947 0.011527
0.480352 0.074900 0.013510
0.491851 0.075941 0.015568
0.502309 0.076885 0.017652
0.512081 0.077871 0.019810
0.521294 0.078868 0.021886
0.530086 0.079956 0.023933
0.538451 0.081168 0.026074
0.546413 0.082451 0.028331
0.554024 0.083748 0.030541
0.561483 0.085169 0.032664
0.568709 0.086339 0.034956
0.575724 0.087141 0.037184
0.582523 0.087732 0.039281
0.589060 0.088167 0.041413
0.595717 0.088735 0.043663
0.602581 0.089684 0.045779
0.609105 0.090522 0.047875
0.615679 0.091792 0.050171
0.622316 0.093153 0.052598
0.629086 0.094703 0.055127
0.635993 0.096661 0.057953
0.643004 0.099198 0.060923
0.041503 0.073066 0.042091
0.045536 0.073367 0.042093
0.049199 0.073509 0.041599
0.051502 0.073847 0.041261
0.053554 0.074186 0.040969
0.055764 0.074598 0.040636
0.058129 0.075020 0.040286
0.061139 0.075496 0.039834
0.064930 0.075999 0.039378
0.069487 0.076525 0.038893
0.075199 0.077121 0.038521
0.081368 0.077759 0.038184
0.087958 0.078443 0.037922
0.095081 0.079050 0.037674
0.102992 0.079596 0.037347
0.111691 0.080077 0.036928
0.121089 0.080485 0.036393
0.131063 0.080814 0.035783
0.142000 0.081033 0.035136
0.153729 0.081168 0.034410
0.165827 0.081264 0.033643
0.178045 0.081333 0.032791
0.190324 0.081412 0.031799
0.202616 0.081477 0.030732
0.214952 0.081513 0.029659
0.227387 0.081493 0.028465
0.239696 0.081372 0.027003
0.252710 0.081267 0.025367
0.266002 0.081112 0.023446
0.279470 0.080791 0.021103
0.293170 0.080246 0.017980
0.307225 0.079656 0.014460
0.321718 0.079126 0.011281
0.336903 0.078743 0.008911
0.352556 0.078511 0.007296
0.368497 0.078499 0.006369
0.384683 0.078639 0.005986
0.400958 0.078915 0.006159
0.417002 0.079311 0.006977
0.432653 0.079893 0.008154
0.447639 0.080656 0.009608
0.461703 0.081590 0.011362
0.474863 0.082599 0.013320
0.487267 0.083703 0.015415
0.498804 0.084903 0.017589
0.509374 0.086065 0.019855
0.519120 0.087218 0.022098
0.528317 0.088381 0.024312
0.537068 0.089628 0.026562
0.545452 0.091050 0.028931
0.553362 0.092494 0.031272
0.560861 0.093961 0.033621
0.568189 0.095456 0.036013
0.575393 0.096848 0.038452
0.582267 0.097928 0.040756
0.588862 0.098732 0.043054
0.595499 0.099702 0.045465
0.602177 0.100626 0.047782
0.608787 0.101380 0.050000
0.615366 0.102467 0.052356
0.621818 0.103612 0.054709
0.628375 0.104845 0.057217
0.635137 0.106451 0.059991
0.641879 0.108564 0.062710
0.648775 0.111066 0.065734
0.042593 0.076995 0.042874
0.046686 0.077196 0.042786
0.049604 0.077334 0.042455
0.051574 0.077524 0.042197
0.053663 0.077887 0.041918
0.055708 0.078264 0.041642
0.058053 0.078725 0.041300
0.060631 0.079244 0.040929
0.064200 0.079806 0.040450
0.068357 0.080412 0.039955
0.073548 0.081058 0.039444
0.079668 0.081783 0.039037
0.086419 0.082554 0.038676
0.093897 0.083335 0.038386
0.102485 0.084047 0.038091
0.111737 0.084701 0.037737
0.121593 0.085301 0.037318
0.131865 0.085829 0.036836
0.143354 0.086215 0.036193
0.155386 0.086531 0.035477
0.167717 0.086802 0.034711
0.180198 0.087064 0.033954
0.192688 0.087317 0.033058
0.205178 0.087548 0.032073
0.217737 0.087742 0.030981
0.230376 0.087887 0.029757
0.242977 0.087944 0.028302
0.256215 0.087914 0.026685
0.269552 0.087720 0.024548
0.283134 0.087436 0.021911
0.297095 0.087065 0.018732
0.311417 0.086687 0.015255
0.326174 0.086386 0.012104
0.341687 0.086230 0.009896
0.357656 0.086240 0.008595
0.373933 0.086403 0.007841
0.390398 0.086701 0.007495
0.406955 0.087145 0.007687
0.423277 0.087708 0.008518
0.439170 0.088486 0.009816
0.454347 0.089433 0.011433
0.468596 0.090471 0.013287
0.481873 0.091646 0.015305
0.494317 0.092973 0.017452
0.505987 0.094440 0.019806
0.516585 0.095785 0.022226
0.526372 0.097042 0.024601
0.535558 0.098321 0.026918
0.544278 0.099767 0.029326
0.552589 0.101344 0.031825
0.560435 0.102885 0.034338
0.567884 0.104464 0.036833
0.575032 0.106030 0.039341
0.582043 0.107494 0.041831
0.588821 0.108805 0.044348
0.595362 0.109934 0.046853
0.601864 0.111003 0.049320
0.608508 0.112132 0.051801
0.615198 0.113224 0.054251
0.621628 0.114230 0.056584
0.628123 0.115432 0.059110
0.634704 0.116855 0.061773
0.641341 0.118778 0.064381
0.648142 0.120983 0.067362
0.654666 0.123108 0.070180
0.043893 0.081169 0.043832
0.047709 0.081342 0.043745
0.049742 0.081398 0.043526
0.051764 0.081568 0.043256
0.053749 0.081811 0.042942
0.055819 0.082186 0.042640
0.057947 0.082649 0.042347
0.060572 0.083202 0.041972
0.063514 0.083827 0.041558
0.067539 0.084510 0.041067
0.072131 0.085241 0.040544
0.077898 0.086037 0.040049
0.084615 0.086912 0.039646
0.092172 0.087847 0.039293
0.100889 0.088811 0.039005
0.110921 0.089678 0.038661
0.121543 0.090493 0.038269
0.132552 0.091222 0.037802
0.144461 0.091813 0.037235
0.156919 0.092320 0.036621
0.169614 0.092784 0.035982
0.182433 0.093215 0.035264
0.195260 0.093624 0.034343
0.208005 0.093972 0.033297
0.220831 0.094281 0.032262
0.233515 0.094416 0.030877
0.246116 0.094476 0.029281
0.259428 0.094509 0.027455
0.273044 0.094506 0.025296
0.286934 0.094390 0.022553
0.301134 0.094188 0.019276
0.315729 0.093985 0.015791
0.330719 0.093877 0.012859
