apps/capacitor-film-lab-ios/ios/App/App/Resources/CreativeLuts/filmtone-creative-pack-01-stone-rec709-safe.cube
TITLE "Filmtone Stone Rec.709 Safe"
# pack=creative-pack-01
# slug=filmtone-creative-pack-01-stone
# variant=rec709-safe
# bakerVersion=1.5.0-stone-palermo-signature
# generator=filmtone-rec709-safe-color-v1
LUT_3D_SIZE 9
DOMAIN_MIN 0.0 0.0 0.0
DOMAIN_MAX 1.0 1.0 1.0
0.000000 0.000000 0.000000
0.124938 0.000023 0.000019
0.220371 0.008626 0.006405
0.261494 0.021577 0.011792
0.295307 0.025580 0.000724
0.393423 0.019441 0.002054
0.476363 0.013917 0.010142
0.539696 0.019414 0.019271
0.609906 0.028421 0.027573
0.029253 0.078076 0.030205
0.068778 0.066059 0.036779
0.118103 0.067983 0.034215
0.207610 0.065889 0.026069
0.309784 0.060339 0.007876
0.429021 0.057398 0.006084
0.516514 0.062173 0.019996
0.576358 0.065514 0.034324
0.632769 0.077590 0.051168
0.045057 0.096585 0.047457
0.062740 0.097945 0.045798
0.114613 0.107553 0.041263
0.227335 0.115458 0.033820
0.343708 0.117865 0.014026
0.480909 0.128295 0.017654
0.573690 0.143631 0.038770
0.627893 0.156900 0.062395
0.679036 0.169947 0.084189
0.026870 0.163181 0.055580
0.045182 0.154259 0.051391
0.080429 0.161722 0.046218
0.199802 0.188817 0.037616
0.367984 0.215044 0.017514
0.525597 0.239024 0.026137
0.627777 0.257914 0.043930
0.687229 0.271751 0.070300
0.740972 0.284822 0.094820
0.021951 0.260749 0.076517
0.027257 0.244209 0.067561
0.048490 0.226789 0.054749
0.124346 0.247660 0.045834
0.315180 0.300350 0.022086
0.528283 0.356990 0.039652
0.646422 0.388102 0.065822
0.715730 0.405030 0.091202
0.783166 0.416519 0.107162
0.039034 0.388607 0.119205
0.040512 0.366694 0.104170
0.041109 0.323601 0.076547
0.080869 0.315316 0.058850
0.220085 0.352908 0.037155
0.451433 0.438330 0.049921
0.644621 0.510711 0.106097
0.729501 0.547132 0.148689
0.790462 0.558497 0.172075
0.086748 0.516080 0.198289
0.086071 0.502035 0.178283
0.077566 0.459382 0.134493
0.080442 0.417406 0.091604
0.181363 0.426577 0.070498
0.358089 0.483767 0.081110
0.592511 0.578355 0.159504
0.730660 0.642077 0.227054
0.800136 0.668271 0.269364
0.169095 0.625248 0.308419
0.173302 0.619209 0.287520
0.167171 0.594999 0.237884
0.150972 0.552059 0.173418
0.208391 0.533422 0.138945
0.349058 0.558441 0.150334
0.523545 0.617415 0.213720
0.705404 0.690580 0.286356
0.809923 0.740610 0.337337
0.274635 0.723623 0.428210
0.284750 0.727370 0.413072
0.288019 0.722444 0.376506
0.279180 0.700008 0.310687
0.308101 0.672426 0.255308
0.397240 0.670053 0.249607
0.514847 0.688275 0.271470
0.648472 0.719729 0.300347
0.790012 0.779169 0.362745
0.000000 0.000000 0.125000
0.122689 0.001239 0.122300
0.203590 0.014986 0.100307
0.243675 0.029316 0.061204
0.296867 0.031583 0.021633
0.406307 0.018713 0.003377
0.486858 0.013280 0.012093
0.554992 0.021442 0.021693
0.621366 0.033478 0.035360
0.037633 0.075509 0.069668
0.074449 0.074538 0.064052
0.124610 0.077066 0.059844
0.216857 0.075261 0.049845
0.319793 0.068636 0.032960
0.437823 0.059172 0.013179
0.525908 0.063237 0.025565
0.582402 0.065553 0.042505
0.637138 0.077937 0.061171
0.050035 0.105522 0.066198
0.078337 0.112971 0.074855
0.127352 0.121007 0.066440
0.236876 0.127674 0.058928
0.352493 0.127999 0.044905
0.485770 0.129220 0.032165
0.588634 0.141505 0.045959
0.644343 0.150452 0.066121
0.680117 0.164086 0.093631
0.034457 0.177186 0.077743
0.064253 0.187629 0.089026
0.104415 0.187892 0.080141
0.224560 0.210490 0.067246
0.382200 0.229075 0.047691
0.530358 0.240428 0.038262
0.642701 0.256976 0.047994
0.704309 0.269236 0.073174
0.743366 0.282779 0.102232
0.029378 0.284137 0.109153
0.051234 0.291877 0.116085
0.083055 0.268867 0.097120
0.166396 0.278511 0.079518
0.342513 0.322152 0.054807
0.542972 0.363116 0.046202
0.668538 0.386698 0.056599
0.735381 0.404157 0.084608
0.788800 0.417559 0.112769
0.054619 0.421489 0.166875
0.070429 0.419129 0.163058
0.083920 0.382753 0.131150
0.134042 0.352239 0.097398
0.257951 0.380128 0.069055
0.471753 0.452870 0.057855
0.668650 0.517647 0.090423
0.750722 0.548874 0.131421
0.793926 0.561967 0.179611
0.113590 0.546038 0.252698
0.125519 0.543877 0.239867
0.132578 0.515438 0.198547
0.144555 0.458990 0.138535
0.232024 0.454399 0.108689
0.383026 0.502505 0.100925
0.608526 0.590216 0.161304
0.747200 0.647074 0.213243
0.804208 0.672644 0.279190
0.199191 0.649099 0.354640
0.212864 0.649442 0.340661
0.221056 0.634424 0.299909
0.213590 0.590307 0.223937
0.257501 0.561636 0.177064
0.376386 0.580239 0.176969
0.544628 0.632737 0.231533
0.714226 0.698555 0.295790
0.816579 0.745942 0.346465
0.297086 0.741753 0.461161
0.311349 0.748803 0.449661
0.323384 0.747900 0.418238
0.321552 0.726551 0.356781
0.338560 0.694527 0.291115
0.412867 0.686060 0.270714
0.529687 0.703604 0.291014
0.659957 0.729396 0.314088
0.796450 0.785529 0.374016
0.000000 0.000000 0.250000
0.118106 0.004809 0.232186
0.184278 0.022683 0.172982
0.226569 0.037442 0.101583
0.303729 0.038705 0.063427
0.414083 0.014540 0.043493
0.496214 0.013729 0.041853
0.566513 0.023307 0.057971
0.630974 0.039475 0.081464
0.032693 0.074263 0.102589
0.073927 0.082491 0.099996
0.124890 0.085615 0.102196
0.222354 0.084408 0.095270
0.329470 0.078124 0.082828
0.448527 0.065197 0.068289
0.533915 0.058703 0.069483
0.587642 0.060497 0.080364
0.642043 0.075053 0.103982
0.045658 0.114135 0.103277
0.088963 0.128599 0.118229
0.141396 0.145616 0.123540
0.250262 0.152842 0.118613
0.367023 0.153559 0.110589
0.493610 0.148651 0.099699
0.591500 0.147752 0.098023
0.643724 0.154684 0.113064
0.686461 0.166551 0.134523
0.029050 0.193449 0.115079
0.077583 0.211858 0.133243
0.161435 0.227585 0.151292
0.258089 0.243507 0.131573
0.401183 0.256595 0.110828
0.539381 0.260253 0.094672
0.653767 0.265515 0.091154
0.728605 0.272488 0.103212
0.767802 0.284997 0.139368
0.035738 0.300131 0.147991
0.078988 0.317829 0.168613
0.181290 0.333785 0.190734
0.236768 0.325999 0.160086
0.381071 0.358514 0.135351
0.560992 0.384452 0.111178
0.685560 0.394875 0.094284
0.766622 0.407040 0.105264
0.819041 0.419590 0.133261
0.066985 0.439467 0.215269
0.108519 0.452698 0.230705
0.197671 0.459351 0.239738
0.235420 0.418637 0.191708
0.316014 0.427375 0.151781
0.505744 0.482636 0.131153
0.691754 0.530595 0.118060
0.782185 0.549269 0.135412
0.823013 0.562184 0.185878
0.137159 0.566469 0.308071
0.174818 0.578495 0.312615
0.231145 0.575884 0.301312
0.258227 0.533657 0.245302
0.295858 0.499635 0.184720
0.415926 0.531876 0.154186
0.628830 0.604721 0.162769
0.773611 0.651546 0.206072
0.834106 0.674067 0.272115
0.229579 0.669584 0.402516
0.258095 0.677083 0.398564
0.293054 0.674172 0.378958
0.311646 0.646175 0.328120
0.323069 0.604095 0.251864
0.404458 0.607143 0.222913
0.559611 0.650070 0.239664
0.728041 0.711051 0.313203
0.835780 0.754525 0.365074
0.323528 0.760751 0.497305
0.342920 0.770972 0.491916
0.366781 0.776136 0.473705
0.383153 0.762707 0.430521
0.388033 0.726280 0.358477
0.435255 0.707136 0.311280
0.536519 0.718491 0.309254
0.676168 0.746864 0.345274
0.807859 0.797120 0.401555
0.000070 0.000096 0.373942
0.110263 0.009849 0.330014
0.160833 0.030437 0.246677
0.211552 0.046141 0.169857
0.307192 0.041936 0.143046
0.422284 0.019248 0.127876
0.506036 0.015081 0.128226
0.576438 0.027159 0.142949
0.639629 0.045662 0.167901
0.015445 0.071820 0.173444
0.061280 0.084545 0.181757
0.118177 0.090375 0.183426
0.220278 0.091595 0.180391
0.333535 0.085752 0.168848
0.455563 0.073419 0.156095
0.545984 0.070725 0.159656
0.599528 0.072476 0.168822
0.654546 0.090235 0.193298
0.024412 0.121242 0.178432
0.066543 0.142162 0.190865
0.149058 0.167950 0.198817
0.252743 0.175222 0.209911
0.376708 0.175521 0.213561
0.507188 0.170772 0.207429
0.607978 0.164302 0.203008
0.661666 0.171316 0.213234
0.703408 0.185552 0.232062
0.023972 0.209458 0.193728
0.060226 0.230209 0.209800
0.203540 0.258259 0.234773
0.284546 0.293676 0.252063
0.414399 0.308239 0.255216
0.547684 0.308136 0.249352
0.652768 0.300851 0.235284
0.728515 0.299533 0.235624
0.774714 0.310302 0.257785
0.033860 0.321211 0.225156
0.074142 0.341596 0.243256
0.227227 0.368818 0.275789
0.326518 0.387649 0.303001
0.421694 0.407513 0.274788
0.581290 0.423631 0.234742
0.694165 0.424707 0.208340
0.782125 0.428200 0.207958
0.846444 0.433857 0.231133
0.067594 0.452221 0.278727
0.115825 0.468313 0.292232
0.251554 0.490249 0.320451
0.348298 0.506645 0.347545
0.395817 0.492917 0.305498
0.552703 0.531668 0.279015
0.708745 0.557049 0.238897
0.800942 0.559705 0.218505
0.864398 0.566182 0.246096
0.146430 0.577102 0.359320
0.196002 0.591932 0.366330
0.294346 0.605431 0.382912
0.376498 0.611998 0.395010
0.391235 0.570006 0.333201
0.477105 0.580970 0.286537
0.655697 0.632649 0.279546
0.794573 0.660170 0.272026
0.873089 0.674527 0.298968
0.245877 0.679751 0.444542
0.286160 0.690623 0.446873
0.345314 0.698778 0.450780
0.404754 0.697149 0.445470
0.422951 0.666217 0.389454
0.456557 0.642726 0.322940
0.574414 0.668251 0.291890
0.734206 0.716367 0.316305
0.858692 0.765477 0.400380
0.345208 0.774227 0.533508
0.370761 0.787422 0.535140
0.408043 0.798106 0.531505
0.446632 0.796298 0.514995
0.467795 0.770559 0.465325
0.478776 0.734212 0.390312
0.549344 0.732040 0.353945
0.672295 0.755226 0.351020
0.812585 0.803143 0.401934
0.001718 0.002642 0.471689
0.096871 0.015732 0.417514
0.134795 0.035651 0.332609
0.197502 0.044795 0.274339
0.307886 0.038357 0.264583
0.426587 0.012859 0.251779
0.514535 0.016244 0.248285
0.586000 0.031574 0.258497
0.648078 0.051611 0.277414
0.010136 0.064498 0.279509
0.044976 0.082192 0.291449
0.111102 0.090457 0.297121
0.220351 0.093989 0.297364
0.336789 0.092127 0.292886
0.463471 0.080379 0.286023
0.556635 0.078131 0.285727
0.610656 0.082103 0.286585
0.665192 0.100811 0.302820
0.012629 0.122152 0.292377
0.029631 0.145370 0.306523
0.124234 0.176185 0.323984
0.250948 0.186969 0.329904
0.376085 0.193007 0.334514
0.512646 0.187933 0.335243
0.616812 0.179630 0.333864
0.673788 0.185564 0.335491
0.715997 0.199772 0.343760
0.022219 0.228825 0.318868
0.035236 0.255961 0.336768
0.134431 0.292159 0.351639
0.305685 0.326299 0.347883
0.413859 0.336981 0.364005
0.554291 0.333835 0.380434
0.660806 0.324850 0.376302
0.739975 0.319158 0.374390
0.791264 0.325613 0.383222
0.033936 0.349502 0.346679
0.056741 0.369827 0.358249
0.193430 0.394957 0.370906
0.373261 0.425749 0.385506
0.459323 0.471038 0.405430
0.591345 0.483214 0.415738
0.690727 0.479178 0.414821
0.769992 0.471586 0.405631
0.836556 0.461441 0.400016
0.068984 0.476416 0.381689
0.096110 0.492700 0.388961
0.232401 0.515866 0.402349
0.391327 0.543725 0.432469
0.505355 0.563142 0.458260
0.597303 0.582718 0.431484
0.717256 0.589474 0.376171
0.800278 0.582234 0.338592
0.874041 0.578736 0.336180
0.144721 0.584950 0.432672
0.185993 0.600885 0.436393
0.293237 0.615842 0.444188
0.416597 0.632014 0.470890
0.511681 0.642644 0.496397
0.560145 0.637303 0.454212
0.683770 0.667899 0.432399
0.800584 0.673939 0.368350
0.885617 0.675684 0.347453
0.247393 0.685278 0.496246
0.291143 0.697463 0.497125
0.362275 0.707239 0.502244
0.450510 0.717946 0.520114
0.528619 0.726664 0.531116
0.550418 0.697557 0.474108
0.620649 0.703417 0.428617
0.746514 0.735045 0.423001
0.865336 0.765820 0.437845
0.357653 0.781963 0.569692
0.387269 0.795535 0.572739
0.431435 0.807663 0.576162
0.488527 0.815574 0.581802
0.546267 0.814975 0.576550
0.567751 0.784230 0.521851
0.593605 0.755834 0.454441
0.677251 0.766449 0.419076
0.810470 0.804765 0.435669
0.005898 0.006684 0.524923
0.081257 0.017378 0.476733
0.110283 0.030381 0.415382
0.187026 0.030561 0.386767
0.303155 0.020920 0.384051
0.435062 0.011621 0.381698
0.526585 0.022804 0.373329
0.595541 0.034571 0.375329
0.656394 0.056417 0.388942
0.009151 0.050846 0.386630
0.033533 0.076542 0.403354
0.104164 0.088945 0.414529
0.218135 0.093558 0.419602
0.340589 0.094630 0.420688
0.473408 0.088560 0.420065
0.568300 0.088234 0.413941
0.622010 0.091160 0.405526
0.674688 0.108185 0.414483
0.015508 0.118396 0.411450
0.028531 0.144806 0.426836
0.110080 0.179610 0.445315
0.257685 0.192279 0.453302
0.385403 0.202326 0.459019
0.518172 0.207208 0.462789
0.625397 0.197139 0.466101
0.685693 0.200123 0.460817
0.728907 0.215094 0.461218
0.026084 0.240514 0.451996
0.034971 0.269366 0.470842
0.076034 0.306906 0.486273
0.263919 0.334936 0.491040
0.421640 0.345333 0.493259
0.551632 0.352794 0.500609
0.663214 0.343814 0.505813
0.744860 0.336973 0.507196
0.800052 0.340059 0.508148
0.041483 0.381662 0.491731
0.048475 0.403598 0.501802
0.087994 0.432536 0.512626
0.239918 0.464438 0.520305
0.474000 0.496806 0.509447
0.590170 0.506141 0.520290
0.691497 0.500950 0.541904
0.771360 0.490824 0.539272
0.838402 0.475849 0.531862
0.078284 0.507081 0.506807
0.085033 0.525180 0.515539
0.158395 0.549813 0.525925
0.322435 0.573876 0.536678
0.533886 0.596952 0.535870
0.630806 0.629867 0.542384
0.713019 0.631046 0.558025
0.784516 0.622363 0.559327
0.852121 0.609668 0.546230
0.144961 0.606326 0.534901
0.168565 0.622702 0.541768
0.259138 0.640874 0.544796
0.406195 0.655803 0.553287
0.543405 0.671088 0.569359
0.640569 0.684015 0.583666
0.710039 0.699717 0.564335
0.802288 0.693938 0.492959
0.878312 0.685846 0.457542
0.242417 0.687806 0.569448
0.279268 0.702864 0.571610
0.346009 0.715622 0.569364
0.449043 0.725794 0.575309
0.558218 0.742224 0.595148
0.639506 0.756192 0.616809
0.676725 0.745754 0.579986
0.767435 0.762827 0.560032
0.864744 0.774720 0.542944
0.356932 0.786947 0.619980
0.387335 0.802259 0.620926
0.434864 0.814616 0.620397
0.502373 0.821842 0.624077
0.578208 0.830101 0.635952
0.640851 0.834776 0.643365
0.662309 0.803287 0.593927
0.708872 0.796018 0.548874
0.821489 0.820458 0.540661
0.009219 0.009515 0.576277
0.067916 0.017728 0.515126
0.092854 0.025672 0.473764
0.181012 0.023711 0.471102
0.296562 0.021082 0.477221
0.430125 0.018449 0.486028
0.537688 0.027454 0.487850
0.608388 0.044081 0.486449
0.665340 0.061539 0.492232
0.014578 0.037471 0.460905
0.033355 0.071231 0.483852
0.105558 0.092557 0.507390
0.222022 0.098501 0.518194
0.344205 0.100030 0.526148
0.478260 0.095950 0.533074
0.579917 0.096271 0.530522
0.636028 0.104392 0.517658
0.689182 0.126222 0.520505
0.026255 0.112292 0.493647
0.040608 0.147237 0.515192
0.100358 0.180673 0.546553
0.253973 0.195530 0.563200
0.388619 0.204784 0.572599
0.527743 0.208846 0.578724
0.633831 0.215247 0.582532
0.698910 0.218841 0.575525
0.742611 0.233000 0.569133
0.045894 0.245026 0.545563
0.057519 0.275822 0.568142
0.072453 0.310268 0.593619
0.227044 0.334394 0.606693
0.420137 0.342780 0.604844
0.562486 0.352733 0.609974
0.666779 0.361296 0.615407
0.749540 0.356291 0.621106
0.807744 0.355335 0.618680
0.050152 0.389211 0.606159
0.061070 0.412956 0.616949
0.072834 0.441278 0.626288
0.160210 0.474952 0.643684
0.361090 0.499846 0.642492
0.590506 0.506505 0.636869
0.690101 0.515656 0.642119
0.769753 0.505284 0.644656
0.838132 0.489608 0.641575
0.108106 0.518543 0.609093
0.117269 0.539553 0.621022
0.121831 0.566448 0.636078
0.189602 0.598441 0.655987
0.350514 0.621606 0.662127
0.614278 0.637536 0.640902
0.709138 0.641088 0.642261
0.780953 0.632437 0.659557
0.850592 0.619315 0.653969
0.170495 0.629276 0.635198
0.179332 0.646533 0.645531
0.198855 0.670629 0.659242
0.270329 0.691014 0.668708
0.416883 0.702031 0.667862
0.642119 0.709501 0.648511
0.732717 0.728065 0.636215
0.795169 0.725488 0.658569
0.860278 0.715411 0.663485
0.245409 0.705764 0.654299
0.277294 0.721598 0.663174
0.318405 0.740908 0.667821
0.401004 0.751490 0.664757
0.523437 0.761515 0.666019
0.651267 0.773214 0.673449
0.734389 0.785262 0.679469
0.791125 0.788828 0.660614
0.866555 0.789072 0.651346
0.351652 0.786676 0.685006
0.378845 0.806775 0.688790
0.420528 0.822433 0.684987
0.488516 0.829358 0.679414
0.575507 0.835272 0.682056
0.657207 0.844184 0.696162
0.718222 0.848981 0.710744
0.751140 0.830816 0.672878
0.839875 0.842528 0.651416
0.011947 0.012065 0.625883
0.054232 0.018113 0.553095
0.093450 0.025809 0.519583
0.180750 0.027679 0.529910
0.290280 0.028478 0.541369
0.420625 0.029470 0.555092
0.536411 0.032839 0.570287
0.619718 0.050275 0.578829
0.683110 0.084513 0.587760
0.018696 0.031518 0.511429
0.038975 0.064250 0.532533
0.108644 0.094347 0.563036
0.225856 0.102003 0.577308
0.338100 0.107685 0.589494
0.466169 0.104361 0.598659
0.574884 0.106438 0.610579
0.651324 0.122970 0.612957
0.706921 0.152232 0.614475
0.036296 0.106667 0.546432
0.053574 0.143972 0.565284
0.102970 0.183947 0.599501
0.262977 0.201783 0.632360
0.389096 0.212886 0.647207
0.524436 0.217127 0.658688
0.633251 0.222404 0.669548
0.712194 0.238848 0.672513
0.757582 0.254506 0.662275
0.067468 0.241915 0.592850
0.084705 0.273257 0.610174
0.099322 0.310246 0.639825
0.224729 0.333036 0.681404
0.414757 0.341551 0.693183
0.562247 0.351340 0.700733
0.670030 0.360213 0.707659
0.754297 0.371444 0.713725
0.815336 0.373315 0.711844
0.080363 0.380938 0.659396
0.087819 0.406573 0.678052
0.091759 0.440876 0.702198
0.149870 0.474451 0.727267
0.295110 0.498137 0.739282
0.540265 0.502881 0.729295
0.692180 0.509614 0.729204
0.769306 0.513723 0.730685
0.838355 0.504447 0.732311
0.109757 0.515812 0.684923
0.126188 0.538007 0.695569
0.139519 0.565810 0.708569
0.174498 0.599013 0.735416
0.258655 0.627247 0.759260
0.426556 0.641012 0.758564
0.686722 0.636443 0.743758
0.778499 0.637429 0.742793
0.848791 0.628437 0.743370
0.182658 0.629020 0.703360
0.200609 0.645504 0.712372
0.215110 0.667307 0.725428
0.238628 0.695037 0.749606
0.288132 0.715794 0.765891
0.437235 0.726039 0.765538
0.698837 0.728300 0.737082
0.790946 0.729903 0.736703
0.857126 0.721523 0.753144
0.273352 0.720344 0.728621
0.295555 0.734389 0.738488
0.316759 0.754104 0.752940
0.318387 0.778198 0.770237
0.340395 0.793446 0.777230
0.467582 0.799289 0.772455
0.709953 0.796812 0.742508
0.811330 0.809240 0.721138
0.868794 0.804502 0.747153
0.357615 0.797129 0.758575
0.380182 0.814262 0.770045
0.413381 0.835046 0.781833
0.432361 0.851580 0.784409
0.468911 0.856852 0.776782
0.580793 0.854677 0.766554
0.717622 0.856092 0.765266
0.794824 0.861719 0.776656
0.856016 0.861629 0.758550
0.013695 0.014686 0.662807
0.036609 0.019714 0.583124
0.087601 0.036743 0.573620
0.196672 0.038071 0.587661
0.303368 0.038520 0.601445
0.419589 0.036388 0.614706
0.531004 0.046195 0.631054
0.620446 0.059234 0.648535
0.697915 0.105995 0.670485
0.020092 0.031832 0.560071
0.035354 0.056781 0.577997
0.097009 0.102878 0.609449
0.232131 0.115619 0.629338
0.350138 0.118192 0.641121
0.463678 0.119971 0.652811
0.565803 0.122775 0.664366
0.651212 0.136801 0.680761
0.722168 0.175691 0.696244
0.041706 0.102401 0.590639
0.060132 0.144074 0.608268
0.095231 0.188922 0.635610
0.262275 0.216862 0.673427
0.399597 0.225097 0.689761
0.517600 0.233891 0.706163
0.620437 0.240063 0.721047
0.705849 0.251326 0.737668
0.770746 0.273534 0.744968
0.084060 0.241494 0.624452
0.103503 0.274026 0.638690
0.122020 0.310889 0.663826
0.231468 0.338120 0.714218
0.426419 0.344445 0.754364
0.566926 0.353582 0.768251
0.670969 0.362553 0.780042
0.752973 0.369412 0.789101
0.820129 0.381485 0.793916
0.108398 0.375056 0.688155
0.117397 0.400471 0.707579
0.127466 0.434862 0.732023
0.177064 0.470726 0.765021
0.305595 0.491652 0.801042
0.518557 0.494000 0.807355
0.690980 0.496768 0.804942
0.769151 0.500877 0.808760
0.839314 0.506847 0.813910
0.110503 0.510932 0.749927
0.126933 0.533280 0.759531
0.148551 0.562118 0.769930
0.181269 0.594856 0.791956
0.255918 0.622262 0.833195
0.337585 0.636387 0.847460
0.567720 0.629704 0.830769
0.773083 0.625393 0.820914
0.848057 0.627384 0.824167
0.181108 0.620808 0.760289
0.200219 0.638025 0.769083
0.225923 0.659501 0.777884
0.251405 0.686317 0.797474
0.292246 0.713432 0.835707
0.343239 0.728725 0.854361
0.498718 0.730554 0.851269
0.761549 0.720074 0.832425
0.854719 0.719555 0.832465
0.278408 0.714180 0.780105
0.293598 0.730130 0.791602
0.312882 0.749841 0.804943
0.342022 0.772235 0.823544
0.350720 0.794490 0.849298
0.364936 0.808257 0.863211
0.495309 0.810986 0.859833
0.763442 0.804241 0.823131
0.862372 0.803603 0.824207
0.359964 0.807416 0.820928
0.374857 0.821107 0.832359
0.395657 0.838120 0.846214
0.421480 0.856567 0.861078
0.408007 0.868761 0.868688
0.433597 0.873643 0.864950
0.614955 0.866226 0.846828
0.781220 0.865061 0.835644
0.862618 0.870214 0.837820
