apps/capacitor-film-lab-ios/ios/App/App/Resources/CreativeLuts/filmtone-creative-pack-01-palermo-green-density.cube
TITLE "Filmtone Palermo Green Density"
# pack=creative-pack-01
# slug=filmtone-creative-pack-01-palermo-green-density
# bakerVersion=1.1.0-palermo-reference
# sourceCube=/Volumes/SamsungPortableSSDX5001/filmtone/Palermo_Powergrade & LUTs/Palermo Standalone LUTs/LUT + Extras/Palermo + Colour Density + Green Density.cube
# sourceCubeTransform=cold-green-density-v1
LUT_3D_SIZE 9
DOMAIN_MIN 0.0 0.0 0.0
DOMAIN_MAX 1.0 1.0 1.0
0.032335 0.043598 0.051703
0.059414 0.043962 0.049137
0.103338 0.040208 0.040557
0.190915 0.025714 0.014811
0.293036 0.017036 0.004212
0.412318 0.006335 0.004455
0.502885 0.001557 0.004670
0.577600 0.001618 0.004855
0.637206 0.001655 0.004966
0.022851 0.061273 0.053155
0.048227 0.062126 0.048746
0.103415 0.053676 0.041236
0.198161 0.034708 0.015194
0.292642 0.017066 0.004212
0.414315 0.005998 0.004458
0.505774 0.001559 0.004678
0.580180 0.001620 0.004861
0.638539 0.001656 0.004968
0.003786 0.084693 0.049468
0.001478 0.085838 0.045438
0.066540 0.087297 0.045510
0.202494 0.075963 0.021628
0.310465 0.050351 0.004570
0.407510 0.014429 0.004517
0.496343 0.001551 0.004652
0.577227 0.001618 0.004854
0.639858 0.001657 0.004970
0.000000 0.122319 0.038094
0.000000 0.122272 0.036529
0.000000 0.119372 0.037064
0.087712 0.122235 0.041922
0.312042 0.125139 0.006012
0.454616 0.100810 0.006383
0.535495 0.046397 0.005048
0.576954 0.001618 0.004854
0.639814 0.001656 0.004969
0.000000 0.185662 0.033914
0.000000 0.182403 0.033937
0.000000 0.183755 0.033908
0.000000 0.136295 0.035396
0.120558 0.177217 0.034689
0.440944 0.216618 0.007787
0.586864 0.192888 0.011507
0.657349 0.134882 0.014190
0.690261 0.050177 0.009359
0.000000 0.268037 0.032951
0.000000 0.263249 0.033102
0.000000 0.263203 0.033118
0.000000 0.257418 0.033290
0.000000 0.160760 0.034346
0.179976 0.255804 0.010940
0.557019 0.326252 0.011671
0.688813 0.315512 0.018436
0.754975 0.266698 0.024166
0.000000 0.360738 0.027168
0.000000 0.356149 0.027645
0.000000 0.353955 0.027866
0.000000 0.354830 0.027781
0.000000 0.340237 0.029051
0.000000 0.214009 0.033987
0.254025 0.359029 0.007735
0.647817 0.447269 0.015997
0.770426 0.445510 0.024154
0.000000 0.446536 0.012872
0.000000 0.442654 0.013688
0.000000 0.439293 0.014403
0.000000 0.441379 0.013954
0.000000 0.435456 0.015219
0.000000 0.379705 0.024934
0.000000 0.284226 0.032245
0.331584 0.472657 0.010301
0.720754 0.565502 0.020050
0.000000 0.525856 0.004994
0.000000 0.522342 0.004765
0.000000 0.518261 0.004522
0.000000 0.518889 0.004552
0.000000 0.519227 0.004567
0.000000 0.512015 0.004191
0.000000 0.393486 0.023178
0.000000 0.360631 0.027055
0.415023 0.577119 0.014284
0.030831 0.044286 0.072365
0.057309 0.044918 0.072086
0.103814 0.042189 0.056753
0.196152 0.027654 0.025496
0.296798 0.016547 0.004218
0.414767 0.005906 0.004458
0.503719 0.001557 0.004672
0.576596 0.001618 0.004853
0.636761 0.001655 0.004965
0.022011 0.063447 0.069733
0.056506 0.071245 0.076742
0.112227 0.062018 0.059726
0.212548 0.039441 0.026075
0.304565 0.016893 0.004243
0.420353 0.004911 0.004465
0.509798 0.001563 0.004689
0.581413 0.001621 0.004864
0.639055 0.001656 0.004968
0.003278 0.086883 0.055151
0.019990 0.097448 0.072531
0.080494 0.100536 0.057296
0.217020 0.087308 0.032308
0.325133 0.058891 0.004703
0.419907 0.019139 0.004596
0.499751 0.001554 0.004661
0.579091 0.001620 0.004859
0.641807 0.001657 0.004972
0.000000 0.126881 0.040401
0.000000 0.132723 0.048263
0.000183 0.146106 0.044976
0.102104 0.135630 0.040973
0.330733 0.143590 0.006096
0.467674 0.113362 0.006877
0.546708 0.058735 0.005579
0.582802 0.001638 0.004867
0.642439 0.001658 0.004973
0.000000 0.192416 0.034052
0.000000 0.194813 0.036069
0.000000 0.192672 0.034023
0.000000 0.140927 0.035136
0.129403 0.185912 0.032046
0.452205 0.234213 0.008185
0.595812 0.211636 0.012213
0.663771 0.147677 0.014762
0.699803 0.066238 0.011902
0.000000 0.276522 0.032653
0.000000 0.275710 0.032999
0.000000 0.265689 0.033026
0.000000 0.264553 0.033064
0.000000 0.163742 0.034272
0.188207 0.262583 0.009693
0.563312 0.340582 0.011960
0.694630 0.332603 0.018860
0.761010 0.283667 0.024867
0.000000 0.369317 0.026218
0.000000 0.368012 0.026370
0.000000 0.358360 0.027423
0.000000 0.351331 0.028106
0.000000 0.340605 0.029017
0.000000 0.215674 0.033997
0.263118 0.367143 0.007883
0.653762 0.462059 0.016317
0.775531 0.463722 0.024378
0.000000 0.454423 0.011338
0.000000 0.453042 0.011605
0.000000 0.445339 0.013138
0.000000 0.437912 0.014703
0.000000 0.436331 0.015036
0.000000 0.383388 0.024478
0.000000 0.285975 0.032205
0.341084 0.480785 0.010546
0.725908 0.577315 0.020367
0.000237 0.533652 0.005481
0.000147 0.532178 0.005390
0.000000 0.525365 0.004947
0.000000 0.517876 0.004507
0.000000 0.516312 0.004416
0.000000 0.515621 0.004403
0.000000 0.399593 0.022369
0.000000 0.362518 0.026883
0.425031 0.584097 0.014615
0.024222 0.042117 0.113072
0.044406 0.043083 0.115710
0.098346 0.042089 0.108200
0.198335 0.028724 0.066196
0.306450 0.012025 0.030857
0.420858 0.001478 0.004434
0.507786 0.001561 0.004683
0.577815 0.001619 0.004856
0.637407 0.001655 0.004966
0.014701 0.059097 0.110879
0.045433 0.066778 0.122067
0.106758 0.065270 0.118655
0.214593 0.042567 0.072258
0.314492 0.012432 0.029398
0.428720 0.001486 0.004457
0.514870 0.001567 0.004702
0.583334 0.001623 0.004868
0.640890 0.001657 0.004971
0.001136 0.090288 0.095722
0.029394 0.105339 0.114180
0.104536 0.135311 0.144779
0.233652 0.112412 0.097296
0.349045 0.074789 0.048567
0.449034 0.023928 0.004863
0.518461 0.001571 0.004712
0.592363 0.001629 0.004886
0.651887 0.001662 0.004986
0.000000 0.132990 0.059375
0.000000 0.151232 0.071428
0.034560 0.194080 0.126001
0.166472 0.194755 0.085484
0.362904 0.177962 0.047455
0.493799 0.133589 0.016652
0.574612 0.083237 0.009308
0.610263 0.004164 0.004935
0.655199 0.001663 0.004990
0.000000 0.197393 0.037476
0.000000 0.211283 0.048555
0.000000 0.241264 0.085659
0.014326 0.265982 0.081300
0.206829 0.237391 0.018272
0.502824 0.286608 0.015227
0.620477 0.249435 0.016940
0.688478 0.184555 0.018107
0.727511 0.104864 0.018138
0.000000 0.281847 0.032663
0.000000 0.290271 0.037779
0.000000 0.303880 0.056650
0.000000 0.306827 0.050556
0.000000 0.200218 0.033744
0.228594 0.284110 0.007164
0.602910 0.389607 0.013830
0.718474 0.377017 0.021032
0.780623 0.320993 0.027256
0.000000 0.375056 0.025508
0.000000 0.380058 0.025634
0.000000 0.377755 0.032052
0.000000 0.368795 0.026856
0.000000 0.373690 0.025840
0.000000 0.218368 0.033987
0.282863 0.374699 0.008084
0.679559 0.498799 0.017704
0.794741 0.503320 0.026007
0.000000 0.460178 0.010237
0.000000 0.463416 0.009652
0.000000 0.459809 0.011249
0.000000 0.447042 0.012805
0.000000 0.447656 0.012655
0.000000 0.386227 0.024107
0.000000 0.287218 0.032199
0.355096 0.489004 0.010817
0.738552 0.594864 0.021121
0.000653 0.539881 0.005910
0.000788 0.542213 0.006063
0.000550 0.538715 0.005818
0.000000 0.528096 0.005131
0.000000 0.517724 0.004492
0.000000 0.527253 0.005069
0.000000 0.403460 0.021847
0.000000 0.363823 0.026796
0.435826 0.591688 0.014976
0.016085 0.033122 0.187053
0.028428 0.033339 0.192316
0.076365 0.033925 0.192304
0.189989 0.022419 0.168482
0.306242 0.009236 0.120975
0.422430 0.001501 0.076268
0.512635 0.001573 0.034107
0.584297 0.001624 0.006737
0.640819 0.001657 0.004971
0.008476 0.045713 0.186048
0.026063 0.049770 0.201184
0.084979 0.050726 0.206415
0.205987 0.038602 0.179759
0.314420 0.009337 0.123460
0.431436 0.001511 0.079655
0.519500 0.001580 0.036744
0.589480 0.001627 0.007853
0.645348 0.001659 0.004977
0.000717 0.081301 0.170615
0.009794 0.091464 0.188787
0.085484 0.126543 0.238141
0.219663 0.122491 0.232723
0.350893 0.080456 0.158752
0.454870 0.008912 0.089159
0.538072 0.001599 0.050478
0.604756 0.001639 0.015848
0.659273 0.001665 0.005093
0.000000 0.141332 0.136583
0.000000 0.159948 0.156703
0.047752 0.213547 0.211506
0.220631 0.279314 0.302458
0.401686 0.242018 0.210653
0.526866 0.172795 0.145495
0.597301 0.078415 0.067183
0.646807 0.009107 0.016521
0.687871 0.001690 0.006441
0.000000 0.210592 0.082342
0.000000 0.225124 0.096060
0.013676 0.283037 0.148144
0.113710 0.350834 0.253555
0.325402 0.339316 0.147504
0.538707 0.333920 0.112822
0.639998 0.269447 0.054411
0.705262 0.185956 0.036193
0.744750 0.099254 0.028672
0.000000 0.292679 0.049508
0.000000 0.304862 0.057396
0.000000 0.345321 0.104670
0.014738 0.399132 0.191437
0.045579 0.433495 0.174762
0.343951 0.379227 0.023504
0.650961 0.456105 0.033418
0.742389 0.408846 0.035243
0.800093 0.338492 0.038469
0.000000 0.379613 0.026255
0.000000 0.388268 0.030294
0.000000 0.419919 0.069013
0.000000 0.437036 0.127639
0.002913 0.442286 0.106233
0.001618 0.288675 0.031813
0.352038 0.417819 0.009173
0.725205 0.563228 0.024521
0.821145 0.546303 0.033204
0.000000 0.463984 0.009568
0.000000 0.470122 0.009183
0.000000 0.484696 0.035730
0.000166 0.497794 0.077348
0.000000 0.483651 0.052577
0.000000 0.481919 0.033801
0.000000 0.284533 0.032015
0.403262 0.505401 0.011415
0.776032 0.638996 0.023961
0.000921 0.543963 0.006186
0.001278 0.549456 0.006569
0.001471 0.551973 0.007732
0.002339 0.556711 0.025059
0.001262 0.547538 0.009692
0.001055 0.546157 0.006388
0.000000 0.473252 0.007962
0.000000 0.359403 0.027207
0.472423 0.599420 0.015300
0.005104 0.011053 0.283444
0.009098 0.010332 0.288109
0.055906 0.008698 0.289505
0.150385 0.001353 0.284109
0.297618 0.001441 0.277543
0.421614 0.001548 0.237911
0.512765 0.001612 0.187611
0.585144 0.001648 0.132786
0.642938 0.001668 0.080015
0.002526 0.020621 0.287299
0.007256 0.021528 0.299486
0.062383 0.023181 0.304611
0.165333 0.009712 0.294799
0.306010 0.001450 0.281116
0.431620 0.001559 0.243765
0.519693 0.001618 0.192172
0.590547 0.001652 0.136974
0.648053 0.001670 0.082297
0.000000 0.057808 0.284067
0.002237 0.062678 0.300714
0.057268 0.094670 0.338104
0.195693 0.094186 0.343572
0.342102 0.071925 0.328361
0.454901 0.003832 0.262949
0.541009 0.001637 0.216533
0.608444 0.001664 0.164788
0.662980 0.001676 0.102931
0.000000 0.124315 0.262643
0.000000 0.135000 0.281639
0.020023 0.190328 0.336855
0.208527 0.266545 0.414694
0.382781 0.260815 0.407242
0.531042 0.184535 0.344267
0.604875 0.084600 0.261800
0.657960 0.013143 0.192347
0.706768 0.006073 0.141045
0.000000 0.227112 0.219804
0.000000 0.241230 0.243603
0.012526 0.297701 0.309034
0.182375 0.377655 0.379850
0.373774 0.464781 0.506295
0.578576 0.414089 0.390429
0.675021 0.331098 0.312571
0.731076 0.216380 0.221909
0.765135 0.095669 0.146368
0.000000 0.311571 0.141193
0.000000 0.323247 0.156209
0.000000 0.370103 0.214362
0.040286 0.463601 0.312762
0.288662 0.540537 0.428839
0.494745 0.519514 0.300390
0.684806 0.520631 0.265006
0.761548 0.440890 0.170414
0.808859 0.326634 0.089920
0.000000 0.397407 0.074279
0.000000 0.405078 0.082350
0.000000 0.443572 0.135160
0.010152 0.504720 0.238256
0.040274 0.570396 0.371277
0.167006 0.606943 0.329449
0.498573 0.534510 0.044439
0.762906 0.615748 0.058924
0.837443 0.562775 0.053867
0.000000 0.471516 0.025286
0.000000 0.479679 0.034676
0.000915 0.512326 0.080235
0.003556 0.548588 0.176065
0.007781 0.572711 0.273723
0.022680 0.585202 0.223509
0.011930 0.395289 0.031028
0.491530 0.557749 0.016335
0.819489 0.688754 0.037889
0.001115 0.547216 0.006432
0.001561 0.553706 0.006991
0.003556 0.573069 0.026242
0.007633 0.604864 0.125285
0.008881 0.616117 0.194174
0.006804 0.594228 0.136616
0.009403 0.594510 0.092195
0.000000 0.365802 0.023851
0.536815 0.625295 0.016649
0.000000 0.001288 0.393781
0.000000 0.001288 0.398458
0.029400 0.001290 0.403529
0.108834 0.001321 0.406817
0.255092 0.001439 0.407712
0.416694 0.001589 0.406295
0.514170 0.001649 0.367350
0.586451 0.001673 0.318754
0.645218 0.001680 0.268224
0.000000 0.001288 0.394212
0.000000 0.001288 0.405768
0.036094 0.001291 0.411173
0.121325 0.001330 0.412492
0.267174 0.001452 0.413495
0.428564 0.001600 0.413123
0.521340 0.001653 0.371634
0.592033 0.001675 0.322970
0.650315 0.001680 0.271939
0.000000 0.014215 0.396126
0.000000 0.014324 0.407724
0.035612 0.050203 0.447163
0.146282 0.042957 0.454718
0.288118 0.010872 0.441908
0.450659 0.001622 0.437033
0.541413 0.001666 0.396416
0.611556 0.001680 0.351992
0.666391 0.001679 0.297128
0.000000 0.082544 0.396685
0.000000 0.086325 0.410541
0.011256 0.137089 0.465940
0.165267 0.210963 0.520831
0.359070 0.209187 0.529592
0.523839 0.177547 0.523619
0.603104 0.068354 0.459203
0.661664 0.012509 0.400518
0.710939 0.006141 0.346735
0.000000 0.209594 0.386427
0.000000 0.217439 0.402505
0.003186 0.265690 0.456945
0.057489 0.353769 0.520523
0.368685 0.438248 0.614141
0.560996 0.429283 0.589191
0.675013 0.344571 0.537431
0.734354 0.225414 0.464931
0.771238 0.106804 0.387699
0.000000 0.334332 0.343853
0.000000 0.345102 0.362722
0.000000 0.385314 0.416860
0.037244 0.476115 0.496475
0.352393 0.566814 0.561710
0.535714 0.639918 0.689906
0.703226 0.587879 0.566215
0.780835 0.503784 0.494285
0.829157 0.375134 0.404345
0.000000 0.424238 0.241212
0.000000 0.432139 0.257321
0.000000 0.470078 0.323633
0.015180 0.534157 0.404862
0.112821 0.638356 0.497317
0.453702 0.690404 0.595973
0.638670 0.671223 0.465871
0.779547 0.664794 0.439503
0.847050 0.596612 0.349733
0.000521 0.496359 0.139021
0.000912 0.503462 0.151871
0.002918 0.536768 0.207554
0.006279 0.578662 0.295532
0.034685 0.654774 0.432228
0.078664 0.714093 0.549229
0.345347 0.737061 0.487540
0.633682 0.666039 0.122653
0.843226 0.724890 0.195244
0.003441 0.560880 0.055759
0.004195 0.568214 0.067825
0.006759 0.595152 0.115773
0.011225 0.636033 0.206967
0.017618 0.675586 0.349508
0.026032 0.697297 0.453155
0.046619 0.709787 0.390932
0.030392 0.509755 0.049813
0.624487 0.676568 0.028635
0.000000 0.001290 0.498468
0.000000 0.001290 0.502722
0.009651 0.001292 0.507126
0.072535 0.001319 0.514202
0.209053 0.001427 0.515939
0.369840 0.001578 0.518472
0.508852 0.001667 0.520368
0.588166 0.001680 0.490392
0.647053 0.001674 0.448582
0.000000 0.001290 0.496837
0.000000 0.001290 0.506241
0.013124 0.001294 0.511899
0.081284 0.001325 0.518888
0.221240 0.001440 0.520277
0.382622 0.001590 0.523145
0.517146 0.001671 0.524625
0.593577 0.001680 0.493555
0.652159 0.001672 0.452424
0.000000 0.001290 0.497221
0.000000 0.001290 0.506177
0.020493 0.001635 0.529744
0.098697 0.001417 0.537493
0.238476 0.001460 0.532487
0.402562 0.001610 0.538368
0.539403 0.001678 0.545691
0.614186 0.001677 0.518307
0.668994 0.001662 0.475968
0.000000 0.020108 0.500717
0.000000 0.021523 0.510419
0.004465 0.063449 0.554377
0.115942 0.136935 0.619336
0.303802 0.131888 0.631781
0.473596 0.093924 0.627410
0.594070 0.036618 0.612281
0.664655 0.010995 0.576130
0.712243 0.004842 0.528529
0.000000 0.161527 0.526020
0.000000 0.167013 0.537416
0.000000 0.206473 0.575553
0.031612 0.290849 0.642240
0.320488 0.364047 0.688458
0.536134 0.361262 0.696851
0.669201 0.335299 0.697076
0.733393 0.217425 0.653442
0.770871 0.095390 0.590622
0.000000 0.313699 0.519194
0.000000 0.319728 0.531185
0.000000 0.355354 0.569479
0.020027 0.432185 0.632661
0.181547 0.533721 0.688353
0.511995 0.607080 0.795066
0.666905 0.594193 0.763715
0.775820 0.508729 0.696181
0.828326 0.381670 0.639216
0.000000 0.447730 0.474033
0.000000 0.455109 0.489230
0.001496 0.488508 0.539190
0.012746 0.542832 0.601993
0.076762 0.644686 0.674514
0.498084 0.706507 0.724948
0.633654 0.750445 0.818182
0.777991 0.703440 0.709188
0.855657 0.633781 0.639065
0.002826 0.528214 0.373532
0.003246 0.535131 0.390362
0.005218 0.564984 0.448212
0.008102 0.600883 0.512982
0.040822 0.676892 0.594347
0.279410 0.764321 0.651887
0.571913 0.796142 0.726129
0.727160 0.775032 0.605874
0.858474 0.766447 0.580683
0.006786 0.591037 0.250132
0.007381 0.598231 0.267906
0.009593 0.623864 0.320899
0.013981 0.662047 0.394624
0.023733 0.705274 0.479522
0.057710 0.771503 0.599312
0.127462 0.822268 0.687650
0.462579 0.831776 0.618307
0.718876 0.764062 0.295157
0.000000 0.001296 0.584161
0.000000 0.001296 0.587750
0.000211 0.001297 0.591473
0.045196 0.001319 0.596940
0.163191 0.001410 0.603090
0.313120 0.001553 0.607644
0.471205 0.001664 0.612882
0.581178 0.001677 0.612961
0.649290 0.001655 0.593068
0.000000 0.001296 0.582847
0.000000 0.001297 0.590058
0.001614 0.001298 0.594698
0.051741 0.001323 0.600768
0.174182 0.001421 0.606670
0.325564 0.001565 0.611457
0.481221 0.001668 0.616421
0.587885 0.001676 0.616310
0.654413 0.001652 0.596191
0.000000 0.001296 0.578232
0.000000 0.001296 0.584945
0.003549 0.001300 0.601348
0.071359 0.001338 0.611093
0.202776 0.001451 0.618336
0.360650 0.001598 0.626219
0.507704 0.001677 0.634832
0.611836 0.001666 0.637404
0.671836 0.001641 0.614935
0.000000 0.004259 0.585590
0.000000 0.004705 0.593133
0.000000 0.008040 0.618097
0.077148 0.042813 0.665106
0.240870 0.021631 0.674346
0.397516 0.003759 0.675844
0.548581 0.001925 0.681755
0.658930 0.005979 0.692418
0.711212 0.003566 0.661507
0.000000 0.076006 0.610216
0.000000 0.081512 0.619775
0.000000 0.115972 0.650838
0.023156 0.202530 0.715356
0.274266 0.274732 0.764728
0.486427 0.267223 0.777109
0.632911 0.231187 0.779593
0.726086 0.174460 0.775848
0.765881 0.063057 0.728207
0.000000 0.268276 0.643427
0.000000 0.273614 0.652828
0.000000 0.305436 0.680361
0.007580 0.360546 0.724836
0.075174 0.461588 0.782159
0.495031 0.527469 0.819539
0.667549 0.520009 0.826234
0.769754 0.488198 0.825988
0.826501 0.373440 0.793243
0.000139 0.426470 0.633821
0.000426 0.432561 0.644050
0.001799 0.463600 0.675024
0.004410 0.503951 0.715040
0.045664 0.595718 0.781618
0.372779 0.674993 0.816816
0.611587 0.715912 0.924674
0.741319 0.703343 0.894175
0.850879 0.634542 0.812021
0.004851 0.548023 0.599878
0.005297 0.553776 0.612767
0.007246 0.579304 0.651346
0.009917 0.610755 0.694188
0.034012 0.672746 0.751429
0.157027 0.766842 0.801368
0.599099 0.807463 0.842136
0.742856 0.834140 0.888303
0.849602 0.790715 0.814175
0.009393 0.618698 0.509038
0.009914 0.624773 0.524779
0.011871 0.646050 0.565952
0.015550 0.679048 0.621733
0.023586 0.716496 0.672449
0.064054 0.787809 0.735741
0.399117 0.854541 0.765242
0.647302 0.873397 0.808030
0.813650 0.856695 0.691337
0.000000 0.001304 0.650065
0.000000 0.001304 0.650947
0.000000 0.001304 0.652650
0.020801 0.001315 0.654482
0.118528 0.001386 0.660573
0.265536 0.001525 0.664678
0.430477 0.001653 0.667948
0.555351 0.001679 0.668023
0.644424 0.001647 0.664003
0.000000 0.001304 0.649503
0.000000 0.001304 0.651028
0.000000 0.001304 0.653196
0.025995 0.001318 0.655039
0.130580 0.001397 0.660939
0.278415 0.001537 0.664973
0.442756 0.001659 0.668131
0.563636 0.001678 0.667900
0.650565 0.001644 0.663506
0.000000 0.001304 0.651093
0.000000 0.001304 0.654464
0.000000 0.001306 0.663313
0.043096 0.001331 0.668219
0.168106 0.001435 0.675380
0.315374 0.001575 0.681554
0.475447 0.001673 0.686348
0.587460 0.001669 0.686161
0.668294 0.001634 0.683407
0.000000 0.001303 0.645345
0.000000 0.001304 0.650803
0.000000 0.001306 0.665801
0.038575 0.001332 0.687508
0.190210 0.001462 0.695256
0.334670 0.001596 0.703075
0.498159 0.001679 0.712344
0.615966 0.001653 0.718681
0.700972 0.001644 0.723849
0.000000 0.018436 0.667695
0.000000 0.019084 0.674745
0.000000 0.023070 0.690870
0.014666 0.086673 0.745147
0.216796 0.171617 0.802805
0.438092 0.150217 0.811858
0.582796 0.101998 0.810581
0.681402 0.047740 0.801095
0.757818 0.045741 0.797967
0.000000 0.200883 0.721545
0.000000 0.206253 0.729870
0.000000 0.228992 0.749990
0.004119 0.275987 0.785325
0.052362 0.371084 0.837123
0.450924 0.434398 0.869848
0.640470 0.427651 0.877755
0.745763 0.397496 0.878313
0.821595 0.344551 0.874608
0.000631 0.383995 0.738865
0.000902 0.389625 0.747270
0.001932 0.415648 0.769608
0.003771 0.456676 0.800849
0.024451 0.523060 0.845129
0.238093 0.620631 0.884462
0.625218 0.656416 0.908435
0.754463 0.648694 0.905830
0.846769 0.621841 0.901223
0.005441 0.530817 0.732939
0.005857 0.536079 0.742308
0.007464 0.558172 0.767859
0.009944 0.588842 0.801572
0.016372 0.623161 0.835021
0.077655 0.718727 0.890077
0.519763 0.775627 0.900933
0.698305 0.805130 0.980006
0.827181 0.790328 0.939597
0.011533 0.630762 0.702823
0.012081 0.636024 0.713674
0.013872 0.654311 0.740888
0.017372 0.685639 0.782490
0.023844 0.719191 0.822252
0.055359 0.780366 0.872100
0.291087 0.856564 0.896654
0.680661 0.880375 0.882523
0.840469 0.888005 0.888651
