apps/capacitor-film-lab-ios/ios/App/App/Resources/CreativeLuts/filmtone-creative-pack-01-stone-rec709-safe.cube
TITLE "Filmtone Stone Rec.709 Safe"
# pack=creative-pack-01
# slug=filmtone-creative-pack-01-stone
# variant=rec709-safe
# bakerVersion=1.5.0-stone-palermo-signature
# generator=filmtone-rec709-safe-color-v1
LUT_3D_SIZE 5
DOMAIN_MIN 0.0 0.0 0.0
DOMAIN_MAX 1.0 1.0 1.0
0.000000 0.000000 0.000000
0.220371 0.008626 0.006405
0.295307 0.025580 0.000724
0.476363 0.013917 0.010142
0.609906 0.028421 0.027573
0.045057 0.096585 0.047457
0.114613 0.107553 0.041263
0.343708 0.117865 0.014026
0.573690 0.143631 0.038770
0.679036 0.169947 0.084189
0.021951 0.260749 0.076517
0.048490 0.226789 0.054749
0.315180 0.300350 0.022086
0.646422 0.388102 0.065822
0.783166 0.416519 0.107162
0.086748 0.516080 0.198289
0.077566 0.459382 0.134493
0.181363 0.426577 0.070498
0.592511 0.578355 0.159504
0.800136 0.668271 0.269364
0.274635 0.723623 0.428210
0.288019 0.722444 0.376506
0.308101 0.672426 0.255308
0.514847 0.688275 0.271470
0.790012 0.779169 0.362745
0.000000 0.000000 0.250000
0.184278 0.022683 0.172982
0.303729 0.038705 0.063427
0.496214 0.013729 0.041853
0.630974 0.039475 0.081464
0.045658 0.114135 0.103277
0.141396 0.145616 0.123540
0.367023 0.153559 0.110589
0.591500 0.147752 0.098023
0.686461 0.166551 0.134523
0.035738 0.300131 0.147991
0.181290 0.333785 0.190734
0.381071 0.358514 0.135351
0.685560 0.394875 0.094284
0.819041 0.419590 0.133261
0.137159 0.566469 0.308071
0.231145 0.575884 0.301312
0.295858 0.499635 0.184720
0.628830 0.604721 0.162769
0.834106 0.674067 0.272115
0.323528 0.760751 0.497305
0.366781 0.776136 0.473705
0.388033 0.726280 0.358477
0.536519 0.718491 0.309254
0.807859 0.797120 0.401555
0.001718 0.002642 0.471689
0.134795 0.035651 0.332609
0.307886 0.038357 0.264583
0.514535 0.016244 0.248285
0.648078 0.051611 0.277414
0.012629 0.122152 0.292377
0.124234 0.176185 0.323984
0.376085 0.193007 0.334514
0.616812 0.179630 0.333864
0.715997 0.199772 0.343760
0.033936 0.349502 0.346679
0.193430 0.394957 0.370906
0.459323 0.471038 0.405430
0.690727 0.479178 0.414821
0.836556 0.461441 0.400016
0.144721 0.584950 0.432672
0.293237 0.615842 0.444188
0.511681 0.642644 0.496397
0.683770 0.667899 0.432399
0.885617 0.675684 0.347453
0.357653 0.781963 0.569692
0.431435 0.807663 0.576162
0.546267 0.814975 0.576550
0.593605 0.755834 0.454441
0.810470 0.804765 0.435669
0.009219 0.009515 0.576277
0.092854 0.025672 0.473764
0.296562 0.021082 0.477221
0.537688 0.027454 0.487850
0.665340 0.061539 0.492232
0.026255 0.112292 0.493647
0.100358 0.180673 0.546553
0.388619 0.204784 0.572599
0.633831 0.215247 0.582532
0.742611 0.233000 0.569133
0.050152 0.389211 0.606159
0.072834 0.441278 0.626288
0.361090 0.499846 0.642492
0.690101 0.515656 0.642119
0.838132 0.489608 0.641575
0.170495 0.629276 0.635198
0.198855 0.670629 0.659242
0.416883 0.702031 0.667862
0.732717 0.728065 0.636215
0.860278 0.715411 0.663485
0.351652 0.786676 0.685006
0.420528 0.822433 0.684987
0.575507 0.835272 0.682056
0.718222 0.848981 0.710744
0.839875 0.842528 0.651416
0.013695 0.014686 0.662807
0.087601 0.036743 0.573620
0.303368 0.038520 0.601445
0.531004 0.046195 0.631054
0.697915 0.105995 0.670485
0.041706 0.102401 0.590639
0.095231 0.188922 0.635610
0.399597 0.225097 0.689761
0.620437 0.240063 0.721047
0.770746 0.273534 0.744968
0.108398 0.375056 0.688155
0.127466 0.434862 0.732023
0.305595 0.491652 0.801042
0.690980 0.496768 0.804942
0.839314 0.506847 0.813910
0.181108 0.620808 0.760289
0.225923 0.659501 0.777884
0.292246 0.713432 0.835707
0.498718 0.730554 0.851269
0.854719 0.719555 0.832465
0.359964 0.807416 0.820928
0.395657 0.838120 0.846214
0.408007 0.868761 0.868688
0.614955 0.866226 0.846828
0.862618 0.870214 0.837820
