apps/capacitor-film-lab-ios/ios/App/App/Resources/CreativeLuts/filmtone-creative-pack-01-stone.cube
TITLE "Filmtone Stone"
# pack=creative-pack-01
# slug=filmtone-creative-pack-01-stone
# bakerVersion=1.3.0-filmtone-stone-urban
# generator=filmtone-stone-palermo-reference-v1
LUT_3D_SIZE 5
DOMAIN_MIN 0.0 0.0 0.0
DOMAIN_MAX 1.0 1.0 1.0
0.037062 0.039368 0.035905
0.123368 0.035340 0.025864
0.336401 0.014054 0.000000
0.556417 0.000000 0.000000
0.671629 0.000000 0.000000
0.002806 0.082567 0.030289
0.084877 0.089387 0.027817
0.363329 0.084520 0.000015
0.569050 0.011032 0.000000
0.682110 0.000000 0.000000
0.000000 0.209964 0.027100
0.000000 0.143267 0.024491
0.184924 0.227405 0.009522
0.656733 0.302617 0.009934
0.810620 0.266789 0.021088
0.000000 0.404700 0.015503
0.000000 0.330983 0.023209
0.000000 0.285466 0.025437
0.383139 0.479088 0.006699
0.832547 0.578592 0.020371
0.004898 0.573999 0.004913
0.003037 0.549859 0.003052
0.000000 0.432776 0.009949
0.000061 0.460090 0.002762
0.591531 0.693767 0.016998
0.026138 0.037369 0.100191
0.126176 0.036240 0.088853
0.358512 0.001129 0.038987
0.571027 0.000000 0.000076
0.679433 0.000000 0.000000
0.001887 0.090852 0.083619
0.121594 0.128370 0.111192
0.399944 0.107149 0.069307
0.610826 0.017853 0.003479
0.716451 0.000000 0.000000
0.000000 0.223865 0.040955
0.024842 0.299474 0.099428
0.297627 0.299199 0.028565
0.694682 0.344396 0.022812
0.838941 0.289769 0.031510
0.000000 0.413077 0.013931
0.000366 0.462898 0.045319
0.005997 0.311421 0.021424
0.453422 0.498238 0.007599
0.874784 0.623789 0.026444
0.005325 0.579110 0.005325
0.010666 0.624323 0.011215
0.001083 0.520912 0.001099
0.005188 0.456535 0.000061
0.647654 0.702586 0.017639
0.000000 0.000351 0.304280
0.094544 0.000015 0.299138
0.363458 0.000000 0.280430
0.577905 0.000000 0.232074
0.690585 0.000000 0.188159
0.000000 0.069825 0.305364
0.097588 0.127794 0.349065
0.405222 0.109209 0.332830
0.629507 0.010834 0.276616
0.754131 0.005219 0.244205
0.000000 0.254459 0.257465
0.026627 0.332891 0.329885
0.429799 0.453493 0.419594
0.735119 0.409689 0.353933
0.856107 0.270558 0.255314
0.000153 0.446937 0.140047
0.004028 0.501915 0.218723
0.285389 0.657801 0.389242
0.632639 0.621225 0.180865
0.898451 0.644297 0.084016
0.006897 0.588144 0.030579
0.016342 0.647959 0.110811
0.042542 0.727367 0.270954
0.045274 0.545388 0.024552
0.726741 0.738308 0.026551
0.000000 0.000000 0.519051
0.066394 0.000000 0.523262
0.332512 0.000000 0.516320
0.585378 0.000000 0.508553
0.699666 0.000000 0.483986
0.000000 0.005234 0.524224
0.084327 0.046555 0.568292
0.367287 0.010193 0.563729
0.636763 0.001740 0.562539
0.758419 0.002136 0.539742
0.000000 0.228458 0.555352
0.013428 0.304707 0.610544
0.428077 0.428183 0.670954
0.733669 0.411231 0.672999
0.859098 0.261921 0.630549
0.003296 0.489326 0.527047
0.006119 0.534463 0.578973
0.175341 0.674800 0.659236
0.722634 0.736303 0.690193
0.906508 0.685618 0.639994
0.013321 0.640940 0.418219
0.021317 0.693797 0.489021
0.044541 0.756802 0.561578
0.547845 0.859709 0.645563
0.816419 0.825452 0.470283
0.000000 0.000000 0.618662
0.047780 0.000000 0.623178
0.298340 0.000000 0.623774
0.571881 0.000000 0.620600
0.705785 0.000000 0.613779
0.000000 0.000000 0.621942
0.056045 0.000000 0.650813
0.329197 0.000000 0.656123
0.608922 0.000000 0.664729
0.755657 0.000000 0.670008
0.000000 0.153826 0.680186
0.011902 0.226825 0.729809
0.414862 0.338384 0.793606
0.723354 0.308049 0.803952
0.858930 0.226810 0.793591
0.005463 0.476890 0.717723
0.008362 0.524330 0.757412
0.070253 0.635019 0.822919
0.711879 0.700206 0.844739
0.902693 0.674128 0.843549
0.016632 0.659480 0.699718
0.023758 0.707759 0.749645
0.040024 0.760449 0.799558
0.482811 0.864408 0.834958
0.880629 0.881682 0.832166
