apps/capacitor-film-lab-ios/ios/App/App/Resources/CreativeLuts/filmtone-creative-pack-01-palermo-green-density.cube
TITLE "Filmtone Palermo Green Density"
# pack=creative-pack-01
# slug=filmtone-creative-pack-01-palermo-green-density
# bakerVersion=1.1.0-palermo-reference
# sourceCube=/Volumes/SamsungPortableSSDX5001/filmtone/Palermo_Powergrade & LUTs/Palermo Standalone LUTs/LUT + Extras/Palermo + Colour Density + Green Density.cube
# sourceCubeTransform=cold-green-density-v1
LUT_3D_SIZE 5
DOMAIN_MIN 0.0 0.0 0.0
DOMAIN_MAX 1.0 1.0 1.0
0.032335 0.043598 0.051703
0.103338 0.040208 0.040557
0.293036 0.017036 0.004212
0.502885 0.001557 0.004670
0.637206 0.001655 0.004966
0.003786 0.084693 0.049468
0.066540 0.087297 0.045510
0.310465 0.050351 0.004570
0.496343 0.001551 0.004652
0.639858 0.001657 0.004970
0.000000 0.185662 0.033914
0.000000 0.183755 0.033908
0.120558 0.177217 0.034689
0.586864 0.192888 0.011507
0.690261 0.050177 0.009359
0.000000 0.360738 0.027168
0.000000 0.353955 0.027866
0.000000 0.340237 0.029051
0.254025 0.359029 0.007735
0.770426 0.445510 0.024154
0.000000 0.525856 0.004994
0.000000 0.518261 0.004522
0.000000 0.519227 0.004567
0.000000 0.393486 0.023178
0.415023 0.577119 0.014284
0.024222 0.042117 0.113072
0.098346 0.042089 0.108200
0.306450 0.012025 0.030857
0.507786 0.001561 0.004683
0.637407 0.001655 0.004966
0.001136 0.090288 0.095722
0.104536 0.135311 0.144779
0.349045 0.074789 0.048567
0.518461 0.001571 0.004712
0.651887 0.001662 0.004986
0.000000 0.197393 0.037476
0.000000 0.241264 0.085659
0.206829 0.237391 0.018272
0.620477 0.249435 0.016940
0.727511 0.104864 0.018138
0.000000 0.375056 0.025508
0.000000 0.377755 0.032052
0.000000 0.373690 0.025840
0.282863 0.374699 0.008084
0.794741 0.503320 0.026007
0.000653 0.539881 0.005910
0.000550 0.538715 0.005818
0.000000 0.517724 0.004492
0.000000 0.403460 0.021847
0.435826 0.591688 0.014976
0.005104 0.011053 0.283444
0.055906 0.008698 0.289505
0.297618 0.001441 0.277543
0.512765 0.001612 0.187611
0.642938 0.001668 0.080015
0.000000 0.057808 0.284067
0.057268 0.094670 0.338104
0.342102 0.071925 0.328361
0.541009 0.001637 0.216533
0.662980 0.001676 0.102931
0.000000 0.227112 0.219804
0.012526 0.297701 0.309034
0.373774 0.464781 0.506295
0.675021 0.331098 0.312571
0.765135 0.095669 0.146368
0.000000 0.397407 0.074279
0.000000 0.443572 0.135160
0.040274 0.570396 0.371277
0.498573 0.534510 0.044439
0.837443 0.562775 0.053867
0.001115 0.547216 0.006432
0.003556 0.573069 0.026242
0.008881 0.616117 0.194174
0.009403 0.594510 0.092195
0.536815 0.625295 0.016649
0.000000 0.001290 0.498468
0.009651 0.001292 0.507126
0.209053 0.001427 0.515939
0.508852 0.001667 0.520368
0.647053 0.001674 0.448582
0.000000 0.001290 0.497221
0.020493 0.001635 0.529744
0.238476 0.001460 0.532487
0.539403 0.001678 0.545691
0.668994 0.001662 0.475968
0.000000 0.161527 0.526020
0.000000 0.206473 0.575553
0.320488 0.364047 0.688458
0.669201 0.335299 0.697076
0.770871 0.095390 0.590622
0.000000 0.447730 0.474033
0.001496 0.488508 0.539190
0.076762 0.644686 0.674514
0.633654 0.750445 0.818182
0.855657 0.633781 0.639065
0.006786 0.591037 0.250132
0.009593 0.623864 0.320899
0.023733 0.705274 0.479522
0.127462 0.822268 0.687650
0.718876 0.764062 0.295157
0.000000 0.001304 0.650065
0.000000 0.001304 0.652650
0.118528 0.001386 0.660573
0.430477 0.001653 0.667948
0.644424 0.001647 0.664003
0.000000 0.001304 0.651093
0.000000 0.001306 0.663313
0.168106 0.001435 0.675380
0.475447 0.001673 0.686348
0.668294 0.001634 0.683407
0.000000 0.018436 0.667695
0.000000 0.023070 0.690870
0.216796 0.171617 0.802805
0.582796 0.101998 0.810581
0.757818 0.045741 0.797967
0.000631 0.383995 0.738865
0.001932 0.415648 0.769608
0.024451 0.523060 0.845129
0.625218 0.656416 0.908435
0.846769 0.621841 0.901223
0.011533 0.630762 0.702823
0.013872 0.654311 0.740888
0.023844 0.719191 0.822252
0.291087 0.856564 0.896654
0.840469 0.888005 0.888651
