apps/capacitor-film-lab-ios/ios/App/App/Resources/CreativeLuts/filmtone-creative-pack-01-palermo-reference.cube
TITLE "Generated by Resolve"
LUT_3D_SIZE 9
0.0395361 0.0393683 0.0359045
0.0716869 0.0396429 0.0332189
0.125368 0.0353399 0.025864
0.216464 0.0211337 0.00523384
0.338399 0.0140536 0
0.464164 0.000289921 0
0.558236 0 0
0.634791 0 0
0.67306 0 0
0.0281071 0.0574807 0.0352026
0.0596017 0.0593729 0.032578
0.122789 0.0573739 0.0271305
0.226963 0.0440986 0.00891127
0.336126 0.0243534 0
0.450477 0.00148013 0
0.548394 0 0
0.631037 0 0
0.678035 0 0
0.00450141 0.0825666 0.0302892
0.0262303 0.0805982 0.0292821
0.0861372 0.0893873 0.0278172
0.225086 0.0928511 0.0156863
0.364096 0.0845197 1.5259e-05
0.493324 0.0596017 1.5259e-05
0.569375 0.0110323 0
0.630777 0 0
0.682155 0 0
0 0.131151 0.0243534
0.000198367 0.115785 0.0244144
0.0169223 0.11046 0.0252384
0.122194 0.142733 0.0256504
0.343175 0.169284 0.00125124
0.526482 0.170047 0.00332647
0.637781 0.147677 0.0065156
0.710765 0.114321 0.00972
0.749249 0.0698863 0.00842298
0 0.209964 0.0271
0 0.192325 0.0264591
0 0.143267 0.0244907
0.0101015 0.160418 0.0251164
0.184924 0.227405 0.00952163
0.477699 0.2878 0.00424201
0.656733 0.302617 0.00993362
0.752178 0.290684 0.0154726
0.81062 0.266789 0.021088
0 0.306279 0.0248264
0 0.297292 0.0252384
0 0.216938 0.0271611
0 0.203189 0.0268864
0.0121462 0.242115 0.0242008
0.281285 0.345235 0.00323491
0.599771 0.42208 0.00862135
0.755917 0.445869 0.0159152
0.839765 0.443763 0.022858
0 0.4047 0.0155032
0 0.404395 0.0155184
0 0.330983 0.023209
0 0.276249 0.0258793
0 0.285466 0.0254368
0.0182803 0.34551 0.005066
0.383139 0.479088 0.00669871
0.698039 0.559884 0.0138094
0.832547 0.578592 0.0203708
0 0.492622 0.000381476
6.10361e-05 0.497307 0.000228885
0 0.446342 0.00733959
0 0.370901 0.0196994
0 0.356588 0.0212253
0 0.374624 0.018967
0.029099 0.458289 0.00112917
0.49305 0.598978 0.0118563
0.768063 0.661524 0.0183566
0.00489815 0.573999 0.00491341
0.0056611 0.583047 0.0056611
0.00303655 0.549859 0.0030518
0 0.4692 0.00352483
0 0.432776 0.00994888
0 0.436988 0.0091249
6.10361e-05 0.46009 0.00276188
0.05243 0.565927 0.00854505
0.591531 0.693767 0.0169985
0.0376135 0.0398871 0.0564431
0.0706951 0.0405737 0.0546426
0.129961 0.0370336 0.044358
0.22858 0.0226749 0.022797
0.351781 0.00776684 0
0.472404 0 0
0.56318 0 0
0.637324 0 0
0.675517 0 0
0.0263218 0.0603647 0.0536355
0.0668193 0.0663767 0.0569619
0.132784 0.0647593 0.0480507
0.242481 0.0514534 0.0276188
0.353262 0.0266575 7.62951e-05
0.463584 0.0010071 0
0.558984 0 0
0.64062 0 0
0.68867 0 0
0.00430304 0.0871901 0.0419623
0.0505989 0.0993057 0.0547189
0.104936 0.103807 0.0454566
0.245243 0.105501 0.032517
0.382101 0.0927596 0.00399786
0.511818 0.070573 0.000366217
0.59202 0.02533 0
0.6448 0 0
0.694118 0 0
0 0.136568 0.0279393
0.00700389 0.159823 0.0423438
0.0414435 0.144656 0.0374456
0.160555 0.168093 0.0298314
0.379141 0.193591 0.00393683
0.547387 0.189151 0.00547799
0.654932 0.16701 0.00814832
0.729183 0.134661 0.0113985
0.770413 0.0946212 0.0124666
0 0.214023 0.0271305
0 0.236408 0.0344396
0.00386053 0.203433 0.0293278
0.0230869 0.185031 0.02533
0.225177 0.246098 0.00361639
0.517784 0.312795 0.00531014
0.677241 0.326955 0.0112001
0.768002 0.314214 0.0170748
0.827131 0.291325 0.0232242
0 0.310353 0.0246128
0 0.330694 0.0236667
0 0.301411 0.0259861
0.000198367 0.215442 0.0268254
0.0184482 0.237232 0.0236973
0.307668 0.348943 0.00343328
0.632471 0.446113 0.00996414
0.776043 0.474281 0.0172122
0.853391 0.467674 0.0244907
0 0.408118 0.0149386
0 0.426764 0.0111543
0 0.414069 0.0137331
0 0.30663 0.0248112
9.15541e-05 0.279454 0.0251774
0.0215915 0.334737 0.00468452
0.40885 0.480446 0.00683604
0.72163 0.575204 0.0149386
0.851698 0.598962 0.0219883
3.0518e-05 0.495521 0.000167849
0.000732433 0.515221 0.000747692
0.000671397 0.514244 0.000686656
0 0.429053 0.0106966
0 0.357061 0.0212253
0.000122072 0.365774 0.0190127
0.0334478 0.451392 0.0012665
0.516976 0.598703 0.0118715
0.785336 0.668864 0.0191196
0.00512703 0.576822 0.00514229
0.00689708 0.59704 0.00703441
0.00779736 0.604166 0.00796521
0.00259403 0.543664 0.00260929
0 0.451286 0.00646983
0 0.428885 0.0107271
0.000808728 0.452613 0.00129702
0.0663157 0.562219 0.00886549
0.613199 0.693324 0.016968
0.0281376 0.0373693 0.100191
0.0639353 0.038819 0.0995499
0.128176 0.0362402 0.0888533
0.233127 0.0225376 0.0652323
0.360479 0.00112917 0.0389868
0.480308 0 0.00793469
0.572732 0 7.62951e-05
0.644404 0 0
0.680705 0 0
0.0146792 0.0602426 0.0971389
0.0632639 0.069337 0.102129
0.131594 0.0679179 0.0972152
0.246799 0.0543832 0.0766155
0.366033 0.0262608 0.0451057
0.480247 0 0.00746166
0.577661 0 0.00102235
0.655299 0 1.5259e-05
0.698573 0 0
0.00344854 0.0908522 0.0836194
0.0489662 0.107774 0.0974136
0.124178 0.128344 0.111086
0.262119 0.126116 0.0956893
0.400549 0.107149 0.0693065
0.524956 0.0699321 0.0272221
0.611032 0.0178531 0.00347906
0.67541 0 0
0.716457 0 0
0 0.145327 0.0586099
0.00926223 0.172763 0.0768139
0.0885023 0.207904 0.1122
0.216388 0.211429 0.0861219
0.406882 0.219898 0.0618601
0.560357 0.200687 0.0317082
0.665873 0.166644 0.0216373
0.739193 0.123217 0.020737
0.779721 0.0794842 0.0173495
0 0.223865 0.0409552
0.000289921 0.250889 0.0588388
0.0248417 0.299474 0.0994278
0.0740978 0.262074 0.0714275
0.297627 0.299199 0.0285649
0.55964 0.348119 0.0195315
0.694682 0.344396 0.0228122
0.783261 0.321859 0.0270542
0.838941 0.289769 0.0315099
0 0.317082 0.0267796
0 0.342626 0.0397803
0.010544 0.390921 0.0760815
0.0189517 0.332723 0.0531472
0.0500496 0.293965 0.0259556
0.367987 0.389456 0.00680552
0.672007 0.485695 0.0161288
0.800198 0.503822 0.0238651
0.868193 0.481498 0.0306096
0 0.413077 0.0139315
0 0.432563 0.0138552
0.000366217 0.462898 0.0453193
0.00727855 0.437736 0.0386358
0.0059968 0.311421 0.0214237
0.0317082 0.344396 0.000610361
0.453422 0.498238 0.00759899
0.754955 0.604242 0.0173495
0.874784 0.623789 0.0264439
0.000106813 0.499962 0.000137331
0.00102235 0.519966 0.00103761
0.00260929 0.541863 0.00650034
0.00210575 0.52726 0.0105898
0 0.4 0.0161898
0.00383001 0.375509 0.0120394
0.0485847 0.4542 0.00242618
0.562234 0.613657 0.0127413
0.816938 0.691569 0.0210422
0.0053254 0.57911 0.0053254
0.00740063 0.601434 0.00758373
0.0106661 0.624323 0.0112154
0.0104829 0.622034 0.0116426
0.00108339 0.520912 0.00109865
0 0.43949 0.00852979
0.00518807 0.456535 6.10361e-05
0.11043 0.564248 0.00987259
0.647654 0.702586 0.0176394
0.0142061 0.0271611 0.194766
0.0519875 0.028336 0.192981
0.114809 0.0271305 0.186603
0.232029 0.0160678 0.165179
0.36199 3.0518e-05 0.136889
0.483757 0 0.10959
0.575906 0 0.0820478
0.647944 0 0.0567636
0.68603 0 0.0406348
0.00531014 0.0515145 0.194766
0.0451514 0.0617533 0.203647
0.12137 0.0622416 0.19913
0.243519 0.0503243 0.178332
0.368414 0.0224002 0.145251
0.488823 0 0.115343
0.585718 0 0.096849
0.662013 0 0.0745403
0.705547 0 0.0578775
0.000442512 0.0886854 0.175616
0.0217594 0.108949 0.193515
0.123629 0.139498 0.209323
0.262531 0.1364 0.207416
0.407904 0.114321 0.1832
0.534325 0.0719768 0.143816
0.624308 0.0134737 0.106279
0.70071 0.00402838 0.0892042
0.747845 0.00483711 0.0779126
0 0.153872 0.141192
0.0084535 0.182437 0.168734
0.0851606 0.22533 0.202762
0.25951 0.269581 0.241962
0.437049 0.271443 0.220188
0.589929 0.240513 0.181674
0.685863 0.178943 0.133364
0.750164 0.101381 0.0859236
0.790936 0.0509651 0.0646982
0 0.237613 0.107027
0.000335698 0.265003 0.131579
0.0281224 0.319982 0.17644
0.243946 0.373175 0.244984
0.379431 0.369512 0.182879
0.592721 0.385946 0.152636
0.710002 0.357809 0.0991836
0.79089 0.312078 0.0598917
0.840024 0.25182 0.0476539
0 0.333333 0.0709087
0 0.358404 0.0931563
0.0142214 0.410666 0.141497
0.0846571 0.486854 0.221942
0.218158 0.417136 0.140673
0.462791 0.460426 0.0597543
0.712001 0.527077 0.0426032
0.814954 0.514809 0.0426947
0.877668 0.474601 0.0449073
0 0.424643 0.035996
0 0.449454 0.0582284
0.0028687 0.481086 0.101564
0.0359808 0.556848 0.179995
0.0496223 0.48838 0.113085
0.146151 0.432593 0.0245823
0.533288 0.547662 0.0202487
0.792706 0.638575 0.0317998
0.893294 0.642069 0.037644
0.000213626 0.50428 0.000701915
0.002121 0.528847 0.0168307
0.00531014 0.557 0.0632334
0.0170443 0.600916 0.129366
0.0311742 0.579293 0.0990921
0.0188144 0.423011 0.00611887
0.113939 0.472343 0.00547799
0.609934 0.631922 0.0154269
0.853025 0.719158 0.0271153
0.00543221 0.580423 0.00543221
0.0077821 0.604303 0.00859083
0.0123598 0.632303 0.0231022
0.0195468 0.66212 0.077821
0.0215305 0.651179 0.0781262
0.00427253 0.498482 0.00149538
0.0159304 0.475242 0.000534066
0.208957 0.57557 0.0113222
0.687694 0.718914 0.0190738
0.00166323 0.000350958 0.30428
0.0390326 0.00030518 0.303944
0.0965438 1.5259e-05 0.299138
0.220645 0 0.291844
0.365362 0 0.28043
0.487648 0 0.257191
0.579477 0 0.232074
0.651972 0 0.206744
0.691691 0 0.188159
0.000381476 0.0229343 0.310307
0.0343481 0.0412604 0.322667
0.105547 0.0405585 0.322042
0.229664 0.0270695 0.30811
0.362799 0.000442512 0.284184
0.494301 0 0.266804
0.590814 0 0.250324
0.667247 0 0.230671
0.71194 0 0.210819
0 0.0698253 0.305364
0.0117342 0.0935988 0.327504
0.0985122 0.127794 0.349065
0.257984 0.12723 0.347555
0.405676 0.109209 0.33283
0.535286 0.0591897 0.303258
0.629618 0.0108339 0.276616
0.706737 0.0043946 0.260594
0.754131 0.00521859 0.244205
0 0.152026 0.28716
0.0043183 0.180194 0.313802
0.0369116 0.234028 0.347875
0.275746 0.290028 0.369955
0.434577 0.288472 0.375723
0.596139 0.252232 0.362814
0.694209 0.186831 0.327031
0.760113 0.109972 0.285557
0.803067 0.0653849 0.263355
0 0.254459 0.257465
0.000244144 0.279515 0.286122
0.026627 0.332891 0.329885
0.256397 0.392447 0.364599
0.435019 0.452384 0.414847
0.620569 0.447974 0.39086
0.735119 0.409689 0.353933
0.81265 0.351766 0.308446
0.856107 0.270558 0.255314
0 0.354421 0.202045
0 0.379583 0.235309
0.0135195 0.42916 0.286732
0.0783551 0.507851 0.344259
0.426215 0.566033 0.415183
0.563775 0.555261 0.348318
0.735149 0.572519 0.319493
0.824475 0.538949 0.266529
0.884703 0.480323 0.210681
0.00015259 0.446937 0.140047
0.00120546 0.47155 0.174258
0.00402838 0.501915 0.218723
0.0408026 0.579904 0.299947
0.285389 0.657801 0.389242
0.384085 0.583246 0.268925
0.632639 0.621225 0.180865
0.81445 0.662943 0.14847
0.898451 0.644297 0.0840162
0.0033875 0.524163 0.0820783
0.00527962 0.549584 0.116808
0.00740063 0.576196 0.1617
0.0224918 0.624659 0.237278
0.0749828 0.706111 0.348333
0.185687 0.638148 0.222919
0.326329 0.572854 0.0553902
0.678599 0.675212 0.0385595
0.884047 0.744717 0.0508431
0.00689708 0.588144 0.0305791
0.0106813 0.615885 0.0632639
0.0163424 0.647959 0.110811
0.0234684 0.680919 0.176822
0.0425422 0.727367 0.270954
0.062623 0.709163 0.223285
0.0452735 0.545388 0.0245518
0.30631 0.60029 0.0180514
0.726741 0.738308 0.0265507
0 0 0.419394
0.0197299 0 0.420294
0.0845808 0 0.42121
0.207141 0 0.417456
0.35555 0 0.412482
0.492958 0 0.402991
0.584268 0 0.381353
0.656168 0 0.358923
0.696498 0 0.345434
0 4.57771e-05 0.423682
0.0216678 0.00141909 0.434241
0.0872816 0.000488289 0.434409
0.206943 0 0.423163
0.353353 0 0.417502
0.499153 0 0.413382
0.596582 0 0.39968
0.671702 0 0.382727
0.71725 0 0.367849
0 0.0257267 0.424445
0.00805676 0.0587167 0.449073
0.0878767 0.102419 0.47628
0.247669 0.100511 0.479805
0.395438 0.078172 0.471305
0.532616 0.0313725 0.451835
0.633402 0.0037232 0.435828
0.710384 0.00331121 0.423056
0.757748 0.00418097 0.407523
0 0.122393 0.429374
0.000732433 0.15407 0.454582
0.0309148 0.216815 0.493599
0.257801 0.269795 0.521309
0.441291 0.269718 0.523781
0.594049 0.247486 0.518288
0.694072 0.177081 0.497063
0.761242 0.0972457 0.466148
0.805081 0.0587015 0.443076
0 0.249363 0.420005
0 0.274159 0.444373
0.0199741 0.331731 0.486137
0.145495 0.405158 0.521324
0.454948 0.462104 0.545129
0.614832 0.45948 0.550042
0.735607 0.418631 0.541192
0.814328 0.357931 0.513268
0.859037 0.272923 0.468208
0 0.372656 0.392004
0 0.395819 0.418509
0.0116426 0.440635 0.459251
0.0601816 0.518013 0.507073
0.424582 0.579767 0.536812
0.619715 0.625177 0.571771
0.744488 0.612818 0.551431
0.834195 0.574578 0.515389
0.89485 0.512383 0.470893
0.00178531 0.473808 0.336828
0.00294499 0.497185 0.372808
0.00485237 0.523339 0.411032
0.0391394 0.595071 0.472007
0.255787 0.67071 0.513466
0.591714 0.704784 0.565393
0.697887 0.692943 0.501991
0.827054 0.697276 0.474876
0.902541 0.66836 0.427115
0.00595102 0.553368 0.266148
0.00781262 0.577813 0.309911
0.00979629 0.601968 0.351034
0.0238193 0.644862 0.402548
0.0789197 0.723064 0.47335
0.452461 0.775189 0.535485
0.540505 0.708385 0.412772
0.737041 0.734798 0.340581
0.895247 0.769329 0.343404
0.0105592 0.612924 0.189197
0.0143282 0.64126 0.225055
0.0196078 0.672267 0.271687
0.0259403 0.701717 0.32697
0.0465858 0.746654 0.406989
0.111482 0.816419 0.497948
0.358068 0.753292 0.36466
0.473762 0.688701 0.139025
0.768734 0.76846 0.0673838
0 0 0.519051
0.00981155 0 0.520882
0.0683909 0 0.523262
0.191608 0 0.520409
0.334325 0 0.51632
0.4804 0 0.514778
0.586801 0 0.508553
0.65922 0 0.493355
0.700603 0 0.483986
0 0 0.516014
0.0144961 0 0.52401
0.075288 0 0.527138
0.196918 0 0.524834
0.341741 0 0.522988
0.492134 0 0.524727
0.60058 0 0.523064
0.675227 0 0.513298
0.72195 0 0.503548
0 0.00523384 0.524224
0.00328069 0.0126497 0.542214
0.0850843 0.0465553 0.568292
0.221607 0.0333257 0.571237
0.367605 0.010193 0.563729
0.520882 0.000946059 0.560922
0.636805 0.00173953 0.562539
0.712398 0.00181582 0.553063
0.758419 0.00213626 0.539742
0 0.0669566 0.537041
0.000488289 0.103609 0.559503
0.0276646 0.173129 0.601114
0.243809 0.223621 0.631601
0.429557 0.220462 0.638468
0.588342 0.195041 0.635645
0.69192 0.149554 0.625849
0.760174 0.0722667 0.605997
0.804059 0.0441749 0.584466
0 0.228458 0.555352
0 0.255207 0.574792
0.0134279 0.304707 0.610544
0.0811017 0.379004 0.647684
0.428077 0.428183 0.670954
0.617334 0.427909 0.67454
0.733669 0.411231 0.672999
0.81236 0.348745 0.659602
0.859098 0.261921 0.630549
0 0.365499 0.549477
0.000518807 0.391791 0.569787
0.00428778 0.427405 0.597025
0.0456397 0.508736 0.645975
0.327276 0.581796 0.672587
0.614954 0.620157 0.68751
0.736584 0.613779 0.684184
0.830213 0.574411 0.674113
0.893141 0.510979 0.652293
0.00329595 0.489326 0.527047
0.00451667 0.511086 0.552453
0.00611887 0.534463 0.578973
0.0354162 0.598856 0.627543
0.175341 0.6748 0.659236
0.576928 0.709438 0.669947
0.731411 0.734203 0.681102
0.832013 0.719265 0.669062
0.906508 0.685618 0.639994
0.00810254 0.576928 0.479942
0.00985733 0.598199 0.514122
0.0117342 0.619074 0.545678
0.0234836 0.656291 0.583627
0.0737774 0.729351 0.63093
0.435599 0.78233 0.643763
0.691081 0.80531 0.675395
0.787442 0.793561 0.622766
0.901656 0.79382 0.598886
0.0133211 0.64094 0.418219
0.0166171 0.66601 0.451743
0.0213169 0.693797 0.489021
0.026688 0.719188 0.521813
0.0445411 0.756802 0.561578
0.115801 0.828061 0.611902
0.547845 0.859709 0.645563
0.649744 0.802686 0.537179
0.816419 0.825452 0.470283
0 0 0.596719
0.0047303 0 0.597864
0.0574807 0 0.60119
0.169955 0 0.602396
0.306722 0 0.601617
0.460487 0 0.600763
0.576455 0 0.599161
0.661479 0 0.595895
0.705333 0 0.592126
0 0 0.594995
0.00563058 0 0.603693
0.0745708 0 0.608316
0.19263 0 0.610239
0.330282 0 0.611429
0.483833 0 0.612955
0.596445 0 0.613428
0.679301 0 0.611917
0.726406 0 0.607187
0 0 0.597314
0.000579843 3.0518e-05 0.614649
0.0656901 0.000427253 0.629175
0.202762 0 0.628443
0.339132 0 0.628397
0.49691 0 0.630167
0.617243 0 0.636759
0.709224 0.000183108 0.645304
0.757198 0.000701915 0.636316
0 0.0208743 0.612985
0 0.028748 0.629923
0.025803 0.111772 0.672633
0.234058 0.157977 0.705242
0.414694 0.146639 0.712779
0.568689 0.110994 0.712581
0.673014 0.0556802 0.704204
0.755749 0.0440223 0.701961
0.80354 0.033753 0.687861
0 0.187762 0.645716
0 0.215442 0.664576
0.0116579 0.259678 0.695521
0.0694743 0.335027 0.732891
0.421546 0.375601 0.757473
0.609751 0.373281 0.764828
0.728801 0.35462 0.76701
0.809216 0.31722 0.7626
0.858701 0.239826 0.744747
0.000961318 0.347143 0.661677
0.0018616 0.375357 0.680064
0.00292973 0.40293 0.698634
0.0340581 0.475074 0.740978
0.250156 0.553597 0.770611
0.598184 0.585092 0.786572
0.733639 0.578103 0.786831
0.827573 0.55819 0.78468
0.892668 0.497871 0.775921
0.00462348 0.48397 0.657588
0.00601205 0.508492 0.678141
0.00755322 0.532448 0.698924
0.0221714 0.577249 0.731594
0.0853437 0.658289 0.771481
0.501945 0.701854 0.782788
0.719432 0.720531 0.791318
0.82594 0.714137 0.788678
0.903288 0.681865 0.779553
0.010132 0.587594 0.642695
0.0117647 0.606043 0.663691
0.013611 0.625788 0.685588
0.0200504 0.652979 0.710933
0.0648508 0.724025 0.755764
0.356069 0.783734 0.770886
0.671458 0.807248 0.776913
0.817716 0.82208 0.781415
0.903151 0.804807 0.768246
0.0153353 0.655406 0.607309
0.0181735 0.678035 0.631418
0.0224765 0.704402 0.658778
0.0272221 0.727459 0.682643
0.0409552 0.75993 0.711986
0.102419 0.830076 0.749264
0.530159 0.864088 0.747311
0.752773 0.879637 0.771359
0.860304 0.871321 0.714473
0 0 0.618662
0.00209049 0 0.621241
0.0497444 0 0.623178
0.162753 0 0.624628
0.300038 0 0.623774
0.454917 0 0.622278
0.573144 0 0.6206
0.659983 0 0.617777
0.706554 0 0.613779
0 0 0.622827
0.0030518 0 0.632227
0.0665446 0 0.636545
0.193301 0 0.638941
0.325948 0 0.640635
0.480766 0 0.641611
0.594446 0 0.641459
0.677119 0 0.640925
0.727855 0 0.637613
0 0 0.621942
0.000137331 0 0.638895
0.0566415 0 0.650813
0.197192 0 0.652842
0.329397 0 0.656123
0.488457 0 0.660334
0.608927 0 0.664729
0.69958 0 0.671153
0.755657 0 0.670008
0 0.0134432 0.644297
0 0.0172274 0.66099
0.023331 0.0736553 0.696986
0.225193 0.115221 0.730877
0.407843 0.088304 0.73518
0.550134 0.0453346 0.731075
0.659373 0.019379 0.726101
0.746105 0.0252995 0.730678
0.803784 0.0315557 0.728054
0 0.153826 0.680186
0 0.181628 0.69894
0.011902 0.226825 0.729809
0.0695354 0.303059 0.768002
0.414862 0.338384 0.793606
0.607736 0.331029 0.801465
0.723354 0.308049 0.803952
0.802472 0.268132 0.800916
0.85893 0.22681 0.793591
0.00157168 0.327779 0.70837
0.00241093 0.353124 0.726238
0.00357061 0.381384 0.745037
0.0316014 0.446952 0.782712
0.239612 0.525734 0.813062
0.596643 0.550347 0.829236
0.73228 0.542016 0.831968
0.82443 0.521981 0.833326
0.892927 0.480995 0.832212
0.00546273 0.47689 0.717723
0.00689708 0.501122 0.73814
0.00836194 0.52433 0.757412
0.0151827 0.555611 0.780758
0.0702525 0.635019 0.822919
0.465751 0.684932 0.835767
0.711879 0.700206 0.844739
0.822385 0.694209 0.844862
0.902693 0.674128 0.843549
0.0110323 0.585138 0.715023
0.0126497 0.602838 0.735149
0.0145266 0.622644 0.75613
0.0166323 0.641382 0.775067
0.0475471 0.699626 0.813703
0.190295 0.775738 0.840848
0.631525 0.799786 0.843671
0.799893 0.811231 0.848753
0.89955 0.80177 0.844312
0.0166323 0.65948 0.699718
0.0194095 0.681636 0.722789
0.0237583 0.707759 0.749645
0.0285344 0.731228 0.773251
0.0400244 0.760449 0.799558
0.0935836 0.825788 0.836011
0.482811 0.864408 0.834958
0.740856 0.88043 0.835019
0.880629 0.881682 0.832166
