apps/capacitor-film-lab-ios/ios/App/App/Resources/CreativeLuts/filmtone-creative-pack-01-noir.cube
TITLE "Filmtone Noir"
# pack=creative-pack-01
# slug=filmtone-creative-pack-01-noir
# bakerVersion=1.4.0-stone-urban-distinct
# bakeMode=real
LUT_3D_SIZE 5
DOMAIN_MIN 0.0 0.0 0.0
DOMAIN_MAX 1.0 1.0 1.0
0.078958 0.088014 0.063941
0.078958 0.088014 0.063941
0.078958 0.088014 0.063941
0.078958 0.088014 0.063941
0.078958 0.088014 0.063941
0.078958 0.088014 0.063941
0.078958 0.088014 0.063941
0.095088 0.105365 0.073109
0.144360 0.154024 0.114385
0.205101 0.213162 0.165061
0.154535 0.177598 0.131664
0.217495 0.241381 0.186118
0.292728 0.315982 0.251499
0.378895 0.399674 0.327563
0.472341 0.488884 0.412312
0.395527 0.436839 0.357576
0.489572 0.526777 0.444459
0.582964 0.613740 0.533340
0.669597 0.693104 0.618939
0.744635 0.761445 0.695885
0.684182 0.723373 0.648159
0.756729 0.786733 0.721131
0.816192 0.838591 0.782418
0.863982 0.880404 0.832637
0.902275 0.914093 0.873553
0.078958 0.088014 0.063941
0.078958 0.088014 0.063941
0.078958 0.088014 0.063941
0.078958 0.088014 0.063941
0.078958 0.088014 0.063941
0.078958 0.088014 0.063941
0.078958 0.088014 0.063941
0.109764 0.120791 0.088464
0.162557 0.172882 0.133279
0.227224 0.235762 0.188079
0.173427 0.198014 0.152004
0.240345 0.265550 0.210729
0.319346 0.343527 0.280466
0.408358 0.429578 0.360322
0.502884 0.519444 0.447409
0.425351 0.467291 0.391427
0.519868 0.556840 0.479742
0.611825 0.641774 0.568051
0.695092 0.717639 0.650716
0.765942 0.781941 0.723367
0.708921 0.746227 0.678468
0.777198 0.805578 0.746932
0.832660 0.853826 0.803748
0.877143 0.892657 0.850127
0.910299 0.919434 0.887880
0.078958 0.088014 0.063941
0.078958 0.088014 0.063941
0.078958 0.088014 0.063941
0.078958 0.088014 0.063941
0.078958 0.088014 0.063941
0.078958 0.088014 0.063941
0.079931 0.091759 0.065603
0.125509 0.137329 0.105142
0.181988 0.192993 0.153751
0.250625 0.259630 0.212834
0.193574 0.219711 0.173995
0.264459 0.290939 0.237089
0.347016 0.372019 0.311047
0.438417 0.459947 0.394260
0.533110 0.549585 0.482708
0.455666 0.497963 0.426226
0.549971 0.586431 0.515113
0.639767 0.668738 0.601835
0.719275 0.740818 0.680905
0.785891 0.801086 0.749050
0.732299 0.767703 0.707064
0.796314 0.823134 0.770949
0.847980 0.867971 0.823506
0.889390 0.904052 0.866292
0.910299 0.919434 0.892995
0.078958 0.088014 0.063941
0.078958 0.088014 0.063941
0.078958 0.088014 0.063941
0.078958 0.088014 0.063941
0.085682 0.088442 0.066769
0.078958 0.088014 0.063941
0.093496 0.106192 0.080312
0.142383 0.155037 0.123252
0.202685 0.214381 0.175882
0.275274 0.284731 0.239338
0.214997 0.242687 0.197699
0.289795 0.317481 0.265179
0.375616 0.401315 0.343107
0.468886 0.490585 0.429126
0.563026 0.579318 0.518052
0.486089 0.528450 0.461495
0.579625 0.615318 0.550147
0.666622 0.694498 0.634381
0.742098 0.762616 0.709377
0.804517 0.818925 0.772953
0.754287 0.787811 0.733878
0.814124 0.839464 0.793237
0.862228 0.881106 0.841777
0.900796 0.914662 0.881230
0.910299 0.919434 0.892995
0.078958 0.088014 0.063941
0.078958 0.088014 0.063941
0.078958 0.088014 0.063941
0.078958 0.088014 0.063941
0.099670 0.102631 0.081578
0.078958 0.088014 0.063941
0.108056 0.121678 0.096288
0.160443 0.173963 0.142891
0.224664 0.237051 0.199729
0.301120 0.311003 0.267567
0.237703 0.266925 0.223149
0.316288 0.345082 0.294933
0.405001 0.431250 0.376460
0.499398 0.521120 0.464463
0.592370 0.608404 0.553045
0.516400 0.558494 0.496860
0.608588 0.643297 0.584451
0.692258 0.718959 0.665450
0.763544 0.783037 0.736068
0.821873 0.835519 0.795135
0.774886 0.806584 0.758900
0.830696 0.854637 0.813883
0.875482 0.893310 0.858658
0.910299 0.919434 0.892995
0.910299 0.919434 0.892995
