apps/capacitor-film-lab-ios/ios/App/App/Resources/CreativeLuts/filmtone-creative-pack-01-urban-density.cube
TITLE "Filmtone Urban Density"
# pack=creative-pack-01
# slug=filmtone-creative-pack-01-urban-density
# bakerVersion=1.2.0-filmtone-urban-density
# generator=filmtone-urban-density-v1
LUT_3D_SIZE 65
DOMAIN_MIN 0.0 0.0 0.0
DOMAIN_MAX 1.0 1.0 1.0
0.021754 0.023211 0.022629
0.023728 0.023439 0.022680
0.025893 0.023787 0.022862
0.028515 0.024164 0.022991
0.031839 0.024599 0.023012
0.036745 0.025064 0.022946
0.043173 0.025633 0.022923
0.050872 0.026280 0.022959
0.059664 0.026965 0.023020
0.069122 0.027688 0.023124
0.078823 0.028459 0.023311
0.088560 0.029222 0.023596
0.098051 0.029954 0.023876
0.107092 0.030586 0.024089
0.115934 0.030952 0.023998
0.124227 0.031207 0.023772
0.132871 0.031274 0.023426
0.142200 0.031070 0.022756
0.152154 0.030645 0.021790
0.162519 0.030002 0.020508
0.172897 0.029226 0.018959
0.183280 0.028234 0.016964
0.193574 0.026952 0.014805
0.203689 0.025413 0.013487
0.213626 0.023766 0.012085
0.223492 0.022353 0.010570
0.233567 0.021689 0.009057
0.244030 0.021281 0.007827
0.254882 0.021017 0.007222
0.266080 0.020741 0.007153
0.277454 0.020461 0.007283
0.289269 0.020201 0.007437
0.303415 0.019945 0.007598
0.317768 0.019716 0.007763
0.332127 0.019513 0.007931
0.346918 0.019139 0.008091
0.361896 0.018702 0.008249
0.376716 0.018276 0.008406
0.391862 0.017610 0.008550
0.407437 0.016644 0.008677
0.423104 0.015521 0.008793
0.438459 0.014417 0.008907
0.452318 0.013664 0.009027
0.464190 0.013426 0.009160
0.474604 0.013541 0.009301
0.484485 0.013743 0.009442
0.494184 0.013951 0.009581
0.503789 0.014161 0.009722
0.513341 0.014375 0.009869
0.522762 0.014593 0.010019
0.532094 0.014816 0.010175
0.541294 0.015043 0.010337
0.550299 0.015274 0.010505
0.559223 0.015512 0.010680
0.568038 0.015757 0.010863
0.576818 0.016012 0.011056
0.585448 0.016274 0.011257
0.593953 0.016544 0.011468
0.602368 0.016824 0.011688
0.610768 0.017116 0.011922
0.619201 0.017423 0.012171
0.627649 0.017745 0.012434
0.636141 0.018085 0.012715
0.644678 0.018442 0.013013
0.653071 0.018809 0.013323
0.022386 0.025610 0.024129
0.024560 0.026104 0.024094
0.027507 0.026420 0.024484
0.030816 0.026879 0.024915
0.034989 0.027455 0.025305
0.041086 0.028109 0.025602
0.048789 0.028904 0.025837
0.057825 0.029809 0.026031
0.068044 0.030691 0.026177
0.078941 0.031556 0.026330
0.089985 0.032426 0.026534
0.100922 0.033238 0.026812
0.111426 0.033959 0.027053
0.121289 0.034523 0.027156
0.130687 0.034759 0.026902
0.139257 0.034830 0.026505
0.148101 0.034681 0.025945
0.157516 0.034229 0.025020
0.167422 0.033514 0.023773
0.177594 0.032558 0.022191
0.187543 0.031483 0.020325
0.197357 0.030175 0.017987
0.207238 0.028589 0.015489
0.217235 0.026827 0.014036
0.227423 0.025027 0.012508
0.237751 0.023396 0.010884
0.248292 0.022709 0.009282
0.259169 0.022283 0.008051
0.270422 0.021973 0.007473
0.281949 0.021661 0.007423
0.293652 0.021355 0.007556
0.306035 0.021062 0.007714
0.320634 0.020774 0.007878
0.335294 0.020524 0.008046
0.349921 0.020270 0.008213
0.364850 0.019840 0.008371
0.379791 0.019332 0.008523
0.394392 0.018863 0.008674
0.409483 0.018105 0.008810
0.425084 0.017040 0.008930
0.440814 0.015835 0.009041
0.456063 0.014702 0.009151
0.469660 0.013965 0.009270
0.481173 0.013773 0.009402
0.491365 0.013900 0.009541
0.501097 0.014102 0.009682
0.510662 0.014315 0.009827
0.520200 0.014533 0.009978
0.529699 0.014758 0.010135
0.539115 0.014988 0.010298
0.548442 0.015225 0.010469
0.557685 0.015470 0.010649
0.566779 0.015721 0.010836
0.575819 0.015983 0.011033
0.584776 0.016253 0.011241
0.593730 0.016537 0.011462
0.602574 0.016831 0.011694
0.611311 0.017135 0.011938
0.619984 0.017452 0.012194
0.628704 0.017787 0.012468
0.637474 0.018139 0.012761
0.646300 0.018512 0.013072
0.655187 0.018904 0.013404
0.664136 0.019319 0.013757
0.672831 0.019739 0.014118
0.023713 0.029161 0.026453
0.024467 0.030342 0.027062
0.029224 0.031091 0.027139
0.033774 0.031733 0.027724
0.038451 0.032579 0.028376
0.044680 0.033480 0.028939
0.053341 0.034274 0.029296
0.064127 0.035022 0.029528
0.076504 0.035675 0.029657
0.089392 0.036307 0.029773
0.101899 0.036921 0.029955
0.113768 0.037427 0.030189
0.124867 0.038025 0.030288
0.135117 0.038408 0.030209
0.144571 0.038412 0.029724
0.152968 0.038216 0.029078
0.161498 0.037773 0.028238
0.170494 0.036980 0.027023
0.179845 0.035944 0.025488
0.189720 0.034736 0.023654
0.199656 0.033474 0.021588
0.209849 0.032010 0.019045
0.220167 0.030320 0.016261
0.230639 0.028431 0.014711
0.241298 0.026504 0.013082
0.252084 0.024629 0.011354
0.263055 0.023829 0.009651
0.274322 0.023366 0.008342
0.285912 0.023016 0.007746
0.297763 0.022665 0.007697
0.309775 0.022318 0.007831
0.322412 0.021968 0.007988
0.337035 0.021637 0.008150
0.351625 0.021321 0.008312
0.366119 0.021013 0.008473
0.380956 0.020520 0.008626
0.395767 0.019970 0.008773
0.410380 0.019446 0.008920
0.425496 0.018618 0.009051
0.441210 0.017478 0.009167
0.457075 0.016217 0.009276
0.472431 0.015033 0.009384
0.486005 0.014291 0.009501
0.497428 0.014116 0.009635
0.507567 0.014245 0.009780
0.517258 0.014465 0.009930
0.526853 0.014690 0.010087
0.536435 0.014922 0.010251
0.546024 0.015163 0.010424
0.555542 0.015413 0.010606
0.565019 0.015672 0.010799
0.574449 0.015942 0.011002
0.583742 0.016221 0.011216
0.593014 0.016514 0.011444
0.602252 0.016820 0.011685
0.611498 0.017142 0.011943
0.620638 0.017477 0.012214
0.629715 0.017826 0.012501
0.638783 0.018193 0.012806
0.647919 0.018582 0.013131
0.657126 0.018993 0.013479
0.666412 0.019427 0.013850
0.675792 0.019886 0.014246
0.685283 0.020372 0.014667
0.694215 0.020849 0.015083
0.026009 0.034350 0.029796
0.026912 0.035937 0.030639
0.029365 0.037386 0.031636
0.036000 0.038139 0.031302
0.042416 0.038820 0.031786
0.048594 0.039959 0.032520
0.055544 0.041016 0.033084
0.065197 0.041835 0.033393
0.077618 0.042374 0.033421
0.091832 0.042696 0.033317
0.106648 0.042905 0.033194
0.121197 0.042989 0.033098
0.134566 0.042973 0.032942
0.146203 0.042761 0.032603
0.156042 0.042190 0.031912
0.164265 0.041432 0.031053
0.172620 0.040457 0.030089
0.181713 0.039364 0.028743
0.191477 0.038218 0.027078
0.201788 0.036887 0.025108
0.212197 0.035509 0.022871
0.222810 0.033944 0.020154
0.233598 0.032114 0.017157
0.244542 0.030078 0.015409
0.255675 0.028030 0.013675
0.266920 0.026027 0.011838
0.278333 0.024993 0.010020
0.289869 0.024477 0.008660
0.301548 0.024079 0.008031
0.313336 0.023653 0.007967
0.325141 0.023238 0.008094
0.337642 0.022825 0.008245
0.352175 0.022436 0.008401
0.366690 0.022070 0.008559
0.381138 0.021707 0.008715
0.395960 0.021167 0.008864
0.410794 0.020572 0.009009
0.425397 0.020019 0.009153
0.440653 0.019136 0.009282
0.456548 0.017944 0.009396
0.472673 0.016621 0.009504
0.488245 0.015401 0.009612
0.501965 0.014643 0.009734
0.513479 0.014465 0.009877
0.523666 0.014614 0.010034
0.533429 0.014848 0.010198
0.543177 0.015090 0.010372
0.552923 0.015343 0.010555
0.562688 0.015607 0.010750
0.572453 0.015884 0.010958
0.582187 0.016174 0.011180
0.591892 0.016478 0.011415
0.601510 0.016795 0.011665
0.611128 0.017129 0.011932
0.620754 0.017481 0.012218
0.630401 0.017854 0.012524
0.639978 0.018243 0.012847
0.649526 0.018652 0.013190
0.659080 0.019082 0.013555
0.668722 0.019538 0.013945
0.678417 0.020019 0.014360
0.688015 0.020516 0.014792
0.697541 0.021030 0.015242
0.707009 0.021562 0.015710
0.715847 0.022077 0.016165
0.028745 0.040828 0.033563
0.029644 0.042661 0.034538
0.030566 0.044449 0.035400
0.035674 0.045643 0.036216
0.044077 0.046089 0.035347
0.052478 0.046702 0.035658
0.060034 0.047830 0.036280
0.067279 0.048894 0.036788
0.075868 0.049548 0.036934
0.087555 0.049797 0.036789
0.101260 0.049703 0.036507
0.116002 0.049324 0.036119
0.130864 0.048799 0.035607
0.145101 0.048149 0.034928
0.158237 0.047215 0.033945
0.169736 0.046150 0.032854
0.180781 0.044949 0.031654
0.191775 0.043524 0.030211
0.202890 0.041848 0.028497
0.214131 0.040012 0.026451
0.225108 0.038210 0.024123
0.236196 0.036240 0.021269
0.247493 0.033952 0.018113
0.258909 0.031788 0.016126
0.270377 0.029589 0.014278
0.281844 0.027406 0.012309
0.293210 0.026116 0.010384
0.304612 0.025528 0.008948
0.316146 0.025059 0.008285
0.327795 0.024568 0.008217
0.339484 0.024094 0.008339
0.351962 0.023627 0.008486
0.366501 0.023190 0.008639
0.381036 0.022780 0.008793
0.395459 0.022390 0.008948
0.410432 0.021799 0.009095
0.425393 0.021166 0.009238
0.440110 0.020580 0.009382
0.455659 0.019647 0.009511
0.471859 0.018408 0.009625
0.488384 0.017026 0.009733
0.504310 0.015769 0.009848
0.518242 0.015015 0.009985
0.529943 0.014853 0.010145
0.540315 0.015018 0.010320
0.550297 0.015274 0.010505
0.560295 0.015541 0.010701
0.570320 0.015822 0.010912
0.580393 0.016119 0.011138
0.590489 0.016433 0.011380
0.600588 0.016764 0.011641
0.610672 0.017112 0.011919
0.620716 0.017480 0.012217
0.630779 0.017869 0.012536
0.640875 0.018281 0.012878
0.651019 0.018718 0.013246
0.661114 0.019177 0.013636
0.671066 0.019652 0.014044
0.680860 0.020143 0.014468
0.690565 0.020652 0.014911
0.700196 0.021180 0.015374
0.709731 0.021727 0.015855
0.719193 0.022290 0.016352
0.728609 0.022870 0.016866
0.737386 0.023427 0.017359
0.031545 0.048164 0.037268
0.032357 0.050030 0.038235
0.032968 0.051811 0.038669
0.035942 0.053190 0.039919
0.043066 0.053897 0.039883
0.052747 0.053888 0.038545
0.062653 0.054215 0.038546
0.070870 0.055089 0.038923
0.078683 0.055998 0.039353
0.085670 0.056547 0.039509
0.094833 0.056669 0.039436
0.106943 0.056410 0.039158
0.121064 0.055790 0.038643
0.136244 0.054876 0.037868
0.151670 0.053634 0.036711
0.166261 0.052260 0.035377
0.180406 0.050769 0.033928
0.194427 0.049045 0.032233
0.208390 0.047036 0.030288
0.222184 0.044799 0.028016
0.235369 0.042540 0.025370
0.248039 0.040270 0.022272
0.260296 0.037849 0.018893
0.272129 0.035274 0.016770
0.283787 0.032527 0.014809
0.295375 0.029724 0.012732
0.306870 0.027466 0.010706
0.318355 0.026569 0.009203
0.329888 0.025979 0.008534
0.341486 0.025442 0.008454
0.353174 0.024908 0.008572
0.365648 0.024406 0.008718
0.380378 0.023918 0.008869
0.395017 0.023483 0.009023
0.409650 0.023041 0.009176
0.424809 0.022426 0.009323
0.440008 0.021760 0.009467
0.455028 0.021135 0.009612
0.470893 0.020176 0.009743
0.487608 0.018872 0.009859
0.504548 0.017460 0.009976
0.520969 0.016176 0.010111
0.535264 0.015427 0.010270
0.547233 0.015287 0.010454
0.557947 0.015477 0.010654
0.568262 0.015763 0.010867
0.578612 0.016066 0.011097
0.589024 0.016386 0.011344
0.599504 0.016727 0.011612
0.610044 0.017090 0.011901
0.620598 0.017475 0.012213
0.631162 0.017884 0.012549
0.641723 0.018316 0.012908
0.652281 0.018774 0.013293
0.662711 0.019251 0.013700
0.673035 0.019749 0.014127
0.683120 0.020261 0.014570
0.692979 0.020788 0.015029
0.702696 0.021334 0.015508
0.712320 0.021899 0.016005
0.721870 0.022482 0.016519
0.731336 0.023080 0.017047
0.740741 0.023690 0.017587
0.750124 0.024311 0.018137
0.758871 0.024899 0.018658
0.033947 0.055771 0.040450
0.034548 0.057532 0.041251
0.034932 0.059167 0.041463
0.035800 0.060401 0.042035
0.042088 0.060923 0.042979
0.050649 0.061037 0.042087
0.061073 0.060635 0.040500
0.072072 0.060835 0.040484
0.081177 0.061680 0.040881
0.089485 0.062778 0.041501
0.096703 0.063625 0.041971
0.103448 0.063894 0.042054
0.113336 0.063598 0.041717
0.126375 0.062709 0.041007
0.141660 0.061270 0.039824
0.157748 0.059544 0.038347
0.174087 0.057731 0.036715
0.190494 0.055734 0.034851
0.206966 0.053444 0.032655
0.223105 0.050910 0.030112
0.238499 0.048238 0.027181
0.253245 0.045482 0.023826
0.267334 0.042694 0.020206
0.280768 0.039869 0.017745
0.293648 0.036905 0.015499
0.306252 0.033737 0.013165
0.318579 0.030594 0.010953
0.330635 0.028361 0.009329
0.342560 0.027193 0.008665
0.354415 0.026362 0.008658
0.366232 0.025745 0.008797
0.378854 0.025193 0.008943
0.393992 0.024656 0.009096
0.409081 0.024177 0.009253
0.423995 0.023709 0.009408
0.439479 0.023064 0.009557
0.455059 0.022371 0.009704
0.470476 0.021720 0.009852
0.486861 0.020717 0.009986
0.504140 0.019377 0.010112
0.521660 0.017936 0.010252
0.538670 0.016635 0.010415
0.553483 0.015886 0.010606
0.565818 0.015790 0.010823
0.576950 0.016016 0.011059
0.587700 0.016344 0.011312
0.598491 0.016693 0.011585
0.609406 0.017068 0.011883
0.620392 0.017468 0.012207
0.631440 0.017895 0.012558
0.642474 0.018348 0.012935
0.653314 0.018820 0.013333
0.663974 0.019311 0.013751
0.674468 0.019823 0.014191
0.684795 0.020359 0.014654
0.695010 0.020919 0.015142
0.704975 0.021495 0.015646
0.714728 0.022084 0.016163
0.724351 0.022688 0.016695
0.733890 0.023307 0.017242
0.743371 0.023940 0.017800
0.752803 0.024581 0.018366
0.762197 0.025227 0.018936
0.771588 0.025876 0.019507
0.780360 0.026484 0.020039
0.035486 0.063003 0.042897
0.035862 0.064448 0.043432
0.036070 0.065913 0.043521
0.036181 0.067022 0.043550
0.039981 0.067753 0.044554
0.048974 0.067909 0.045097
0.058847 0.067941 0.043812
0.070030 0.067514 0.042349
0.082133 0.067760 0.042446
0.092006 0.068608 0.042952
0.100369 0.069783 0.043684
0.107847 0.070886 0.044384
0.114464 0.071280 0.044505
0.122094 0.070853 0.044043
0.133884 0.069579 0.042949
0.148559 0.067731 0.041433
0.164920 0.065585 0.039707
0.182222 0.063195 0.037702
0.200137 0.060558 0.035333
0.218212 0.057706 0.032502
0.235580 0.054809 0.029345
0.252297 0.051792 0.025851
0.268430 0.048644 0.022134
0.283764 0.045500 0.019401
0.298419 0.042308 0.016833
0.312581 0.038940 0.014153
0.326350 0.035362 0.011618
0.339877 0.031668 0.009669
0.353222 0.029161 0.008817
0.366156 0.027609 0.008736
0.378643 0.026684 0.008873
0.391411 0.026015 0.009046
0.406777 0.025446 0.009239
0.422068 0.024971 0.009439
0.437419 0.024501 0.009625
0.453674 0.023820 0.009792
0.470116 0.023075 0.009947
0.486419 0.022377 0.010103
0.503809 0.021313 0.010250
0.521904 0.019927 0.010403
0.540143 0.018467 0.010577
0.557855 0.017156 0.010782
0.573218 0.016442 0.011018
0.586098 0.016381 0.011280
0.597710 0.016667 0.011565
0.608982 0.017053 0.011871
0.620313 0.017465 0.012204
0.631634 0.017903 0.012564
0.642840 0.018364 0.012948
0.653910 0.018847 0.013355
0.664847 0.019359 0.013791
0.675570 0.019896 0.014252
0.686089 0.020457 0.014737
0.696442 0.021041 0.015245
0.706635 0.021647 0.015774
0.716731 0.022275 0.016324
0.726580 0.022913 0.016885
0.736234 0.023560 0.017454
0.745784 0.024217 0.018032
0.755271 0.024882 0.018617
0.764723 0.025553 0.019206
0.774166 0.026225 0.019794
0.783595 0.026892 0.020376
0.793071 0.027551 0.020947
0.801927 0.028158 0.021469
0.036361 0.069752 0.044726
0.036702 0.071253 0.045286
0.036965 0.072771 0.045407
0.036918 0.074040 0.045219
0.038357 0.074926 0.045867
0.046108 0.075262 0.047040
0.057148 0.075176 0.047043
0.067889 0.075173 0.045629
0.079646 0.074791 0.044273
0.092614 0.075073 0.044510
0.102814 0.075940 0.045113
0.111195 0.077032 0.045844
0.118752 0.078013 0.046453
0.125792 0.078260 0.046485
0.133271 0.077445 0.045681
0.143252 0.075826 0.044258
0.156898 0.073763 0.042551
0.173010 0.071306 0.040540
0.190973 0.068461 0.038140
0.209855 0.065326 0.035257
0.228623 0.062174 0.031904
0.246899 0.058980 0.028339
0.264837 0.055618 0.024558
0.282113 0.052170 0.021570
0.298713 0.048673 0.018714
0.314677 0.045150 0.015732
0.330149 0.041420 0.012838
0.345367 0.037300 0.010468
0.360563 0.032904 0.009289
0.375417 0.030199 0.009064
0.389264 0.028566 0.009117
0.402774 0.027475 0.009226
0.418974 0.026630 0.009366
0.435001 0.025959 0.009527
0.451050 0.025362 0.009705
0.467860 0.024644 0.009893
0.485049 0.023863 0.010088
0.502130 0.023162 0.010298
0.520167 0.022175 0.010513
0.539393 0.020791 0.010731
0.558833 0.019297 0.010964
0.577924 0.017898 0.011229
0.594547 0.017135 0.011530
0.608210 0.017116 0.011857
0.620271 0.017463 0.012203
0.631704 0.017905 0.012566
0.643000 0.018372 0.012955
0.654211 0.018873 0.013377
0.665279 0.019405 0.013829
0.676186 0.019967 0.014311
0.686951 0.020559 0.014821
0.697512 0.021174 0.015354
0.707860 0.021809 0.015908
0.718083 0.022466 0.016482
0.728148 0.023140 0.017072
0.738117 0.023830 0.017676
0.747889 0.024525 0.018286
0.757487 0.025222 0.018896
0.766997 0.025920 0.019506
0.776482 0.026619 0.020114
0.785967 0.027312 0.020715
0.795484 0.027996 0.021304
0.805024 0.028663 0.021873
0.814654 0.029311 0.022421
0.823564 0.029926 0.022939
0.037119 0.076801 0.046652
0.037440 0.078366 0.047225
0.037739 0.079938 0.047374
0.037768 0.081411 0.047288
0.037928 0.082385 0.047395
0.042707 0.082939 0.048372
0.053758 0.082922 0.049409
0.066293 0.082655 0.048965
0.077334 0.082606 0.047525
0.089458 0.082174 0.046259
0.102883 0.082326 0.046579
0.113039 0.083014 0.047119
0.121360 0.083824 0.047612
0.128979 0.084395 0.047890
0.136688 0.084321 0.047625
0.145071 0.083251 0.046587
0.154495 0.081621 0.045112
0.166925 0.079449 0.043242
0.182775 0.076775 0.040908
0.200885 0.073654 0.038059
0.219959 0.070278 0.034778
0.239106 0.066901 0.031176
0.258198 0.063443 0.027451
0.276951 0.059892 0.024242
0.295319 0.056169 0.021108
0.313210 0.052348 0.017869
0.330471 0.048539 0.014642
0.347379 0.044484 0.011828
0.364201 0.039998 0.010220
0.380845 0.035671 0.009749
0.396866 0.032893 0.009675
0.412383 0.030713 0.009683
0.429160 0.029038 0.009739
0.446990 0.027806 0.009833
0.464284 0.026893 0.009958
0.482023 0.025989 0.010103
0.500210 0.025045 0.010266
0.518429 0.024178 0.010465
0.537292 0.023162 0.010699
0.557431 0.021792 0.010972
0.578110 0.020249 0.011292
0.598416 0.018787 0.011665
0.616159 0.017941 0.012079
0.630304 0.017933 0.012505
0.642523 0.018357 0.012944
0.654001 0.018898 0.013396
0.665236 0.019456 0.013869
0.676353 0.020047 0.014374
0.687295 0.020668 0.014908
0.698057 0.021315 0.015468
0.708654 0.021988 0.016052
0.719047 0.022681 0.016655
0.729250 0.023389 0.017272
0.739346 0.024114 0.017905
0.749302 0.024849 0.018546
0.759193 0.025592 0.019194
0.768919 0.026333 0.019837
0.778499 0.027065 0.020471
0.788021 0.027788 0.021093
0.797582 0.028501 0.021703
0.807176 0.029197 0.022293
0.816819 0.029876 0.022863
0.826405 0.030563 0.023438
0.835961 0.031262 0.024025
0.844755 0.031931 0.024585
0.037755 0.084081 0.048724
0.038047 0.085702 0.049302
0.038323 0.087331 0.049517
0.038419 0.088945 0.049491
0.037845 0.090024 0.049260
0.040009 0.090699 0.049774
0.048893 0.090726 0.050865
0.062179 0.090197 0.051453
0.075342 0.089770 0.050699
0.086429 0.089612 0.049247
0.098820 0.089163 0.048102
0.112256 0.089228 0.048416
0.122492 0.089679 0.048737
0.130983 0.090128 0.048910
0.139006 0.090192 0.048705
0.147603 0.089755 0.048130
0.156905 0.088774 0.047128
0.167110 0.087166 0.045586
0.179116 0.084954 0.043481
0.194433 0.082184 0.040803
0.212038 0.078994 0.037682
0.230846 0.075556 0.034230
0.250389 0.071967 0.030623
0.269957 0.068346 0.027299
0.289487 0.064614 0.024018
0.308892 0.060715 0.020508
0.327951 0.056707 0.017015
0.346648 0.052619 0.013816
0.365187 0.048271 0.011682
0.383561 0.043707 0.010809
0.401785 0.039192 0.010551
0.419757 0.035875 0.010441
0.437496 0.033073 0.010390
0.457659 0.030875 0.010392
0.477115 0.029302 0.010440
0.496199 0.028057 0.010527
0.515466 0.026923 0.010661
0.534697 0.025872 0.010846
0.554220 0.024749 0.011081
0.574851 0.023280 0.011370
0.596228 0.021585 0.011727
0.617378 0.019963 0.012158
0.636393 0.018875 0.012649
0.651309 0.018778 0.013166
0.663737 0.019257 0.013704
0.675348 0.019908 0.014275
0.686599 0.020618 0.014879
0.697642 0.021363 0.015510
0.708559 0.022122 0.016159
0.719282 0.022889 0.016819
0.729813 0.023659 0.017485
0.740138 0.024430 0.018155
0.750238 0.025205 0.018828
0.760229 0.025987 0.019505
0.770123 0.026771 0.020183
0.779971 0.027553 0.020856
0.789710 0.028322 0.021514
0.799337 0.029071 0.022150
0.808958 0.029800 0.022762
0.818624 0.030516 0.023359
0.828213 0.031242 0.023964
0.837740 0.031979 0.024578
0.847211 0.032727 0.025201
0.856665 0.033488 0.025835
0.865325 0.034215 0.026438
0.038106 0.091518 0.050856
0.038335 0.093138 0.051394
0.038484 0.094717 0.051601
0.038517 0.096266 0.051557
0.037862 0.097441 0.051111
0.037969 0.098197 0.051204
0.043185 0.098375 0.051875
0.055949 0.097855 0.052895
0.070762 0.096863 0.053109
0.083894 0.096448 0.052232
0.094972 0.096252 0.050859
0.107753 0.095861 0.049833
0.121092 0.095834 0.049977
0.131434 0.096016 0.050008
0.140375 0.095993 0.049725
0.149308 0.095622 0.049129
0.158988 0.095029 0.048353
0.169151 0.094152 0.047334
0.180452 0.092619 0.045661
0.193343 0.090446 0.043347
0.207803 0.087778 0.040486
0.224542 0.084707 0.037270
0.243154 0.081255 0.033901
0.262714 0.077593 0.030597
0.282805 0.073801 0.027268
0.303222 0.069864 0.023590
0.323650 0.065803 0.019837
0.343872 0.061690 0.016316
0.364184 0.057342 0.013615
0.384413 0.052764 0.012259
0.404531 0.047913 0.011783
0.424785 0.043055 0.011528
0.445211 0.039183 0.011355
0.465970 0.035732 0.011241
0.488605 0.033005 0.011184
0.509818 0.030995 0.011193
0.530139 0.029449 0.011283
0.549778 0.028200 0.011452
0.569598 0.026944 0.011698
0.590471 0.025373 0.012022
0.612154 0.023559 0.012431
0.633925 0.021767 0.012928
0.653924 0.020472 0.013495
0.669767 0.020212 0.014085
0.682772 0.020632 0.014693
0.694717 0.021287 0.015332
0.706264 0.022019 0.016004
0.717574 0.022798 0.016709
0.728655 0.023620 0.017441
0.739470 0.024476 0.018191
0.750042 0.025358 0.018955
0.760403 0.026260 0.019725
0.770552 0.027152 0.020483
0.780600 0.028025 0.021224
0.790612 0.028876 0.021943
0.800563 0.029695 0.022633
0.810377 0.030473 0.023282
0.820081 0.031232 0.023911
0.829642 0.032000 0.024546
0.839181 0.032781 0.025193
0.848632 0.033572 0.025847
0.858022 0.034374 0.026510
0.867356 0.035187 0.027182
0.876666 0.036013 0.027864
0.885196 0.036802 0.028515
0.037974 0.098664 0.052668
0.038105 0.100189 0.053153
0.038128 0.101686 0.053350
0.038067 0.103159 0.053304
0.037500 0.104465 0.052956
0.036280 0.105347 0.052640
0.038729 0.105764 0.052894
0.048018 0.105470 0.053770
0.063124 0.104473 0.054518
0.078815 0.103226 0.054461
0.091640 0.102884 0.053518
0.102875 0.102715 0.052263
0.116285 0.102434 0.051360
0.129476 0.102277 0.051266
0.140014 0.102129 0.050892
0.150047 0.101730 0.050183
0.160410 0.101199 0.049358
0.171082 0.100504 0.048401
0.182427 0.099617 0.047198
0.194966 0.098216 0.045419
0.208469 0.096233 0.043026
0.222849 0.093780 0.040207
0.238782 0.090893 0.037155
0.256874 0.087590 0.033989
0.276414 0.083987 0.030732
0.297163 0.080033 0.026984
0.318479 0.075910 0.023083
0.339857 0.071792 0.019312
0.361609 0.067480 0.016043
0.383656 0.062879 0.014140
0.405534 0.058029 0.013370
0.427408 0.052905 0.012971
0.449655 0.047659 0.012659
0.471720 0.043244 0.012416
0.494534 0.039190 0.012242
0.518739 0.035848 0.012171
0.541551 0.033247 0.012219
0.562807 0.031376 0.012378
0.583206 0.029857 0.012636
0.604430 0.028121 0.012991
0.626459 0.026144 0.013447
0.648521 0.024207 0.014000
0.669207 0.022703 0.014631
0.685809 0.022269 0.015285
0.699363 0.022605 0.015954
0.711658 0.023250 0.016652
0.723485 0.023987 0.017382
0.735087 0.024774 0.018143
0.746499 0.025604 0.018928
0.757668 0.026464 0.019727
0.768613 0.027346 0.020530
0.779369 0.028242 0.021330
0.789884 0.029138 0.022116
0.800263 0.030032 0.022883
0.810543 0.030916 0.023625
0.820659 0.031797 0.024351
0.830496 0.032690 0.025079
0.840131 0.033577 0.025802
0.849584 0.034454 0.026518
0.858998 0.035331 0.027236
0.868381 0.036209 0.027955
0.877651 0.037084 0.028673
0.886820 0.037965 0.029395
0.895971 0.038858 0.030127
0.904334 0.039711 0.030824
0.037202 0.105371 0.054189
0.037292 0.106828 0.054625
0.037231 0.108273 0.054811
0.037059 0.109701 0.054783
0.036619 0.111087 0.054530
0.035042 0.112125 0.054005
0.035192 0.112864 0.053931
0.040050 0.112945 0.054368
0.053273 0.112227 0.055349
0.069827 0.110825 0.055884
0.085977 0.109514 0.055600
0.098462 0.109278 0.054660
0.110352 0.109188 0.053513
0.124288 0.109064 0.052639
0.137298 0.108755 0.052211
0.148796 0.108325 0.051449
0.160645 0.107753 0.050494
0.172447 0.107114 0.049467
0.184387 0.106391 0.048281
0.197259 0.105444 0.046814
0.210688 0.104237 0.045009
0.224604 0.102521 0.042706
0.239505 0.100297 0.040072
0.255213 0.097666 0.037260
0.272651 0.094624 0.034244
0.292314 0.091101 0.030486
0.313412 0.087212 0.026517
0.335383 0.083031 0.022635
0.357949 0.078684 0.018948
0.380859 0.074103 0.016502
0.403863 0.069226 0.015370
0.426993 0.064053 0.014788
0.450514 0.058492 0.014348
0.473920 0.052952 0.013992
